DanielTruong99/gene_pkgs/ros2_pkgs_gene/joint_planner/motion_files/chirp_signals_25s.csv
timestamp,L_hip_joint,L_hip2_joint,L_thigh_joint,L_calf_joint,L_toe_joint
0.000000,0.100000,0.200000,0.950000,-0.700000,0.700000
0.002000,0.100000,0.200000,0.950000,-0.700000,0.700000
0.004000,0.100000,0.200000,0.950000,-0.700000,0.700000
0.006000,0.100000,0.200000,0.950000,-0.700000,0.700000
0.008000,0.100000,0.200000,0.950000,-0.700000,0.700000
0.010000,0.100000,0.200000,0.950000,-0.700000,0.700000
0.012000,0.100000,0.200000,0.950000,-0.700000,0.700000
0.014000,0.100000,0.200000,0.950000,-0.700000,0.700000
0.016000,0.100000,0.200000,0.950000,-0.700000,0.700000
0.018000,0.100000,0.200000,0.950000,-0.700000,0.700000
0.020000,0.100000,0.200000,0.950000,-0.700000,0.700000
0.022000,0.100000,0.200000,0.949999,-0.700001,0.700000
0.024000,0.100000,0.200000,0.949999,-0.700001,0.700000
0.026000,0.100000,0.199999,0.949999,-0.700001,0.699999
0.028000,0.100000,0.199999,0.949999,-0.700001,0.699999
0.030000,0.100000,0.199999,0.949999,-0.700001,0.699999
0.032000,0.100000,0.199999,0.949998,-0.700001,0.699999
0.034000,0.099999,0.199999,0.949998,-0.700002,0.699999
0.036000,0.099999,0.199999,0.949998,-0.700002,0.699999
0.038000,0.099999,0.199999,0.949998,-0.700002,0.699998
0.040000,0.099999,0.199998,0.949997,-0.700003,0.699998
0.042000,0.099999,0.199998,0.949997,-0.700003,0.699998
0.044000,0.099999,0.199998,0.949996,-0.700003,0.699998
0.046000,0.099999,0.199997,0.949996,-0.700004,0.699997
0.048000,0.099999,0.199997,0.949995,-0.700004,0.699997
0.050000,0.099998,0.199997,0.949995,-0.700005,0.699996
0.052000,0.099998,0.199996,0.949994,-0.700005,0.699996
0.054000,0.099998,0.199996,0.949994,-0.700006,0.699996
0.056000,0.099998,0.199996,0.949993,-0.700007,0.699995
0.058000,0.099998,0.199995,0.949992,-0.700007,0.699994
0.060000,0.099997,0.199995,0.949991,-0.700008,0.699994
0.062000,0.099997,0.199994,0.949990,-0.700009,0.699993
0.064000,0.099997,0.199993,0.949989,-0.700010,0.699993
0.066000,0.099996,0.199993,0.949988,-0.700011,0.699992
0.068000,0.099996,0.199992,0.949987,-0.700012,0.699991
0.070000,0.099996,0.199991,0.949986,-0.700013,0.699990
0.072000,0.099995,0.199991,0.949985,-0.700014,0.699989
0.074000,0.099995,0.199990,0.949983,-0.700015,0.699988
0.076000,0.099994,0.199989,0.949982,-0.700017,0.699987
0.078000,0.099994,0.199988,0.949980,-0.700018,0.699986
0.080000,0.099993,0.199987,0.949979,-0.700020,0.699985
0.082000,0.099993,0.199986,0.949977,-0.700021,0.699984
0.084000,0.099992,0.199985,0.949975,-0.700023,0.699983
0.086000,0.099992,0.199984,0.949973,-0.700025,0.699981
0.088000,0.099991,0.199982,0.949971,-0.700027,0.699980
0.090000,0.099990,0.199981,0.949969,-0.700029,0.699979
0.092000,0.099990,0.199980,0.949967,-0.700031,0.699977
0.094000,0.099989,0.199978,0.949965,-0.700033,0.699975
0.096000,0.099988,0.199977,0.949962,-0.700035,0.699974
0.098000,0.099988,0.199975,0.949959,-0.700037,0.699972
0.100000,0.099987,0.199973,0.949957,-0.700040,0.699970
0.102000,0.099986,0.199972,0.949954,-0.700043,0.699968
0.104000,0.099985,0.199970,0.949951,-0.700045,0.699966
0.106000,0.099984,0.199968,0.949948,-0.700048,0.699964
0.108000,0.099983,0.199966,0.949944,-0.700051,0.699961
0.110000,0.099982,0.199964,0.949941,-0.700055,0.699959
0.112000,0.099981,0.199961,0.949937,-0.700058,0.699957
0.114000,0.099980,0.199959,0.949934,-0.700061,0.699954
0.116000,0.099978,0.199957,0.949930,-0.700065,0.699951
0.118000,0.099977,0.199954,0.949926,-0.700069,0.699948
0.120000,0.099976,0.199952,0.949921,-0.700073,0.699946
0.122000,0.099974,0.199949,0.949917,-0.700077,0.699942
0.124000,0.099973,0.199946,0.949912,-0.700081,0.699939
0.126000,0.099972,0.199943,0.949907,-0.700085,0.699936
0.128000,0.099970,0.199940,0.949902,-0.700090,0.699932
0.130000,0.099968,0.199937,0.949897,-0.700095,0.699929
0.132000,0.099967,0.199933,0.949892,-0.700100,0.699925
0.134000,0.099965,0.199930,0.949886,-0.700105,0.699921
0.136000,0.099963,0.199926,0.949880,-0.700110,0.699917
0.138000,0.099961,0.199923,0.949874,-0.700116,0.699913
0.140000,0.099959,0.199919,0.949868,-0.700122,0.699909
0.142000,0.099957,0.199915,0.949862,-0.700128,0.699904
0.144000,0.099955,0.199911,0.949855,-0.700134,0.699900
0.146000,0.099953,0.199906,0.949848,-0.700140,0.699895
0.148000,0.099951,0.199902,0.949841,-0.700147,0.699890
0.150000,0.099949,0.199897,0.949833,-0.700154,0.699885
0.152000,0.099946,0.199893,0.949826,-0.700161,0.699879
0.154000,0.099944,0.199888,0.949818,-0.700168,0.699874
0.156000,0.099941,0.199883,0.949809,-0.700176,0.699868
0.158000,0.099939,0.199878,0.949801,-0.700184,0.699862
0.160000,0.099936,0.199872,0.949792,-0.700192,0.699856
0.162000,0.099933,0.199867,0.949783,-0.700200,0.699850
0.164000,0.099930,0.199861,0.949774,-0.700209,0.699843
0.166000,0.099927,0.199855,0.949764,-0.700218,0.699837
0.168000,0.099924,0.199849,0.949754,-0.700227,0.699830
0.170000,0.099921,0.199842,0.949744,-0.700236,0.699823
0.172000,0.099918,0.199836,0.949733,-0.700246,0.699815
0.174000,0.099915,0.199829,0.949722,-0.700256,0.699808
0.176000,0.099911,0.199822,0.949711,-0.700267,0.699800
0.178000,0.099908,0.199815,0.949700,-0.700277,0.699792
0.180000,0.099904,0.199808,0.949688,-0.700288,0.699784
0.182000,0.099900,0.199800,0.949675,-0.700300,0.699775
0.184000,0.099896,0.199792,0.949663,-0.700311,0.699767
0.186000,0.099892,0.199784,0.949650,-0.700323,0.699758
0.188000,0.099888,0.199776,0.949636,-0.700336,0.699748
0.190000,0.099884,0.199768,0.949623,-0.700348,0.699739
0.192000,0.099880,0.199759,0.949609,-0.700361,0.699729
0.194000,0.099875,0.199750,0.949594,-0.700375,0.699719
0.196000,0.099871,0.199741,0.949579,-0.700388,0.699709
0.198000,0.099866,0.199732,0.949564,-0.700403,0.699698
0.200000,0.099861,0.199722,0.949548,-0.700417,0.699687
0.202000,0.099856,0.199712,0.949532,-0.700432,0.699676
0.204000,0.099851,0.199702,0.949516,-0.700447,0.699665
0.206000,0.099846,0.199691,0.949499,-0.700463,0.699653
0.208000,0.099840,0.199681,0.949481,-0.700479,0.699641
0.210000,0.099835,0.199670,0.949463,-0.700495,0.699628
0.212000,0.099829,0.199658,0.949445,-0.700512,0.699616
0.214000,0.099823,0.199647,0.949426,-0.700530,0.699603
0.216000,0.099817,0.199635,0.949407,-0.700548,0.699589
0.218000,0.099811,0.199623,0.949387,-0.700566,0.699576
0.220000,0.099805,0.199610,0.949367,-0.700584,0.699562
0.222000,0.099799,0.199598,0.949346,-0.700604,0.699547
0.224000,0.099792,0.199585,0.949325,-0.700623,0.699533
0.226000,0.099786,0.199571,0.949303,-0.700643,0.699518
0.228000,0.099779,0.199558,0.949281,-0.700664,0.699502
0.230000,0.099772,0.199544,0.949258,-0.700685,0.699486
0.232000,0.099765,0.199529,0.949235,-0.700706,0.699470
0.234000,0.099757,0.199515,0.949211,-0.700728,0.699454
0.236000,0.099750,0.199500,0.949187,-0.700751,0.699437
0.238000,0.099742,0.199484,0.949162,-0.700774,0.699420
0.240000,0.099734,0.199468,0.949136,-0.700797,0.699402
0.242000,0.099726,0.199452,0.949110,-0.700821,0.699384
0.244000,0.099718,0.199436,0.949083,-0.700846,0.699365
0.246000,0.099710,0.199419,0.949056,-0.700871,0.699347
0.248000,0.099701,0.199402,0.949028,-0.700897,0.699327
0.250000,0.099692,0.199385,0.949000,-0.700923,0.699308
0.252000,0.099683,0.199367,0.948971,-0.700950,0.699287
0.254000,0.099674,0.199348,0.948941,-0.700978,0.699267
0.256000,0.099665,0.199330,0.948911,-0.701006,0.699246
0.258000,0.099655,0.199311,0.948880,-0.701034,0.699224
0.260000,0.099646,0.199291,0.948848,-0.701063,0.699202
0.262000,0.099636,0.199271,0.948816,-0.701093,0.699180
0.264000,0.099625,0.199251,0.948783,-0.701124,0.699157
0.266000,0.099615,0.199230,0.948749,-0.701155,0.699134
0.268000,0.099605,0.199209,0.948715,-0.701186,0.699110
0.270000,0.099594,0.199187,0.948680,-0.701219,0.699086
0.272000,0.099583,0.199165,0.948644,-0.701252,0.699061
0.274000,0.099571,0.199143,0.948607,-0.701286,0.699036
0.276000,0.099560,0.199120,0.948570,-0.701320,0.699010
0.278000,0.099548,0.199097,0.948532,-0.701355,0.698984
0.280000,0.099536,0.199073,0.948493,-0.701391,0.698957
0.282000,0.099524,0.199049,0.948454,-0.701427,0.698930
0.284000,0.099512,0.199024,0.948414,-0.701464,0.698902
0.286000,0.099499,0.198999,0.948373,-0.701502,0.698873
0.288000,0.099486,0.198973,0.948331,-0.701541,0.698844
0.290000,0.099473,0.198947,0.948288,-0.701580,0.698815
0.292000,0.099460,0.198920,0.948245,-0.701620,0.698785
0.294000,0.099446,0.198893,0.948201,-0.701661,0.698754
0.296000,0.099433,0.198865,0.948156,-0.701702,0.698723
0.298000,0.099418,0.198837,0.948110,-0.701745,0.698691
0.300000,0.099404,0.198808,0.948063,-0.701788,0.698659
0.302000,0.099389,0.198779,0.948016,-0.701832,0.698626
0.304000,0.099374,0.198749,0.947967,-0.701877,0.698593
0.306000,0.099359,0.198719,0.947918,-0.701922,0.698558
0.308000,0.099344,0.198688,0.947868,-0.701968,0.698524
0.310000,0.099328,0.198656,0.947816,-0.702016,0.698488
0.312000,0.099312,0.198624,0.947764,-0.702064,0.698452
0.314000,0.099296,0.198592,0.947711,-0.702112,0.698416
0.316000,0.099279,0.198559,0.947658,-0.702162,0.698378
0.318000,0.099262,0.198525,0.947603,-0.702213,0.698340
0.320000,0.099245,0.198490,0.947547,-0.702264,0.698302
0.322000,0.099228,0.198456,0.947490,-0.702317,0.698263
0.324000,0.099210,0.198420,0.947433,-0.702370,0.698223
0.326000,0.099192,0.198384,0.947374,-0.702424,0.698182
0.328000,0.099174,0.198347,0.947314,-0.702479,0.698141
0.330000,0.099155,0.198310,0.947254,-0.702535,0.698099
0.332000,0.099136,0.198272,0.947192,-0.702592,0.698056
0.334000,0.099117,0.198233,0.947129,-0.702650,0.698013
0.336000,0.099097,0.198194,0.947065,-0.702709,0.697968
0.338000,0.099077,0.198154,0.947001,-0.702769,0.697923
0.340000,0.099057,0.198114,0.946935,-0.702829,0.697878
0.342000,0.099036,0.198072,0.946868,-0.702891,0.697832
0.344000,0.099015,0.198031,0.946800,-0.702954,0.697784
0.346000,0.098994,0.197988,0.946731,-0.703018,0.697737
0.348000,0.098972,0.197945,0.946660,-0.703083,0.697688
0.350000,0.098950,0.197901,0.946589,-0.703149,0.697639
0.352000,0.098928,0.197856,0.946516,-0.703216,0.697588
0.354000,0.098905,0.197811,0.946443,-0.703284,0.697537
0.356000,0.098882,0.197765,0.946368,-0.703353,0.697486
0.358000,0.098859,0.197718,0.946292,-0.703423,0.697433
0.360000,0.098835,0.197671,0.946215,-0.703494,0.697380
0.362000,0.098811,0.197623,0.946137,-0.703566,0.697325
0.364000,0.098787,0.197574,0.946057,-0.703640,0.697270
0.366000,0.098762,0.197524,0.945976,-0.703714,0.697214
0.368000,0.098737,0.197473,0.945894,-0.703790,0.697158
0.370000,0.098711,0.197422,0.945811,-0.703867,0.697100
0.372000,0.098685,0.197370,0.945727,-0.703945,0.697042
0.374000,0.098659,0.197318,0.945641,-0.704024,0.696982
0.376000,0.098632,0.197264,0.945554,-0.704104,0.696922
0.378000,0.098605,0.197210,0.945466,-0.704186,0.696861
0.380000,0.098577,0.197155,0.945376,-0.704268,0.696799
0.382000,0.098549,0.197099,0.945285,-0.704352,0.696736
0.384000,0.098521,0.197042,0.945193,-0.704437,0.696672
0.386000,0.098492,0.196984,0.945099,-0.704524,0.696607
0.388000,0.098463,0.196926,0.945004,-0.704611,0.696542
0.390000,0.098433,0.196867,0.944908,-0.704700,0.696475
0.392000,0.098403,0.196806,0.944810,-0.704790,0.696407
0.394000,0.098373,0.196746,0.944711,-0.704882,0.696339
0.396000,0.098342,0.196684,0.944611,-0.704974,0.696269
0.398000,0.098310,0.196621,0.944509,-0.705069,0.696199
0.400000,0.098279,0.196557,0.944406,-0.705164,0.696127
0.402000,0.098246,0.196493,0.944301,-0.705261,0.696055
0.404000,0.098214,0.196428,0.944195,-0.705359,0.695981
0.406000,0.098181,0.196361,0.944087,-0.705458,0.695907
0.408000,0.098147,0.196294,0.943978,-0.705559,0.695831
0.410000,0.098113,0.196226,0.943867,-0.705661,0.695754
0.412000,0.098079,0.196157,0.943755,-0.705764,0.695677
0.414000,0.098044,0.196087,0.943642,-0.705869,0.695598
0.416000,0.098008,0.196016,0.943526,-0.705976,0.695518
0.418000,0.097972,0.195944,0.943410,-0.706083,0.695437
0.420000,0.097936,0.195872,0.943291,-0.706193,0.695356
0.422000,0.097899,0.195798,0.943172,-0.706303,0.695273
0.424000,0.097862,0.195723,0.943050,-0.706415,0.695189
0.426000,0.097824,0.195647,0.942927,-0.706529,0.695103
0.428000,0.097785,0.195571,0.942802,-0.706644,0.695017
0.430000,0.097746,0.195493,0.942676,-0.706761,0.694930
0.432000,0.097707,0.195414,0.942548,-0.706879,0.694841
0.434000,0.097667,0.195334,0.942418,-0.706998,0.694751
0.436000,0.097627,0.195254,0.942287,-0.707119,0.694660
0.438000,0.097586,0.195172,0.942154,-0.707242,0.694568
0.440000,0.097544,0.195089,0.942020,-0.707367,0.694475
0.442000,0.097503,0.195005,0.941883,-0.707492,0.694381
0.444000,0.097460,0.194920,0.941745,-0.707620,0.694285
0.446000,0.097417,0.194834,0.941605,-0.707749,0.694188
0.448000,0.097373,0.194747,0.941464,-0.707880,0.694090
0.450000,0.097329,0.194659,0.941320,-0.708012,0.693991
0.452000,0.097285,0.194569,0.941175,-0.708146,0.693891
0.454000,0.097239,0.194479,0.941028,-0.708282,0.693789
0.456000,0.097194,0.194387,0.940880,-0.708419,0.693686
0.458000,0.097147,0.194295,0.940729,-0.708558,0.693582
0.460000,0.097101,0.194201,0.940577,-0.708698,0.693476
0.462000,0.097053,0.194106,0.940422,-0.708841,0.693369
0.464000,0.097005,0.194010,0.940266,-0.708985,0.693261
0.466000,0.096956,0.193913,0.940108,-0.709131,0.693152
0.468000,0.096907,0.193814,0.939948,-0.709278,0.693041
0.470000,0.096857,0.193715,0.939787,-0.709428,0.692929
0.472000,0.096807,0.193614,0.939623,-0.709579,0.692816
0.474000,0.096756,0.193512,0.939457,-0.709732,0.692701
0.476000,0.096704,0.193409,0.939290,-0.709887,0.692585
0.478000,0.096652,0.193305,0.939120,-0.710043,0.692468
0.480000,0.096599,0.193199,0.938948,-0.710202,0.692349
0.482000,0.096546,0.193092,0.938775,-0.710362,0.692229
0.484000,0.096492,0.192984,0.938599,-0.710524,0.692107
0.486000,0.096437,0.192875,0.938422,-0.710688,0.691984
0.488000,0.096382,0.192764,0.938242,-0.710854,0.691860
0.490000,0.096326,0.192652,0.938060,-0.711021,0.691734
0.492000,0.096270,0.192539,0.937876,-0.711191,0.691607
0.494000,0.096212,0.192425,0.937690,-0.711363,0.691478
0.496000,0.096155,0.192309,0.937502,-0.711536,0.691348
0.498000,0.096096,0.192192,0.937312,-0.711712,0.691216
0.500000,0.096037,0.192074,0.937120,-0.711889,0.691083
0.502000,0.095977,0.191954,0.936926,-0.712069,0.690949
0.504000,0.095917,0.191833,0.936729,-0.712250,0.690812
0.506000,0.095855,0.191711,0.936530,-0.712434,0.690675
0.508000,0.095794,0.191587,0.936329,-0.712619,0.690536
0.510000,0.095731,0.191462,0.936126,-0.712807,0.690395
0.512000,0.095668,0.191336,0.935921,-0.712996,0.690253
0.514000,0.095604,0.191208,0.935713,-0.713188,0.690109
0.516000,0.095540,0.191079,0.935503,-0.713381,0.689964
0.518000,0.095474,0.190948,0.935291,-0.713577,0.689817
0.520000,0.095408,0.190817,0.935077,-0.713775,0.689669
0.522000,0.095342,0.190683,0.934860,-0.713975,0.689519
0.524000,0.095274,0.190548,0.934641,-0.714178,0.689367
0.526000,0.095206,0.190412,0.934420,-0.714382,0.689214
0.528000,0.095137,0.190274,0.934196,-0.714588,0.689059
0.530000,0.095068,0.190135,0.933970,-0.714797,0.688902
0.532000,0.094997,0.189995,0.933741,-0.715008,0.688744
0.534000,0.094926,0.189853,0.933510,-0.715221,0.688584
0.536000,0.094855,0.189709,0.933277,-0.715436,0.688423
0.538000,0.094782,0.189564,0.933041,-0.715654,0.688259
0.540000,0.094709,0.189417,0.932803,-0.715874,0.688095
0.542000,0.094635,0.189269,0.932563,-0.716096,0.687928
0.544000,0.094560,0.189120,0.932320,-0.716320,0.687760
0.546000,0.094484,0.188969,0.932074,-0.716547,0.687590
0.548000,0.094408,0.188816,0.931826,-0.716776,0.687418
0.550000,0.094331,0.188662,0.931575,-0.717007,0.687244
0.552000,0.094253,0.188506,0.931322,-0.717241,0.687069
0.554000,0.094174,0.188349,0.931066,-0.717477,0.686892
0.556000,0.094095,0.188190,0.930808,-0.717716,0.686713
0.558000,0.094015,0.188029,0.930547,-0.717956,0.686533
0.560000,0.093933,0.187867,0.930284,-0.718200,0.686350
0.562000,0.093852,0.187703,0.930018,-0.718445,0.686166
0.564000,0.093769,0.187538,0.929749,-0.718693,0.685980
0.566000,0.093685,0.187371,0.929478,-0.718944,0.685792
0.568000,0.093601,0.187202,0.929204,-0.719197,0.685603
0.570000,0.093516,0.187032,0.928927,-0.719452,0.685411
0.572000,0.093430,0.186860,0.928648,-0.719710,0.685218
0.574000,0.093343,0.186686,0.928365,-0.719970,0.685022
0.576000,0.093256,0.186511,0.928081,-0.720233,0.684825
0.578000,0.093167,0.186334,0.927793,-0.720499,0.684626
0.580000,0.093078,0.186155,0.927503,-0.720767,0.684425
0.582000,0.092988,0.185975,0.927210,-0.721037,0.684222
0.584000,0.092896,0.185793,0.926914,-0.721311,0.684017
0.586000,0.092805,0.185609,0.926615,-0.721586,0.683810
0.588000,0.092712,0.185424,0.926313,-0.721865,0.683601
0.590000,0.092618,0.185236,0.926009,-0.722146,0.683391
0.592000,0.092524,0.185047,0.925702,-0.722429,0.683178
0.594000,0.092428,0.184856,0.925391,-0.722716,0.682963
0.596000,0.092332,0.184664,0.925078,-0.723005,0.682747
0.598000,0.092235,0.184469,0.924762,-0.723296,0.682528
0.600000,0.092136,0.184273,0.924444,-0.723591,0.682307
0.602000,0.092037,0.184075,0.924122,-0.723888,0.682084
0.604000,0.091938,0.183875,0.923797,-0.724187,0.681859
0.606000,0.091837,0.183673,0.923469,-0.724490,0.681633
0.608000,0.091735,0.183470,0.923139,-0.724795,0.681404
0.610000,0.091632,0.183264,0.922805,-0.725103,0.681173
0.612000,0.091529,0.183057,0.922468,-0.725414,0.680939
0.614000,0.091424,0.182848,0.922128,-0.725728,0.680704
0.616000,0.091319,0.182637,0.921785,-0.726044,0.680467
0.618000,0.091212,0.182424,0.921439,-0.726364,0.680227
0.620000,0.091105,0.182210,0.921090,-0.726686,0.679986
0.622000,0.090996,0.181993,0.920738,-0.727011,0.679742
0.624000,0.090887,0.181774,0.920383,-0.727339,0.679496
0.626000,0.090777,0.181554,0.920025,-0.727669,0.679248
0.628000,0.090666,0.181331,0.919663,-0.728003,0.678998
0.630000,0.090553,0.181107,0.919299,-0.728340,0.678745
0.632000,0.090440,0.180880,0.918931,-0.728679,0.678490
0.634000,0.090326,0.180652,0.918560,-0.729022,0.678234
0.636000,0.090211,0.180422,0.918185,-0.729367,0.677974
0.638000,0.090095,0.180189,0.917808,-0.729716,0.677713
0.640000,0.089978,0.179955,0.917427,-0.730067,0.677449
0.642000,0.089859,0.179719,0.917043,-0.730422,0.677184
0.644000,0.089740,0.179480,0.916656,-0.730779,0.676915
0.646000,0.089620,0.179240,0.916265,-0.731140,0.676645
0.648000,0.089499,0.178998,0.915871,-0.731504,0.676372
0.650000,0.089377,0.178753,0.915474,-0.731870,0.676097
0.652000,0.089253,0.178507,0.915073,-0.732240,0.675820
0.654000,0.089129,0.178258,0.914669,-0.732613,0.675540
0.656000,0.089004,0.178007,0.914262,-0.732989,0.675258
0.658000,0.088877,0.177755,0.913851,-0.733368,0.674974
0.660000,0.088750,0.177500,0.913437,-0.733750,0.674687
0.662000,0.088621,0.177243,0.913020,-0.734136,0.674398
0.664000,0.088492,0.176984,0.912598,-0.734524,0.674107
0.666000,0.088361,0.176722,0.912174,-0.734916,0.673813
0.668000,0.088230,0.176459,0.911746,-0.735311,0.673516
0.670000,0.088097,0.176194,0.911315,-0.735710,0.673218
0.672000,0.087963,0.175926,0.910880,-0.736111,0.672917
0.674000,0.087828,0.175656,0.910441,-0.736516,0.672613
0.676000,0.087692,0.175384,0.909999,-0.736924,0.672307
0.678000,0.087555,0.175110,0.909554,-0.737335,0.671999
0.680000,0.087417,0.174833,0.909104,-0.737750,0.671688
0.682000,0.087277,0.174555,0.908652,-0.738168,0.671374
0.684000,0.087137,0.174274,0.908195,-0.738589,0.671058
0.686000,0.086996,0.173991,0.907735,-0.739013,0.670740
0.688000,0.086853,0.173706,0.907272,-0.739441,0.670419
0.690000,0.086709,0.173418,0.906805,-0.739873,0.670095
0.692000,0.086564,0.173128,0.906334,-0.740307,0.669769
0.694000,0.086418,0.172836,0.905859,-0.740745,0.669441
0.696000,0.086271,0.172542,0.905381,-0.741187,0.669110
0.698000,0.086123,0.172245,0.904899,-0.741632,0.668776
0.700000,0.085973,0.171947,0.904413,-0.742080,0.668440
0.702000,0.085823,0.171645,0.903924,-0.742532,0.668101
0.704000,0.085671,0.171342,0.903430,-0.742987,0.667759
0.706000,0.085518,0.171036,0.902933,-0.743446,0.667415
0.708000,0.085364,0.170728,0.902433,-0.743908,0.667069
0.710000,0.085209,0.170417,0.901928,-0.744374,0.666719
0.712000,0.085052,0.170104,0.901420,-0.744844,0.666367
0.714000,0.084895,0.169789,0.900907,-0.745316,0.666013
0.716000,0.084736,0.169471,0.900391,-0.745793,0.665655
0.718000,0.084576,0.169151,0.899871,-0.746273,0.665295
0.720000,0.084415,0.168829,0.899347,-0.746756,0.664933
0.722000,0.084252,0.168504,0.898820,-0.747243,0.664567
0.724000,0.084089,0.168177,0.898288,-0.747734,0.664199
0.726000,0.083924,0.167848,0.897752,-0.748229,0.663828
0.728000,0.083758,0.167516,0.897213,-0.748727,0.663455
0.730000,0.083591,0.167181,0.896669,-0.749228,0.663079
0.732000,0.083422,0.166844,0.896122,-0.749734,0.662700
0.734000,0.083252,0.166505,0.895570,-0.750243,0.662318
0.736000,0.083081,0.166163,0.895015,-0.750756,0.661933
0.738000,0.082909,0.165819,0.894455,-0.751272,0.661546
0.740000,0.082736,0.165472,0.893892,-0.751792,0.661156
0.742000,0.082561,0.165123,0.893324,-0.752316,0.660763
0.744000,0.082385,0.164771,0.892753,-0.752844,0.660367
0.746000,0.082208,0.164417,0.892177,-0.753375,0.659969
0.748000,0.082030,0.164060,0.891597,-0.753910,0.659567
0.750000,0.081850,0.163700,0.891013,-0.754449,0.659163
0.752000,0.081669,0.163339,0.890425,-0.754992,0.658756
0.754000,0.081487,0.162974,0.889833,-0.755539,0.658346
0.756000,0.081304,0.162607,0.889237,-0.756089,0.657933
0.758000,0.081119,0.162238,0.888636,-0.756644,0.657517
0.760000,0.080933,0.161866,0.888031,-0.757202,0.657099
0.762000,0.080745,0.161491,0.887423,-0.757764,0.656677
0.764000,0.080557,0.161114,0.886810,-0.758330,0.656253
0.766000,0.080367,0.160734,0.886192,-0.758899,0.655825
0.768000,0.080176,0.160351,0.885571,-0.759473,0.655395
0.770000,0.079983,0.159966,0.884945,-0.760051,0.654962
0.772000,0.079789,0.159579,0.884315,-0.760632,0.654526
0.774000,0.079594,0.159188,0.883681,-0.761218,0.654087
0.776000,0.079398,0.158795,0.883042,-0.761807,0.653645
0.778000,0.079200,0.158400,0.882399,-0.762401,0.653200
0.780000,0.079001,0.158001,0.881752,-0.762998,0.652752
0.782000,0.078800,0.157600,0.881101,-0.763599,0.652300
0.784000,0.078598,0.157197,0.880445,-0.764205,0.651846
0.786000,0.078395,0.156791,0.879785,-0.764814,0.651389
0.788000,0.078191,0.156382,0.879120,-0.765428,0.650929
0.790000,0.077985,0.155970,0.878451,-0.766045,0.650466
0.792000,0.077778,0.155556,0.877778,-0.766667,0.650000
0.794000,0.077569,0.155138,0.877100,-0.767292,0.649531
0.796000,0.077359,0.154719,0.876418,-0.767922,0.649059
0.798000,0.077148,0.154296,0.875731,-0.768556,0.648583
0.800000,0.076935,0.153871,0.875040,-0.769194,0.648105
0.802000,0.076721,0.153443,0.874345,-0.769836,0.647623
0.804000,0.076506,0.153012,0.873645,-0.770482,0.647139
0.806000,0.076289,0.152579,0.872940,-0.771132,0.646651
0.808000,0.076071,0.152142,0.872231,-0.771786,0.646160
0.810000,0.075852,0.151703,0.871518,-0.772445,0.645666
0.812000,0.075631,0.151262,0.870800,-0.773108,0.645169
0.814000,0.075408,0.150817,0.870077,-0.773775,0.644669
0.816000,0.075185,0.150370,0.869350,-0.774446,0.644166
0.818000,0.074960,0.149919,0.868619,-0.775121,0.643659
0.820000,0.074733,0.149466,0.867883,-0.775801,0.643150
0.822000,0.074505,0.149010,0.867142,-0.776484,0.642637
0.824000,0.074276,0.148552,0.866397,-0.777172,0.642121
0.826000,0.074045,0.148090,0.865647,-0.777864,0.641602
0.828000,0.073813,0.147626,0.864892,-0.778561,0.641079
0.830000,0.073579,0.147159,0.864133,-0.779262,0.640554
0.832000,0.073344,0.146689,0.863369,-0.779967,0.640025
0.834000,0.073108,0.146216,0.862601,-0.780676,0.639493
0.836000,0.072870,0.145740,0.861828,-0.781390,0.638958
0.838000,0.072631,0.145262,0.861050,-0.782107,0.638419
0.840000,0.072390,0.144780,0.860268,-0.782830,0.637878
0.842000,0.072148,0.144296,0.859481,-0.783556,0.637333
0.844000,0.071904,0.143809,0.858689,-0.784287,0.636785
0.846000,0.071659,0.143318,0.857893,-0.785022,0.636233
0.848000,0.071413,0.142825,0.857091,-0.785762,0.635679
0.850000,0.071165,0.142330,0.856285,-0.786506,0.635121
0.852000,0.070915,0.141831,0.855475,-0.787254,0.634559
0.854000,0.070664,0.141329,0.854659,-0.788007,0.633995
0.856000,0.070412,0.140824,0.853839,-0.788764,0.633427
0.858000,0.070158,0.140317,0.853014,-0.789525,0.632856
0.860000,0.069903,0.139806,0.852185,-0.790291,0.632282
0.862000,0.069646,0.139293,0.851350,-0.791061,0.631704
0.864000,0.069388,0.138776,0.850511,-0.791836,0.631123
0.866000,0.069128,0.138257,0.849667,-0.792615,0.630539
0.868000,0.068867,0.137734,0.848818,-0.793399,0.629951
0.870000,0.068604,0.137209,0.847965,-0.794187,0.629360
0.872000,0.068340,0.136681,0.847106,-0.794979,0.628766
0.874000,0.068075,0.136149,0.846243,-0.795776,0.628168
0.876000,0.067808,0.135615,0.845375,-0.796577,0.627567
0.878000,0.067539,0.135078,0.844502,-0.797383,0.626963
0.880000,0.067269,0.134538,0.843624,-0.798193,0.626355
0.882000,0.066997,0.133995,0.842741,-0.799008,0.625744
0.884000,0.066724,0.133448,0.841854,-0.799827,0.625129
0.886000,0.066450,0.132899,0.840961,-0.800651,0.624512
0.888000,0.066173,0.132347,0.840064,-0.801480,0.623890
0.890000,0.065896,0.131792,0.839162,-0.802312,0.623266
0.892000,0.065617,0.131234,0.838255,-0.803150,0.622638
0.894000,0.065336,0.130672,0.837343,-0.803992,0.622006
0.896000,0.065054,0.130108,0.836426,-0.804838,0.621372
0.898000,0.064770,0.129541,0.835504,-0.805689,0.620733
0.900000,0.064485,0.128970,0.834577,-0.806544,0.620092
0.902000,0.064199,0.128397,0.833645,-0.807404,0.619447
0.904000,0.063910,0.127821,0.832709,-0.808269,0.618798
0.906000,0.063621,0.127241,0.831767,-0.809138,0.618146
0.908000,0.063329,0.126659,0.830821,-0.810012,0.617491
0.910000,0.063037,0.126073,0.829869,-0.810890,0.616832
0.912000,0.062742,0.125485,0.828913,-0.811773,0.616170
0.914000,0.062447,0.124893,0.827951,-0.812660,0.615505
0.916000,0.062149,0.124298,0.826985,-0.813552,0.614836
0.918000,0.061850,0.123701,0.826014,-0.814449,0.614163
0.920000,0.061550,0.123100,0.825037,-0.815350,0.613487
0.922000,0.061248,0.122496,0.824056,-0.816256,0.612808
0.924000,0.060945,0.121889,0.823070,-0.817166,0.612125
0.926000,0.060640,0.121279,0.822079,-0.818081,0.611439
0.928000,0.060333,0.120666,0.821082,-0.819001,0.610749
0.930000,0.060025,0.120050,0.820081,-0.819925,0.610056
0.932000,0.059715,0.119431,0.819075,-0.820854,0.609360
0.934000,0.059404,0.118809,0.818064,-0.821787,0.608660
0.936000,0.059092,0.118183,0.817048,-0.822725,0.607956
0.938000,0.058777,0.117555,0.816026,-0.823668,0.607249
0.940000,0.058462,0.116923,0.815000,-0.824615,0.606539
0.942000,0.058144,0.116289,0.813969,-0.825567,0.605825
0.944000,0.057825,0.115651,0.812933,-0.826524,0.605107
0.946000,0.057505,0.115010,0.811891,-0.827485,0.604386
0.948000,0.057183,0.114366,0.810845,-0.828451,0.603662
0.950000,0.056860,0.113719,0.809794,-0.829421,0.602934
0.952000,0.056535,0.113069,0.808737,-0.830396,0.602203
0.954000,0.056208,0.112416,0.807676,-0.831376,0.601468
0.956000,0.055880,0.111760,0.806610,-0.832360,0.600730
0.958000,0.055550,0.111101,0.805538,-0.833349,0.599988
0.960000,0.055219,0.110438,0.804462,-0.834343,0.599243
0.962000,0.054886,0.109773,0.803381,-0.835341,0.598494
0.964000,0.054552,0.109104,0.802294,-0.836344,0.597742
0.966000,0.054216,0.108432,0.801203,-0.837351,0.596986
0.968000,0.053879,0.107758,0.800106,-0.838364,0.596227
0.970000,0.053540,0.107080,0.799005,-0.839380,0.595465
0.972000,0.053199,0.106399,0.797898,-0.840402,0.594699
0.974000,0.052857,0.105715,0.796787,-0.841428,0.593929
0.976000,0.052514,0.105028,0.795670,-0.842458,0.593156
0.978000,0.052169,0.104337,0.794548,-0.843494,0.592380
0.980000,0.051822,0.103644,0.793422,-0.844534,0.591600
0.982000,0.051474,0.102948,0.792290,-0.845578,0.590816
0.984000,0.051124,0.102248,0.791154,-0.846627,0.590029
0.986000,0.050773,0.101546,0.790012,-0.847681,0.589239
0.988000,0.050420,0.100840,0.788865,-0.848740,0.588445
0.990000,0.050066,0.100131,0.787714,-0.849803,0.587648
0.992000,0.049710,0.099420,0.786557,-0.850870,0.586847
0.994000,0.049352,0.098705,0.785395,-0.851943,0.586043
0.996000,0.048993,0.097987,0.784229,-0.853020,0.585235
0.998000,0.048633,0.097266,0.783057,-0.854101,0.584424
1.000000,0.048271,0.096542,0.781881,-0.855187,0.583610
1.002000,0.047907,0.095815,0.780699,-0.856278,0.582792
1.004000,0.047542,0.095085,0.779512,-0.857373,0.581970
1.006000,0.047176,0.094351,0.778321,-0.858473,0.581145
1.008000,0.046808,0.093615,0.777124,-0.859577,0.580317
1.010000,0.046438,0.092876,0.775923,-0.860686,0.579485
1.012000,0.046067,0.092133,0.774717,-0.861800,0.578650
1.014000,0.045694,0.091388,0.773505,-0.862918,0.577811
1.016000,0.045320,0.090639,0.772289,-0.864041,0.576969
1.018000,0.044944,0.089888,0.771068,-0.865168,0.576124
1.020000,0.044567,0.089133,0.769842,-0.866300,0.575275
1.022000,0.044188,0.088376,0.768611,-0.867436,0.574423
1.024000,0.043808,0.087615,0.767375,-0.868577,0.573567
1.026000,0.043426,0.086852,0.766134,-0.869723,0.572708
1.028000,0.043042,0.086085,0.764888,-0.870873,0.571846
1.030000,0.042658,0.085315,0.763637,-0.872027,0.570980
1.032000,0.042271,0.084543,0.762382,-0.873186,0.570110
1.034000,0.041883,0.083767,0.761121,-0.874350,0.569238
1.036000,0.041494,0.082988,0.759856,-0.875517,0.568362
1.038000,0.041103,0.082207,0.758586,-0.876690,0.567483
1.040000,0.040711,0.081422,0.757311,-0.877867,0.566600
1.042000,0.040317,0.080635,0.756031,-0.879048,0.565714
1.044000,0.039922,0.079844,0.754747,-0.880234,0.564825
1.046000,0.039525,0.079050,0.753457,-0.881424,0.563932
1.048000,0.039127,0.078254,0.752163,-0.882619,0.563036
1.050000,0.038727,0.077455,0.750864,-0.883818,0.562136
1.052000,0.038326,0.076652,0.749560,-0.885022,0.561234
1.054000,0.037923,0.075847,0.748251,-0.886230,0.560328
1.056000,0.037519,0.075039,0.746938,-0.887442,0.559419
1.058000,0.037114,0.074228,0.745620,-0.888659,0.558506
1.060000,0.036707,0.073414,0.744297,-0.889880,0.557590
1.062000,0.036298,0.072597,0.742969,-0.891105,0.556671
1.064000,0.035888,0.071777,0.741637,-0.892335,0.555749
1.066000,0.035477,0.070954,0.740300,-0.893569,0.554823
1.068000,0.035064,0.070128,0.738959,-0.894807,0.553894
1.070000,0.034650,0.069300,0.737612,-0.896050,0.552962
1.072000,0.034234,0.068468,0.736261,-0.897297,0.552027
1.074000,0.033817,0.067634,0.734906,-0.898549,0.551089
1.076000,0.033399,0.066797,0.733545,-0.899804,0.550147
1.078000,0.032979,0.065957,0.732181,-0.901064,0.549202
1.080000,0.032557,0.065115,0.730811,-0.902328,0.548254
1.082000,0.032135,0.064269,0.729437,-0.903596,0.547303
1.084000,0.031710,0.063421,0.728059,-0.904869,0.546348
1.086000,0.031285,0.062570,0.726676,-0.906146,0.545391
1.088000,0.030858,0.061716,0.725288,-0.907427,0.544430
1.090000,0.030429,0.060859,0.723896,-0.908712,0.543466
1.092000,0.030000,0.059999,0.722499,-0.910001,0.542499
1.094000,0.029569,0.059137,0.721098,-0.911294,0.541529
1.096000,0.029136,0.058272,0.719692,-0.912592,0.540556
1.098000,0.028702,0.057405,0.718282,-0.913893,0.539580
1.100000,0.028267,0.056534,0.716868,-0.915199,0.538601
1.102000,0.027831,0.055661,0.715449,-0.916508,0.537619
1.104000,0.027393,0.054785,0.714026,-0.917822,0.536633
1.106000,0.026953,0.053907,0.712598,-0.919140,0.535645
1.108000,0.026513,0.053025,0.711166,-0.920462,0.534654
1.110000,0.026071,0.052142,0.709730,-0.921788,0.533659
1.112000,0.025628,0.051255,0.708290,-0.923117,0.532662
1.114000,0.025183,0.050366,0.706845,-0.924451,0.531662
1.116000,0.024737,0.049474,0.705396,-0.925789,0.530659
1.118000,0.024290,0.048580,0.703942,-0.927130,0.529652
1.120000,0.023841,0.047683,0.702485,-0.928476,0.528643
1.122000,0.023392,0.046783,0.701023,-0.929825,0.527631
1.124000,0.022941,0.045881,0.699557,-0.931178,0.526617
1.126000,0.022488,0.044977,0.698087,-0.932535,0.525599
1.128000,0.022035,0.044070,0.696613,-0.933896,0.524578
1.130000,0.021580,0.043160,0.695135,-0.935260,0.523555
1.132000,0.021124,0.042248,0.693652,-0.936629,0.522529
1.134000,0.020666,0.041333,0.692166,-0.938001,0.521500
1.136000,0.020208,0.040416,0.690676,-0.939376,0.520468
1.138000,0.019748,0.039496,0.689181,-0.940756,0.519433
1.140000,0.019287,0.038574,0.687683,-0.942139,0.518396
1.142000,0.018825,0.037649,0.686180,-0.943526,0.517356
1.144000,0.018361,0.036723,0.684674,-0.944916,0.516313
1.146000,0.017897,0.035793,0.683164,-0.946310,0.515267
1.148000,0.017431,0.034861,0.681650,-0.947708,0.514219
1.150000,0.016964,0.033927,0.680132,-0.949109,0.513168
1.152000,0.016495,0.032991,0.678610,-0.950514,0.512115
1.154000,0.016026,0.032052,0.677085,-0.951922,0.511059
1.156000,0.015556,0.031111,0.675556,-0.953333,0.510000
1.158000,0.015084,0.030168,0.674023,-0.954748,0.508939
1.160000,0.014611,0.029222,0.672486,-0.956167,0.507875
1.162000,0.014137,0.028274,0.670946,-0.957589,0.506809
1.164000,0.013662,0.027324,0.669402,-0.959014,0.505740
1.166000,0.013186,0.026372,0.667854,-0.960442,0.504668
1.168000,0.012709,0.025417,0.666303,-0.961874,0.503594
1.170000,0.012230,0.024460,0.664748,-0.963309,0.502518
1.172000,0.011751,0.023502,0.663190,-0.964748,0.501439
1.174000,0.011270,0.022540,0.661628,-0.966189,0.500358
1.176000,0.010789,0.021577,0.660063,-0.967634,0.499274
1.178000,0.010306,0.020612,0.658494,-0.969082,0.498188
1.180000,0.009822,0.019645,0.656922,-0.970533,0.497100
1.182000,0.009338,0.018675,0.655347,-0.971987,0.496010
1.184000,0.008852,0.017704,0.653769,-0.973444,0.494917
1.186000,0.008365,0.016730,0.652187,-0.974905,0.493821
1.188000,0.007877,0.015755,0.650601,-0.976368,0.492724
1.190000,0.007389,0.014777,0.649013,-0.977834,0.491624
1.192000,0.006899,0.013798,0.647421,-0.979303,0.490522
1.194000,0.006408,0.012816,0.645827,-0.980775,0.489418
1.196000,0.005917,0.011833,0.644229,-0.982250,0.488312
1.198000,0.005424,0.010848,0.642628,-0.983728,0.487204
1.200000,0.004930,0.009861,0.641024,-0.985209,0.486093
1.202000,0.004436,0.008872,0.639417,-0.986692,0.484981
1.204000,0.003941,0.007881,0.637807,-0.988178,0.483866
1.206000,0.003444,0.006889,0.636194,-0.989667,0.482750
1.208000,0.002947,0.005894,0.634578,-0.991158,0.481631
1.210000,0.002449,0.004898,0.632960,-0.992652,0.480511
1.212000,0.001950,0.003901,0.631339,-0.994149,0.479388
1.214000,0.001451,0.002901,0.629714,-0.995648,0.478264
1.216000,0.000950,0.001900,0.628087,-0.997150,0.477137
1.218000,0.000449,0.000897,0.626458,-0.998654,0.476009
1.220000,-0.000054,-0.000107,0.624826,-1.000161,0.474879
1.222000,-0.000557,-0.001113,0.623191,-1.001670,0.473748
1.224000,-0.001060,-0.002121,0.621553,-1.003181,0.472614
1.226000,-0.001565,-0.003130,0.619914,-1.004695,0.471479
1.228000,-0.002070,-0.004141,0.618271,-1.006211,0.470342
1.230000,-0.002577,-0.005153,0.616626,-1.007730,0.469203
1.232000,-0.003083,-0.006167,0.614979,-1.009250,0.468062
1.234000,-0.003591,-0.007182,0.613330,-1.010773,0.466920
1.236000,-0.004099,-0.008198,0.611678,-1.012298,0.465777
1.238000,-0.004608,-0.009216,0.610024,-1.013824,0.464632
1.240000,-0.005118,-0.010236,0.608367,-1.015353,0.463485
1.242000,-0.005628,-0.011256,0.606709,-1.016884,0.462337
1.244000,-0.006139,-0.012278,0.605048,-1.018417,0.461187
1.246000,-0.006651,-0.013301,0.603385,-1.019952,0.460036
1.248000,-0.007163,-0.014326,0.601720,-1.021489,0.458883
1.250000,-0.007676,-0.015352,0.600054,-1.023027,0.457729
1.252000,-0.008189,-0.016379,0.598385,-1.024568,0.456574
1.254000,-0.008703,-0.017407,0.596714,-1.026110,0.455418
1.256000,-0.009218,-0.018436,0.595042,-1.027654,0.454260
1.258000,-0.009733,-0.019466,0.593368,-1.029199,0.453101
1.260000,-0.010249,-0.020498,0.591692,-1.030746,0.451940
1.262000,-0.010765,-0.021530,0.590014,-1.032295,0.450779
1.264000,-0.011282,-0.022563,0.588334,-1.033845,0.449616
1.266000,-0.011799,-0.023598,0.586654,-1.035397,0.448452
1.268000,-0.012317,-0.024633,0.584971,-1.036950,0.447288
1.270000,-0.012835,-0.025670,0.583287,-1.038504,0.446122
1.272000,-0.013353,-0.026707,0.581602,-1.040060,0.444955
1.274000,-0.013872,-0.027745,0.579915,-1.041617,0.443787
1.276000,-0.014392,-0.028784,0.578226,-1.043176,0.442618
1.278000,-0.014912,-0.029823,0.576537,-1.044735,0.441449
1.280000,-0.015432,-0.030864,0.574846,-1.046296,0.440278
1.282000,-0.015953,-0.031905,0.573154,-1.047858,0.439107
1.284000,-0.016473,-0.032947,0.571461,-1.049420,0.437935
1.286000,-0.016995,-0.033990,0.569767,-1.050984,0.436762
1.288000,-0.017516,-0.035033,0.568072,-1.052549,0.435588
1.290000,-0.018038,-0.036076,0.566376,-1.054115,0.434414
1.292000,-0.018560,-0.037121,0.564679,-1.055681,0.433239
1.294000,-0.019083,-0.038166,0.562981,-1.057249,0.432064
1.296000,-0.019606,-0.039211,0.561282,-1.058817,0.430888
1.298000,-0.020128,-0.040257,0.559583,-1.060385,0.429711
1.300000,-0.020652,-0.041303,0.557882,-1.061955,0.428534
1.302000,-0.021175,-0.042350,0.556182,-1.063525,0.427356
1.304000,-0.021698,-0.043397,0.554480,-1.065095,0.426179
1.306000,-0.022222,-0.044444,0.552778,-1.066666,0.425000
1.308000,-0.022746,-0.045492,0.551076,-1.068238,0.423822
1.310000,-0.023270,-0.046540,0.549373,-1.069809,0.422643
1.312000,-0.023794,-0.047588,0.547670,-1.071382,0.421464
1.314000,-0.024318,-0.048636,0.545967,-1.072954,0.420285
1.316000,-0.024842,-0.049684,0.544263,-1.074526,0.419105
1.318000,-0.025366,-0.050733,0.542559,-1.076099,0.417926
1.320000,-0.025891,-0.051781,0.540855,-1.077672,0.416746
1.322000,-0.026415,-0.052830,0.539151,-1.079245,0.415566
1.324000,-0.026939,-0.053879,0.537447,-1.080818,0.414387
1.326000,-0.027464,-0.054927,0.535744,-1.082391,0.413207
1.328000,-0.027988,-0.055975,0.534040,-1.083963,0.412028
1.330000,-0.028512,-0.057024,0.532336,-1.085536,0.410848
1.332000,-0.029036,-0.058072,0.530633,-1.087108,0.409669
1.334000,-0.029560,-0.059120,0.528930,-1.088680,0.408490
1.336000,-0.030084,-0.060168,0.527228,-1.090251,0.407312
1.338000,-0.030607,-0.061215,0.525526,-1.091822,0.406133
1.340000,-0.031131,-0.062262,0.523824,-1.093393,0.404955
1.342000,-0.031654,-0.063309,0.522123,-1.094963,0.403778
1.344000,-0.032178,-0.064355,0.520423,-1.096533,0.402601
1.346000,-0.032700,-0.065401,0.518724,-1.098101,0.401424
1.348000,-0.033223,-0.066446,0.517025,-1.099669,0.400248
1.350000,-0.033746,-0.067491,0.515327,-1.101237,0.399072
1.352000,-0.034268,-0.068535,0.513630,-1.102803,0.397898
1.354000,-0.034790,-0.069579,0.511934,-1.104369,0.396723
1.356000,-0.035311,-0.070622,0.510239,-1.105933,0.395550
1.358000,-0.035832,-0.071665,0.508545,-1.107497,0.394377
1.360000,-0.036353,-0.072706,0.506852,-1.109059,0.393206
1.362000,-0.036874,-0.073747,0.505161,-1.110621,0.392035
1.364000,-0.037394,-0.074787,0.503471,-1.112181,0.390865
1.366000,-0.037913,-0.075826,0.501782,-1.113739,0.389695
1.368000,-0.038432,-0.076865,0.500095,-1.115297,0.388527
1.370000,-0.038951,-0.077902,0.498409,-1.116853,0.387360
1.372000,-0.039469,-0.078938,0.496725,-1.118407,0.386195
1.374000,-0.039987,-0.079974,0.495043,-1.119960,0.385030
1.376000,-0.040504,-0.081008,0.493362,-1.121512,0.383866
1.378000,-0.041020,-0.082041,0.491684,-1.123061,0.382704
1.380000,-0.041536,-0.083073,0.490007,-1.124609,0.381543
1.382000,-0.042052,-0.084104,0.488332,-1.126155,0.380383
1.384000,-0.042567,-0.085133,0.486659,-1.127700,0.379225
1.386000,-0.043081,-0.086161,0.484988,-1.129242,0.378069
1.388000,-0.043594,-0.087188,0.483319,-1.130782,0.376913
1.390000,-0.044107,-0.088214,0.481653,-1.132320,0.375760
1.392000,-0.044619,-0.089238,0.479989,-1.133856,0.374608
1.394000,-0.045130,-0.090260,0.478327,-1.135390,0.373457
1.396000,-0.045641,-0.091281,0.476668,-1.136922,0.372309
1.398000,-0.046150,-0.092301,0.475011,-1.138451,0.371162
1.400000,-0.046659,-0.093318,0.473357,-1.139978,0.370017
1.402000,-0.047167,-0.094335,0.471706,-1.141502,0.368874
1.404000,-0.047675,-0.095349,0.470058,-1.143024,0.367732
1.406000,-0.048181,-0.096362,0.468412,-1.144543,0.366593
1.408000,-0.048686,-0.097373,0.466769,-1.146059,0.365456
1.410000,-0.049191,-0.098382,0.465130,-1.147573,0.364321
1.412000,-0.049694,-0.099389,0.463493,-1.149083,0.363187
1.414000,-0.050197,-0.100394,0.461860,-1.150591,0.362057
1.416000,-0.050699,-0.101397,0.460229,-1.152096,0.360928
1.418000,-0.051199,-0.102399,0.458602,-1.153598,0.359802
1.420000,-0.051699,-0.103398,0.456979,-1.155096,0.358678
1.422000,-0.052197,-0.104395,0.455359,-1.156592,0.357556
1.424000,-0.052695,-0.105389,0.453742,-1.158084,0.356437
1.426000,-0.053191,-0.106382,0.452130,-1.159573,0.355320
1.428000,-0.053686,-0.107372,0.450520,-1.161058,0.354206
1.430000,-0.054180,-0.108360,0.448915,-1.162540,0.353095
1.432000,-0.054673,-0.109345,0.447314,-1.164018,0.351986
1.434000,-0.055164,-0.110329,0.445716,-1.165493,0.350880
1.436000,-0.055655,-0.111309,0.444123,-1.166964,0.349777
1.438000,-0.056144,-0.112287,0.442533,-1.168431,0.348677
1.440000,-0.056631,-0.113263,0.440948,-1.169894,0.347579
1.442000,-0.057118,-0.114236,0.439367,-1.171353,0.346485
1.444000,-0.057603,-0.115206,0.437791,-1.172809,0.345394
1.446000,-0.058087,-0.116173,0.436219,-1.174260,0.344305
1.448000,-0.058569,-0.117138,0.434651,-1.175707,0.343220
1.450000,-0.059050,-0.118100,0.433088,-1.177150,0.342138
1.452000,-0.059529,-0.119059,0.431530,-1.178588,0.341059
1.454000,-0.060007,-0.120015,0.429976,-1.180022,0.339984
1.456000,-0.060484,-0.120968,0.428428,-1.181452,0.338911
1.458000,-0.060959,-0.121918,0.426884,-1.182876,0.337843
1.460000,-0.061432,-0.122865,0.425345,-1.184297,0.336777
1.462000,-0.061904,-0.123808,0.423812,-1.185712,0.335716
1.464000,-0.062374,-0.124749,0.422283,-1.187123,0.334658
1.466000,-0.062843,-0.125686,0.420760,-1.188529,0.333603
1.468000,-0.063310,-0.126620,0.419242,-1.189930,0.332552
1.470000,-0.063775,-0.127551,0.417730,-1.191326,0.331505
1.472000,-0.064239,-0.128478,0.416223,-1.192717,0.330462
1.474000,-0.064701,-0.129402,0.414722,-1.194103,0.329423
1.476000,-0.065161,-0.130322,0.413226,-1.195483,0.328387
1.478000,-0.065620,-0.131239,0.411737,-1.196859,0.327356
1.480000,-0.066076,-0.132152,0.410253,-1.198228,0.326329
1.482000,-0.066531,-0.133062,0.408775,-1.199592,0.325306
1.484000,-0.066984,-0.133967,0.407303,-1.200951,0.324287
1.486000,-0.067435,-0.134869,0.405837,-1.202304,0.323272
1.488000,-0.067884,-0.135768,0.404378,-1.203651,0.322262
1.490000,-0.068331,-0.136662,0.402925,-1.204993,0.321255
1.492000,-0.068776,-0.137552,0.401478,-1.206328,0.320254
1.494000,-0.069219,-0.138439,0.400037,-1.207658,0.319257
1.496000,-0.069660,-0.139321,0.398604,-1.208981,0.318264
1.498000,-0.070100,-0.140199,0.397176,-1.210299,0.317276
1.500000,-0.070537,-0.141073,0.395756,-1.211610,0.316293
1.502000,-0.070972,-0.141943,0.394342,-1.212915,0.315314
1.504000,-0.071404,-0.142809,0.392936,-1.214213,0.314340
1.506000,-0.071835,-0.143670,0.391536,-1.215505,0.313371
1.508000,-0.072264,-0.144527,0.390143,-1.216791,0.312407
1.510000,-0.072690,-0.145380,0.388758,-1.218070,0.311448
1.512000,-0.073114,-0.146228,0.387380,-1.219342,0.310494
1.514000,-0.073536,-0.147071,0.386009,-1.220607,0.309545
1.516000,-0.073955,-0.147910,0.384646,-1.221866,0.308601
1.518000,-0.074372,-0.148745,0.383290,-1.223117,0.307662
1.520000,-0.074787,-0.149574,0.381942,-1.224362,0.306729
1.522000,-0.075200,-0.150399,0.380601,-1.225599,0.305801
1.524000,-0.075610,-0.151220,0.379268,-1.226829,0.304878
1.526000,-0.076017,-0.152035,0.377943,-1.228052,0.303961
1.528000,-0.076423,-0.152845,0.376627,-1.229268,0.303049
1.530000,-0.076825,-0.153651,0.375318,-1.230476,0.302143
1.532000,-0.077226,-0.154451,0.374017,-1.231677,0.301243
1.534000,-0.077623,-0.155246,0.372725,-1.232870,0.300348
1.536000,-0.078018,-0.156037,0.371440,-1.234055,0.299459
1.538000,-0.078411,-0.156822,0.370165,-1.235232,0.298576
1.540000,-0.078801,-0.157601,0.368898,-1.236402,0.297698
1.542000,-0.079188,-0.158376,0.367639,-1.237564,0.296827
1.544000,-0.079573,-0.159145,0.366389,-1.238718,0.295962
1.546000,-0.079954,-0.159909,0.365148,-1.239863,0.295102
1.548000,-0.080334,-0.160667,0.363916,-1.241001,0.294249
1.550000,-0.080710,-0.161420,0.362692,-1.242130,0.293402
1.552000,-0.081084,-0.162167,0.361478,-1.243251,0.292562
1.554000,-0.081454,-0.162909,0.360273,-1.244363,0.291727
1.556000,-0.081822,-0.163645,0.359077,-1.245467,0.290899
1.558000,-0.082188,-0.164375,0.357890,-1.246563,0.290078
1.560000,-0.082550,-0.165100,0.356713,-1.247649,0.289263
1.562000,-0.082909,-0.165818,0.355545,-1.248727,0.288455
1.564000,-0.083265,-0.166531,0.354387,-1.249796,0.287653
1.566000,-0.083619,-0.167238,0.353239,-1.250856,0.286858
1.568000,-0.083969,-0.167938,0.352100,-1.251908,0.286069
1.570000,-0.084317,-0.168633,0.350971,-1.252950,0.285288
1.572000,-0.084661,-0.169322,0.349852,-1.253983,0.284513
1.574000,-0.085002,-0.170004,0.348743,-1.255006,0.283745
1.576000,-0.085340,-0.170680,0.347645,-1.256020,0.282985
1.578000,-0.085675,-0.171350,0.346556,-1.257025,0.282231
1.580000,-0.086007,-0.172014,0.345478,-1.258021,0.281484
1.582000,-0.086336,-0.172671,0.344410,-1.259007,0.280745
1.584000,-0.086661,-0.173322,0.343352,-1.259983,0.280013
1.586000,-0.086983,-0.173966,0.342305,-1.260949,0.279288
1.588000,-0.087302,-0.174604,0.341269,-1.261906,0.278571
1.590000,-0.087617,-0.175235,0.340243,-1.262852,0.277861
1.592000,-0.087930,-0.175859,0.339229,-1.263789,0.277158
1.594000,-0.088239,-0.176477,0.338225,-1.264716,0.276463
1.596000,-0.088544,-0.177088,0.337232,-1.265632,0.275776
1.598000,-0.088846,-0.177692,0.336250,-1.266538,0.275096
1.600000,-0.089145,-0.178290,0.335280,-1.267434,0.274424
1.602000,-0.089440,-0.178880,0.334320,-1.268320,0.273760
1.604000,-0.089732,-0.179463,0.333372,-1.269195,0.273104
1.606000,-0.090020,-0.180040,0.332436,-1.270059,0.272455
1.608000,-0.090304,-0.180609,0.331511,-1.270913,0.271815
1.610000,-0.090585,-0.181171,0.330597,-1.271756,0.271183
1.612000,-0.090863,-0.181726,0.329695,-1.272589,0.270558
1.614000,-0.091137,-0.182274,0.328805,-1.273410,0.269942
1.616000,-0.091407,-0.182814,0.327927,-1.274221,0.269334
1.618000,-0.091673,-0.183347,0.327061,-1.275020,0.268735
1.620000,-0.091936,-0.183873,0.326207,-1.275809,0.268143
1.622000,-0.092195,-0.184391,0.325365,-1.276586,0.267560
1.624000,-0.092451,-0.184901,0.324535,-1.277352,0.266986
1.626000,-0.092702,-0.185404,0.323718,-1.278107,0.266420
1.628000,-0.092950,-0.185900,0.322913,-1.278850,0.265863
1.630000,-0.093194,-0.186388,0.322120,-1.279582,0.265314
1.632000,-0.093434,-0.186868,0.321340,-1.280302,0.264774
1.634000,-0.093670,-0.187340,0.320572,-1.281010,0.264242
1.636000,-0.093902,-0.187805,0.319817,-1.281707,0.263720
1.638000,-0.094131,-0.188261,0.319075,-1.282392,0.263206
1.640000,-0.094355,-0.188710,0.318346,-1.283065,0.262701
1.642000,-0.094575,-0.189151,0.317630,-1.283726,0.262205
1.644000,-0.094792,-0.189583,0.316927,-1.284375,0.261719
1.646000,-0.095004,-0.190008,0.316237,-1.285012,0.261241
1.648000,-0.095212,-0.190425,0.315560,-1.285637,0.260772
1.650000,-0.095416,-0.190833,0.314896,-1.286249,0.260313
1.652000,-0.095617,-0.191233,0.314246,-1.286850,0.259863
1.654000,-0.095812,-0.191625,0.313610,-1.287437,0.259422
1.656000,-0.096004,-0.192008,0.312986,-1.288013,0.258991
1.658000,-0.096192,-0.192384,0.312377,-1.288575,0.258568
1.660000,-0.096375,-0.192750,0.311781,-1.289125,0.258156
1.662000,-0.096554,-0.193109,0.311199,-1.289663,0.257753
1.664000,-0.096729,-0.193458,0.310630,-1.290188,0.257359
1.666000,-0.096900,-0.193800,0.310076,-1.290699,0.256976
1.668000,-0.097066,-0.194132,0.309535,-1.291198,0.256601
1.670000,-0.097228,-0.194456,0.309009,-1.291684,0.256237
1.672000,-0.097386,-0.194771,0.308497,-1.292157,0.255882
1.674000,-0.097539,-0.195078,0.307999,-1.292617,0.255538
1.676000,-0.097688,-0.195375,0.307515,-1.293063,0.255203
1.678000,-0.097832,-0.195664,0.307046,-1.293496,0.254878
1.680000,-0.097972,-0.195944,0.306591,-1.293916,0.254563
1.682000,-0.098108,-0.196215,0.306150,-1.294323,0.254258
1.684000,-0.098239,-0.196477,0.305725,-1.294716,0.253963
1.686000,-0.098365,-0.196730,0.305314,-1.295095,0.253679
1.688000,-0.098487,-0.196974,0.304917,-1.295461,0.253404
1.690000,-0.098604,-0.197209,0.304536,-1.295813,0.253140
1.692000,-0.098717,-0.197434,0.304169,-1.296152,0.252886
1.694000,-0.098825,-0.197651,0.303817,-1.296476,0.252643
1.696000,-0.098929,-0.197858,0.303481,-1.296787,0.252410
1.698000,-0.099028,-0.198056,0.303159,-1.297084,0.252187
1.700000,-0.099122,-0.198244,0.302853,-1.297367,0.251975
1.702000,-0.099212,-0.198424,0.302562,-1.297636,0.251773
1.704000,-0.099297,-0.198593,0.302286,-1.297890,0.251582
1.706000,-0.099377,-0.198754,0.302025,-1.298131,0.251402
1.708000,-0.099452,-0.198905,0.301780,-1.298357,0.251232
1.710000,-0.099523,-0.199046,0.301551,-1.298569,0.251073
1.712000,-0.099589,-0.199178,0.301337,-1.298766,0.250925
1.714000,-0.099650,-0.199300,0.301138,-1.298949,0.250788
1.716000,-0.099706,-0.199412,0.300956,-1.299118,0.250662
1.718000,-0.099757,-0.199515,0.300789,-1.299272,0.250546
1.720000,-0.099804,-0.199608,0.300638,-1.299411,0.250441
1.722000,-0.099845,-0.199691,0.300502,-1.299536,0.250348
1.724000,-0.099882,-0.199764,0.300383,-1.299646,0.250265
1.726000,-0.099914,-0.199828,0.300280,-1.299742,0.250194
1.728000,-0.099941,-0.199881,0.300193,-1.299822,0.250133
1.730000,-0.099963,-0.199925,0.300122,-1.299888,0.250084
1.732000,-0.099979,-0.199959,0.300067,-1.299938,0.250046
1.734000,-0.099991,-0.199983,0.300028,-1.299974,0.250020
1.736000,-0.099998,-0.199996,0.300006,-1.299994,0.250004
1.738000,-0.100000,-0.200000,0.300000,-1.300000,0.250000
1.740000,-0.099997,-0.199993,0.300011,-1.299990,0.250007
1.742000,-0.099988,-0.199977,0.300038,-1.299965,0.250026
1.744000,-0.099975,-0.199950,0.300081,-1.299925,0.250056
1.746000,-0.099957,-0.199913,0.300141,-1.299870,0.250098
1.748000,-0.099933,-0.199866,0.300218,-1.299799,0.250151
1.750000,-0.099904,-0.199808,0.300311,-1.299713,0.250216
1.752000,-0.099870,-0.199741,0.300422,-1.299611,0.250292
1.754000,-0.099831,-0.199663,0.300548,-1.299494,0.250380
1.756000,-0.099787,-0.199574,0.300692,-1.299361,0.250479
1.758000,-0.099738,-0.199475,0.300853,-1.299213,0.250590
1.760000,-0.099683,-0.199366,0.301030,-1.299049,0.250713
1.762000,-0.099623,-0.199246,0.301225,-1.298869,0.250848
1.764000,-0.099558,-0.199116,0.301437,-1.298674,0.250995
1.766000,-0.099488,-0.198975,0.301665,-1.298463,0.251153
1.768000,-0.099412,-0.198824,0.301911,-1.298236,0.251323
1.770000,-0.099331,-0.198662,0.302174,-1.297993,0.251505
1.772000,-0.099245,-0.198490,0.302454,-1.297735,0.251699
1.774000,-0.099153,-0.198307,0.302752,-1.297460,0.251905
1.776000,-0.099057,-0.198113,0.303066,-1.297170,0.252123
1.778000,-0.098954,-0.197909,0.303398,-1.296863,0.252353
1.780000,-0.098847,-0.197694,0.303748,-1.296541,0.252594
1.782000,-0.098734,-0.197468,0.304114,-1.296202,0.252848
1.784000,-0.098616,-0.197232,0.304499,-1.295848,0.253114
1.786000,-0.098492,-0.196985,0.304900,-1.295477,0.253392
1.788000,-0.098363,-0.196727,0.305319,-1.295090,0.253683
1.790000,-0.098229,-0.196458,0.305756,-1.294687,0.253985
1.792000,-0.098089,-0.196178,0.306210,-1.294267,0.254299
1.794000,-0.097944,-0.195888,0.306682,-1.293832,0.254626
1.796000,-0.097793,-0.195587,0.307172,-1.293380,0.254965
1.798000,-0.097637,-0.195274,0.307679,-1.292912,0.255316
1.800000,-0.097476,-0.194951,0.308204,-1.292427,0.255680
1.802000,-0.097309,-0.194617,0.308747,-1.291926,0.256055
1.804000,-0.097136,-0.194273,0.309307,-1.291409,0.256443
1.806000,-0.096958,-0.193917,0.309885,-1.290875,0.256844
1.808000,-0.096775,-0.193550,0.310481,-1.290325,0.257256
1.810000,-0.096586,-0.193172,0.311095,-1.289759,0.257681
1.812000,-0.096392,-0.192784,0.311727,-1.289175,0.258118
1.814000,-0.096192,-0.192384,0.312376,-1.288576,0.258568
1.816000,-0.095987,-0.191973,0.313043,-1.287960,0.259030
1.818000,-0.095776,-0.191552,0.313729,-1.287327,0.259505
1.820000,-0.095559,-0.191119,0.314432,-1.286678,0.259991
1.822000,-0.095337,-0.190675,0.315153,-1.286012,0.260491
1.824000,-0.095110,-0.190220,0.315892,-1.285330,0.261002
1.826000,-0.094877,-0.189754,0.316649,-1.284631,0.261527
1.828000,-0.094639,-0.189277,0.317425,-1.283916,0.262063
1.830000,-0.094395,-0.188789,0.318218,-1.283184,0.262612
1.832000,-0.094145,-0.188290,0.319029,-1.282435,0.263174
1.834000,-0.093890,-0.187780,0.319858,-1.281670,0.263748
1.836000,-0.093629,-0.187258,0.320705,-1.280888,0.264334
1.838000,-0.093363,-0.186726,0.321570,-1.280089,0.264933
1.840000,-0.093091,-0.186183,0.322453,-1.279274,0.265545
1.842000,-0.092814,-0.185628,0.323355,-1.278442,0.266169
1.844000,-0.092531,-0.185062,0.324274,-1.277593,0.266805
1.846000,-0.092243,-0.184485,0.325211,-1.276728,0.267454
1.848000,-0.091949,-0.183897,0.326167,-1.275846,0.268116
1.850000,-0.091649,-0.183298,0.327140,-1.274947,0.268789
1.852000,-0.091344,-0.182688,0.328132,-1.274032,0.269476
1.854000,-0.091033,-0.182067,0.329142,-1.273100,0.270175
1.856000,-0.090717,-0.181434,0.330169,-1.272152,0.270886
1.858000,-0.090395,-0.180791,0.331215,-1.271186,0.271610
1.860000,-0.090068,-0.180136,0.332279,-1.270204,0.272347
1.862000,-0.089735,-0.179471,0.333360,-1.269206,0.273096
1.864000,-0.089397,-0.178794,0.334460,-1.268191,0.273857
1.866000,-0.089053,-0.178106,0.335578,-1.267159,0.274631
1.868000,-0.088703,-0.177407,0.336714,-1.266110,0.275417
1.870000,-0.088348,-0.176697,0.337868,-1.265045,0.276216
1.872000,-0.087988,-0.175976,0.339039,-1.263964,0.277027
1.874000,-0.087622,-0.175244,0.340229,-1.262866,0.277851
1.876000,-0.087250,-0.174501,0.341437,-1.261751,0.278687
1.878000,-0.086873,-0.173746,0.342662,-1.260620,0.279535
1.880000,-0.086491,-0.172981,0.343906,-1.259472,0.280396
1.882000,-0.086102,-0.172205,0.345167,-1.258307,0.281269
1.884000,-0.085709,-0.171418,0.346446,-1.257127,0.282155
1.886000,-0.085310,-0.170620,0.347743,-1.255929,0.283053
1.888000,-0.084905,-0.169810,0.349058,-1.254716,0.283963
1.890000,-0.084495,-0.168990,0.350391,-1.253486,0.284886
1.892000,-0.084080,-0.168159,0.351741,-1.252239,0.285821
1.894000,-0.083659,-0.167318,0.353109,-1.250976,0.286768
1.896000,-0.083232,-0.166465,0.354495,-1.249697,0.287727
1.898000,-0.082801,-0.165601,0.355898,-1.248402,0.288699
1.900000,-0.082363,-0.164727,0.357319,-1.247090,0.289683
1.902000,-0.081921,-0.163841,0.358758,-1.245762,0.290679
1.904000,-0.081473,-0.162945,0.360214,-1.244418,0.291687
1.906000,-0.081019,-0.162038,0.361688,-1.243057,0.292707
1.908000,-0.080560,-0.161121,0.363179,-1.241681,0.293739
1.910000,-0.080096,-0.160192,0.364688,-1.240288,0.294784
1.912000,-0.079627,-0.159253,0.366214,-1.238880,0.295840
1.914000,-0.079152,-0.158303,0.367757,-1.237455,0.296909
1.916000,-0.078671,-0.157343,0.369318,-1.236014,0.297989
1.918000,-0.078186,-0.156372,0.370896,-1.234558,0.299082
1.920000,-0.077695,-0.155390,0.372491,-1.233085,0.300186
1.922000,-0.077199,-0.154398,0.374103,-1.231597,0.301302
1.924000,-0.076698,-0.153395,0.375732,-1.230093,0.302430
1.926000,-0.076191,-0.152382,0.377379,-1.228573,0.303570
1.928000,-0.075679,-0.151359,0.379042,-1.227038,0.304722
1.930000,-0.075162,-0.150324,0.380723,-1.225487,0.305885
1.932000,-0.074640,-0.149280,0.382420,-1.223920,0.307060
1.934000,-0.074113,-0.148225,0.384134,-1.222338,0.308247
1.936000,-0.073580,-0.147160,0.385865,-1.220740,0.309445
1.938000,-0.073042,-0.146085,0.387613,-1.219127,0.310655
1.940000,-0.072499,-0.144999,0.389377,-1.217498,0.311876
1.942000,-0.071952,-0.143903,0.391157,-1.215855,0.313109
1.944000,-0.071399,-0.142797,0.392955,-1.214196,0.314353
1.946000,-0.070840,-0.141681,0.394768,-1.212521,0.315609
1.948000,-0.070277,-0.140555,0.396599,-1.210832,0.316876
1.950000,-0.069709,-0.139419,0.398445,-1.209128,0.318154
1.952000,-0.069136,-0.138272,0.400307,-1.207408,0.319444
1.954000,-0.068558,-0.137116,0.402186,-1.205674,0.320744
1.956000,-0.067975,-0.135950,0.404081,-1.203925,0.322056
1.958000,-0.067387,-0.134774,0.405992,-1.202161,0.323379
1.960000,-0.066794,-0.133589,0.407919,-1.200383,0.324713
1.962000,-0.066197,-0.132393,0.409861,-1.198590,0.326058
1.964000,-0.065594,-0.131188,0.411819,-1.196782,0.327413
1.966000,-0.064987,-0.129973,0.413793,-1.194960,0.328780
1.968000,-0.064375,-0.128749,0.415783,-1.193124,0.330157
1.970000,-0.063758,-0.127515,0.417788,-1.191273,0.331545
1.972000,-0.063136,-0.126272,0.419808,-1.189408,0.332944
1.974000,-0.062510,-0.125019,0.421844,-1.187529,0.334354
1.976000,-0.061878,-0.123757,0.423895,-1.185635,0.335773
1.978000,-0.061243,-0.122485,0.425961,-1.183728,0.337204
1.980000,-0.060602,-0.121205,0.428042,-1.181807,0.338645
1.982000,-0.059957,-0.119915,0.430138,-1.179872,0.340096
1.984000,-0.059308,-0.118616,0.432249,-1.177924,0.341557
1.986000,-0.058654,-0.117308,0.434375,-1.175962,0.343029
1.988000,-0.057995,-0.115991,0.436515,-1.173986,0.344510
1.990000,-0.057332,-0.114665,0.438670,-1.171997,0.346002
1.992000,-0.056665,-0.113330,0.440839,-1.169995,0.347504
1.994000,-0.055993,-0.111986,0.443022,-1.167979,0.349016
1.996000,-0.055317,-0.110634,0.445220,-1.165951,0.350537
1.998000,-0.054636,-0.109273,0.447432,-1.163909,0.352068
2.000000,-0.053951,-0.107903,0.449658,-1.161854,0.353609
2.002000,-0.053262,-0.106525,0.451897,-1.159787,0.355160
2.004000,-0.052569,-0.105138,0.454151,-1.157707,0.356720
2.006000,-0.051871,-0.103743,0.456418,-1.155614,0.358289
2.008000,-0.051170,-0.102339,0.458699,-1.153509,0.359868
2.010000,-0.050464,-0.100928,0.460992,-1.151392,0.361456
2.012000,-0.049754,-0.099508,0.463300,-1.149262,0.363054
2.014000,-0.049040,-0.098080,0.465620,-1.147120,0.364660
2.016000,-0.048322,-0.096644,0.467954,-1.144966,0.366276
2.018000,-0.047600,-0.095200,0.470300,-1.142800,0.367900
2.020000,-0.046874,-0.093748,0.472659,-1.140622,0.369533
2.022000,-0.046144,-0.092289,0.475031,-1.138433,0.371175
2.024000,-0.045411,-0.090821,0.477415,-1.136232,0.372826
2.026000,-0.044673,-0.089346,0.479812,-1.134020,0.374485
2.028000,-0.043932,-0.087864,0.482221,-1.131796,0.376153
2.030000,-0.043187,-0.086374,0.484642,-1.129561,0.377829
2.032000,-0.042438,-0.084877,0.487075,-1.127315,0.379513
2.034000,-0.041686,-0.083372,0.489520,-1.125059,0.381206
2.036000,-0.040930,-0.081861,0.491976,-1.122791,0.382907
2.038000,-0.040171,-0.080342,0.494445,-1.120513,0.384616
2.040000,-0.039408,-0.078816,0.496924,-1.118224,0.386332
2.042000,-0.038642,-0.077283,0.499415,-1.115925,0.388057
2.044000,-0.037872,-0.075743,0.501917,-1.113615,0.389789
2.046000,-0.037099,-0.074197,0.504430,-1.111296,0.391528
2.048000,-0.036322,-0.072644,0.506954,-1.108966,0.393276
2.050000,-0.035542,-0.071084,0.509488,-1.106627,0.395030
2.052000,-0.034759,-0.069518,0.512033,-1.104277,0.396792
2.054000,-0.033973,-0.067946,0.514588,-1.101919,0.398561
2.056000,-0.033184,-0.066367,0.517153,-1.099551,0.400337
2.058000,-0.032391,-0.064782,0.519729,-1.097173,0.402120
2.060000,-0.031596,-0.063191,0.522314,-1.094787,0.403910
2.062000,-0.030797,-0.061594,0.524909,-1.092391,0.405707
2.064000,-0.029996,-0.059991,0.527514,-1.089987,0.407510
2.066000,-0.029191,-0.058383,0.530128,-1.087574,0.409320
2.068000,-0.028384,-0.056768,0.532752,-1.085152,0.411136
2.070000,-0.027574,-0.055148,0.535384,-1.082723,0.412958
2.072000,-0.026761,-0.053523,0.538025,-1.080284,0.414787
2.074000,-0.025946,-0.051892,0.540675,-1.077838,0.416621
2.076000,-0.025128,-0.050256,0.543334,-1.075384,0.418462
2.078000,-0.024308,-0.048615,0.546001,-1.072923,0.420308
2.080000,-0.023484,-0.046969,0.548676,-1.070453,0.422160
2.082000,-0.022659,-0.045318,0.551359,-1.067976,0.424018
2.084000,-0.021831,-0.043662,0.554050,-1.065493,0.425881
2.086000,-0.021000,-0.042001,0.556748,-1.063001,0.427749
2.088000,-0.020168,-0.040336,0.559455,-1.060503,0.429622
2.090000,-0.019333,-0.038666,0.562168,-1.057999,0.431501
2.092000,-0.018496,-0.036992,0.564889,-1.055487,0.433384
2.094000,-0.017657,-0.035313,0.567616,-1.052970,0.435273
2.096000,-0.016815,-0.033631,0.570350,-1.050446,0.437166
2.098000,-0.015972,-0.031944,0.573091,-1.047916,0.439063
2.100000,-0.015127,-0.030253,0.575838,-1.045380,0.440965
2.102000,-0.014279,-0.028559,0.578592,-1.042838,0.442871
2.104000,-0.013430,-0.026861,0.581351,-1.040291,0.444782
2.106000,-0.012580,-0.025159,0.584116,-1.037739,0.446696
2.108000,-0.011727,-0.023454,0.586887,-1.035181,0.448614
2.110000,-0.010873,-0.021746,0.589663,-1.032618,0.450536
2.112000,-0.010017,-0.020034,0.592445,-1.030051,0.452462
2.114000,-0.009160,-0.018319,0.595231,-1.027479,0.454391
2.116000,-0.008301,-0.016602,0.598022,-1.024902,0.456323
2.118000,-0.007441,-0.014881,0.600818,-1.022322,0.458259
2.120000,-0.006579,-0.013158,0.603618,-1.019737,0.460197
2.122000,-0.005716,-0.011432,0.606423,-1.017148,0.462139
2.124000,-0.004852,-0.009704,0.609231,-1.014556,0.464083
2.126000,-0.003987,-0.007973,0.612044,-1.011960,0.466030
2.128000,-0.003120,-0.006240,0.614859,-1.009361,0.467980
2.130000,-0.002253,-0.004505,0.617679,-1.006758,0.469931
2.132000,-0.001384,-0.002769,0.620501,-1.004153,0.471885
2.134000,-0.000515,-0.001030,0.623326,-1.001545,0.473841
2.136000,0.000355,0.000710,0.626154,-0.998935,0.475799
2.138000,0.001226,0.002452,0.628985,-0.996322,0.477759
2.140000,0.002098,0.004195,0.631818,-0.993707,0.479720
2.142000,0.002970,0.005940,0.634653,-0.991090,0.481683
2.144000,0.003843,0.007686,0.637489,-0.988471,0.483647
2.146000,0.004716,0.009433,0.640328,-0.985851,0.485612
2.148000,0.005590,0.011180,0.643168,-0.983230,0.487578
2.150000,0.006464,0.012929,0.646009,-0.980607,0.489545
2.152000,0.007339,0.014678,0.648851,-0.977984,0.491512
2.154000,0.008214,0.016427,0.651694,-0.975359,0.493480
2.156000,0.009088,0.018177,0.654537,-0.972735,0.495449
2.158000,0.009963,0.019927,0.657381,-0.970110,0.497418
2.160000,0.010838,0.021677,0.660225,-0.967485,0.499387
2.162000,0.011713,0.023427,0.663069,-0.964860,0.501355
2.164000,0.012588,0.025177,0.665912,-0.962235,0.503324
2.166000,0.013463,0.026926,0.668755,-0.959611,0.505292
2.168000,0.014337,0.028675,0.671597,-0.956988,0.507259
2.170000,0.015212,0.030423,0.674438,-0.954365,0.509226
2.172000,0.016085,0.032171,0.677277,-0.951744,0.511192
2.174000,0.016959,0.033917,0.680115,-0.949124,0.513157
2.176000,0.017831,0.035663,0.682952,-0.946506,0.515120
2.178000,0.018703,0.037407,0.685786,-0.943890,0.517083
2.180000,0.019575,0.039150,0.688618,-0.941275,0.519043
2.182000,0.020446,0.040891,0.691448,-0.938663,0.521002
2.184000,0.021315,0.042631,0.694275,-0.936054,0.522960
2.186000,0.022184,0.044369,0.697099,-0.933447,0.524915
2.188000,0.023052,0.046104,0.699920,-0.930843,0.526868
2.190000,0.023919,0.047838,0.702737,-0.928243,0.528818
2.192000,0.024785,0.049570,0.705551,-0.925645,0.530766
2.194000,0.025650,0.051299,0.708361,-0.923051,0.532711
2.196000,0.026513,0.053026,0.711167,-0.920462,0.534654
2.198000,0.027375,0.054750,0.713968,-0.917876,0.536593
2.200000,0.028235,0.056471,0.716765,-0.915294,0.538529
2.202000,0.029094,0.058189,0.719557,-0.912717,0.540462
2.204000,0.029952,0.059904,0.722344,-0.910144,0.542392
2.206000,0.030808,0.061615,0.725125,-0.907577,0.544317
2.208000,0.031662,0.063324,0.727901,-0.905015,0.546239
2.210000,0.032514,0.065028,0.730671,-0.902458,0.548157
2.212000,0.033364,0.066729,0.733435,-0.899907,0.550070
2.214000,0.034213,0.068426,0.736192,-0.897361,0.551979
2.216000,0.035059,0.070119,0.738943,-0.894822,0.553884
2.218000,0.035904,0.071808,0.741687,-0.892289,0.555783
2.220000,0.036746,0.073492,0.744424,-0.889762,0.557678
2.222000,0.037586,0.075172,0.747154,-0.887243,0.559568
2.224000,0.038423,0.076847,0.749876,-0.884730,0.561453
2.226000,0.039259,0.078517,0.752590,-0.882224,0.563332
2.228000,0.040091,0.080182,0.755296,-0.879726,0.565205
2.230000,0.040921,0.081843,0.757994,-0.877236,0.567073
2.232000,0.041749,0.083498,0.760683,-0.874754,0.568935
2.234000,0.042574,0.085147,0.763364,-0.872279,0.570790
2.236000,0.043395,0.086791,0.766035,-0.869814,0.572640
2.238000,0.044215,0.088429,0.768697,-0.867356,0.574483
2.240000,0.045031,0.090061,0.771349,-0.864908,0.576319
2.242000,0.045844,0.091687,0.773992,-0.862469,0.578148
2.244000,0.046654,0.093307,0.776624,-0.860039,0.579971
2.246000,0.047460,0.094921,0.779246,-0.857619,0.581786
2.248000,0.048264,0.096528,0.781858,-0.855208,0.583594
2.250000,0.049064,0.098128,0.784458,-0.852808,0.585394
2.252000,0.049861,0.099722,0.787048,-0.850417,0.587187
2.254000,0.050654,0.101308,0.789626,-0.848038,0.588972
2.256000,0.051444,0.102888,0.792193,-0.845668,0.590749
2.258000,0.052230,0.104460,0.794747,-0.843310,0.592517
2.260000,0.053012,0.106024,0.797290,-0.840963,0.594277
2.262000,0.053791,0.107581,0.799820,-0.838628,0.596029
2.264000,0.054565,0.109131,0.802337,-0.836304,0.597772
2.266000,0.055336,0.110672,0.804842,-0.833992,0.599506
2.268000,0.056102,0.112205,0.807333,-0.831693,0.601231
2.270000,0.056865,0.113730,0.809811,-0.829405,0.602946
2.272000,0.057623,0.115246,0.812276,-0.827130,0.604652
2.274000,0.058377,0.116754,0.814726,-0.824868,0.606349
2.276000,0.059127,0.118254,0.817162,-0.822619,0.608036
2.278000,0.059872,0.119744,0.819584,-0.820384,0.609712
2.280000,0.060613,0.121226,0.821992,-0.818162,0.611379
2.282000,0.061349,0.122698,0.824384,-0.815953,0.613035
2.284000,0.062080,0.124161,0.826761,-0.813759,0.614681
2.286000,0.062807,0.125614,0.829123,-0.811579,0.616316
2.288000,0.063529,0.127058,0.831469,-0.809413,0.617940
2.290000,0.064246,0.128492,0.833800,-0.807262,0.619554
2.292000,0.064958,0.129916,0.836114,-0.805126,0.621156
2.294000,0.065665,0.131330,0.838411,-0.803005,0.622746
2.296000,0.066367,0.132734,0.840693,-0.800899,0.624326
2.298000,0.067064,0.134127,0.842957,-0.798809,0.625893
2.300000,0.067755,0.135510,0.845204,-0.796735,0.627449
2.302000,0.068441,0.136882,0.847433,-0.794677,0.628992
2.304000,0.069122,0.138243,0.849645,-0.792635,0.630524
2.306000,0.069797,0.139594,0.851840,-0.790610,0.632043
2.308000,0.070466,0.140933,0.854016,-0.788601,0.633549
2.310000,0.071130,0.142260,0.856173,-0.786609,0.635043
2.312000,0.071788,0.143577,0.858312,-0.784635,0.636524
2.314000,0.072441,0.144881,0.860432,-0.782678,0.637992
2.316000,0.073087,0.146174,0.862533,-0.780738,0.639446
2.318000,0.073728,0.147455,0.864615,-0.778817,0.640887
2.320000,0.074362,0.148725,0.866677,-0.776913,0.642315
2.322000,0.074991,0.149981,0.868720,-0.775028,0.643729
2.324000,0.075613,0.151226,0.870742,-0.773161,0.645129
2.326000,0.076229,0.152458,0.872744,-0.771313,0.646515
2.328000,0.076839,0.153677,0.874726,-0.769484,0.647887
2.330000,0.077442,0.154884,0.876686,-0.767674,0.649244
2.332000,0.078039,0.156078,0.878626,-0.765884,0.650587
2.334000,0.078629,0.157258,0.880545,-0.764113,0.651915
2.336000,0.079213,0.158426,0.882442,-0.762362,0.653229
2.338000,0.079790,0.159580,0.884317,-0.760630,0.654527
2.340000,0.080360,0.160720,0.886170,-0.758920,0.655810
2.342000,0.080924,0.161847,0.888002,-0.757229,0.657078
2.344000,0.081480,0.162960,0.889811,-0.755559,0.658331
2.346000,0.082030,0.164060,0.891597,-0.753910,0.659567
2.348000,0.082573,0.165145,0.893361,-0.752282,0.660788
2.350000,0.083108,0.166216,0.895101,-0.750676,0.661993
2.352000,0.083636,0.167273,0.896818,-0.749091,0.663182
2.354000,0.084158,0.168315,0.898512,-0.747527,0.664355
2.356000,0.084671,0.169343,0.900182,-0.745986,0.665511
2.358000,0.085178,0.170356,0.901828,-0.744466,0.666650
2.360000,0.085677,0.171354,0.903450,-0.742969,0.667773
2.362000,0.086169,0.172337,0.905048,-0.741494,0.668879
2.364000,0.086653,0.173305,0.906621,-0.740042,0.669969
2.366000,0.087129,0.174258,0.908170,-0.738613,0.671041
2.368000,0.087598,0.175196,0.909693,-0.737206,0.672095
2.370000,0.088059,0.176118,0.911191,-0.735824,0.673132
2.372000,0.088512,0.177024,0.912664,-0.734464,0.674152
2.374000,0.088957,0.177915,0.914111,-0.733128,0.675154
2.376000,0.089395,0.178789,0.915533,-0.731816,0.676138
2.378000,0.089824,0.179648,0.916928,-0.730528,0.677104
2.380000,0.090245,0.180491,0.918297,-0.729264,0.678052
2.382000,0.090659,0.181317,0.919640,-0.728024,0.678982
2.384000,0.091064,0.182127,0.920956,-0.726809,0.679893
2.386000,0.091460,0.182921,0.922246,-0.725619,0.680786
2.388000,0.091849,0.183697,0.923508,-0.724454,0.681660
2.390000,0.092229,0.184458,0.924744,-0.723313,0.682515
2.392000,0.092601,0.185201,0.925952,-0.722198,0.683351
2.394000,0.092964,0.185928,0.927132,-0.721109,0.684168
2.396000,0.093318,0.186637,0.928285,-0.720045,0.684967
2.398000,0.093665,0.187329,0.929410,-0.719006,0.685745
2.400000,0.094002,0.188004,0.930507,-0.717994,0.686505
2.402000,0.094331,0.188662,0.931575,-0.717008,0.687244
2.404000,0.094651,0.189302,0.932615,-0.716047,0.687964
2.406000,0.094962,0.189924,0.933627,-0.715114,0.688665
2.408000,0.095265,0.190529,0.934610,-0.714206,0.689345
2.410000,0.095558,0.191116,0.935563,-0.713326,0.690005
2.412000,0.095843,0.191685,0.936488,-0.712472,0.690646
2.414000,0.096118,0.192236,0.937384,-0.711646,0.691266
2.416000,0.096385,0.192769,0.938250,-0.710846,0.691865
2.418000,0.096642,0.193284,0.939086,-0.710074,0.692444
2.420000,0.096890,0.193780,0.939893,-0.709329,0.693003
2.422000,0.097129,0.194258,0.940670,-0.708612,0.693541
2.424000,0.097359,0.194718,0.941417,-0.707923,0.694058
2.426000,0.097580,0.195159,0.942133,-0.707261,0.694554
2.428000,0.097791,0.195581,0.942820,-0.706628,0.695029
2.430000,0.097993,0.195985,0.943476,-0.706022,0.695483
2.432000,0.098185,0.196370,0.944101,-0.705445,0.695916
2.434000,0.098368,0.196736,0.944695,-0.704896,0.696328
2.436000,0.098541,0.197083,0.945259,-0.704376,0.696718
2.438000,0.098705,0.197410,0.945792,-0.703885,0.697087
2.440000,0.098859,0.197719,0.946293,-0.703422,0.697434
2.442000,0.099004,0.198008,0.946763,-0.702988,0.697759
2.444000,0.099139,0.198278,0.947202,-0.702583,0.698063
2.446000,0.099264,0.198529,0.947610,-0.702207,0.698345
2.448000,0.099380,0.198760,0.947985,-0.701860,0.698605
2.450000,0.099486,0.198972,0.948329,-0.701542,0.698843
2.452000,0.099582,0.199164,0.948641,-0.701254,0.699059
2.454000,0.099668,0.199336,0.948921,-0.700996,0.699253
2.456000,0.099744,0.199489,0.949169,-0.700767,0.699425
2.458000,0.099811,0.199622,0.949385,-0.700567,0.699574
2.460000,0.099867,0.199735,0.949569,-0.700398,0.699702
2.462000,0.099914,0.199828,0.949720,-0.700258,0.699806
2.464000,0.099950,0.199901,0.949839,-0.700149,0.699889
2.466000,0.099977,0.199954,0.949925,-0.700069,0.699948
2.468000,0.099993,0.199987,0.949979,-0.700020,0.699985
2.470000,0.100000,0.200000,0.950000,-0.700000,0.700000
2.472000,0.099996,0.199992,0.949988,-0.700011,0.699992
2.474000,0.099982,0.199965,0.949943,-0.700053,0.699960
2.476000,0.099959,0.199917,0.949865,-0.700124,0.699907
2.478000,0.099924,0.199849,0.949754,-0.700227,0.699830
2.480000,0.099880,0.199760,0.949610,-0.700360,0.699730
2.482000,0.099826,0.199651,0.949433,-0.700523,0.699608
2.484000,0.099761,0.199522,0.949223,-0.700717,0.699462
2.486000,0.099686,0.199372,0.948980,-0.700942,0.699294
2.488000,0.099601,0.199202,0.948703,-0.701198,0.699102
2.490000,0.099505,0.199011,0.948392,-0.701484,0.698887
2.492000,0.099400,0.198799,0.948049,-0.701801,0.698649
2.494000,0.099284,0.198567,0.947672,-0.702149,0.698388
2.496000,0.099157,0.198314,0.947261,-0.702528,0.698104
2.498000,0.099021,0.198041,0.946817,-0.702938,0.697796
2.500000,0.098873,0.197747,0.946339,-0.703380,0.697465
2.502000,0.098716,0.197432,0.945827,-0.703852,0.697111
2.504000,0.098548,0.197097,0.945282,-0.704355,0.696734
2.506000,0.098370,0.196741,0.944704,-0.704889,0.696333
2.508000,0.098182,0.196364,0.944091,-0.705454,0.695909
2.510000,0.097983,0.195966,0.943445,-0.706051,0.695462
2.512000,0.097774,0.195548,0.942765,-0.706678,0.694991
2.514000,0.097554,0.195109,0.942052,-0.707337,0.694497
2.516000,0.097324,0.194649,0.941305,-0.708027,0.693980
2.518000,0.097084,0.194168,0.940524,-0.708747,0.693439
2.520000,0.096834,0.193667,0.939709,-0.709499,0.692875
2.522000,0.096572,0.193145,0.938861,-0.710283,0.692288
2.524000,0.096301,0.192602,0.937979,-0.711097,0.691677
2.526000,0.096019,0.192039,0.937063,-0.711942,0.691044
2.528000,0.095727,0.191454,0.936113,-0.712818,0.690386
2.530000,0.095425,0.190849,0.935130,-0.713726,0.689706
2.532000,0.095112,0.190224,0.934114,-0.714664,0.689002
2.534000,0.094789,0.189578,0.933064,-0.715634,0.688275
2.536000,0.094455,0.188911,0.931980,-0.716634,0.687525
2.538000,0.094112,0.188223,0.930863,-0.717665,0.686751
2.540000,0.093758,0.187515,0.929712,-0.718727,0.685954
2.542000,0.093393,0.186786,0.928528,-0.719821,0.685135
2.544000,0.093019,0.186037,0.927310,-0.720944,0.684292
2.546000,0.092634,0.185267,0.926060,-0.722099,0.683426
2.548000,0.092239,0.184477,0.924775,-0.723284,0.682537
2.550000,0.091833,0.183667,0.923458,-0.724500,0.681625
2.552000,0.091418,0.182836,0.922108,-0.725747,0.680690
2.554000,0.090992,0.181984,0.920724,-0.727024,0.679732
2.556000,0.090556,0.181113,0.919308,-0.728331,0.678752
2.558000,0.090110,0.180221,0.917859,-0.729669,0.677748
2.560000,0.089654,0.179309,0.916377,-0.731037,0.676722
2.562000,0.089188,0.178377,0.914862,-0.732435,0.675674
2.564000,0.088712,0.177424,0.913315,-0.733864,0.674602
2.566000,0.088226,0.176452,0.911735,-0.735322,0.673509
2.568000,0.087730,0.175460,0.910122,-0.736810,0.672392
2.570000,0.087224,0.174448,0.908477,-0.738329,0.671254
2.572000,0.086708,0.173416,0.906800,-0.739877,0.670093
2.574000,0.086182,0.172364,0.905091,-0.741454,0.668909
2.576000,0.085646,0.171292,0.903350,-0.743061,0.667704
2.578000,0.085101,0.170201,0.901577,-0.744698,0.666477
2.580000,0.084545,0.169091,0.899773,-0.746364,0.665227
2.582000,0.083980,0.167961,0.897936,-0.748059,0.663956
2.584000,0.083406,0.166811,0.896068,-0.749783,0.662663
2.586000,0.082821,0.165643,0.894169,-0.751536,0.661348
2.588000,0.082227,0.164455,0.892239,-0.753318,0.660011
2.590000,0.081624,0.163248,0.890277,-0.755129,0.658653
2.592000,0.081011,0.162021,0.888285,-0.756968,0.657274
2.594000,0.080388,0.160776,0.886262,-0.758835,0.655873
2.596000,0.079756,0.159513,0.884208,-0.760731,0.654452
2.598000,0.079115,0.158230,0.882124,-0.762655,0.653009
2.600000,0.078464,0.156929,0.880009,-0.764607,0.651545
2.602000,0.077804,0.155609,0.877865,-0.766587,0.650060
2.604000,0.077135,0.154271,0.875690,-0.768594,0.648555
2.606000,0.076457,0.152914,0.873486,-0.770628,0.647029
2.608000,0.075770,0.151540,0.871252,-0.772690,0.645482
2.610000,0.075073,0.150147,0.868989,-0.774780,0.643915
2.612000,0.074368,0.148736,0.866696,-0.776896,0.642328
2.614000,0.073654,0.147308,0.864375,-0.779039,0.640721
2.616000,0.072931,0.145861,0.862025,-0.781208,0.639094
2.618000,0.072199,0.144397,0.859646,-0.783404,0.637447
2.620000,0.071458,0.142916,0.857239,-0.785626,0.635781
2.622000,0.070709,0.141417,0.854803,-0.787874,0.634095
2.624000,0.069951,0.139902,0.852340,-0.790148,0.632389
2.626000,0.069184,0.138369,0.849849,-0.792447,0.630665
2.628000,0.068409,0.136819,0.847331,-0.794772,0.628921
2.630000,0.067626,0.135252,0.844785,-0.797122,0.627159
2.632000,0.066834,0.133669,0.842212,-0.799497,0.625378
2.634000,0.066035,0.132069,0.839612,-0.801896,0.623578
2.636000,0.065227,0.130453,0.836986,-0.804320,0.621760
2.638000,0.064410,0.128821,0.834334,-0.806769,0.619923
2.640000,0.063586,0.127172,0.831655,-0.809241,0.618069
2.642000,0.062754,0.125508,0.828951,-0.811738,0.616197
2.644000,0.061914,0.123828,0.826221,-0.814258,0.614307
2.646000,0.061066,0.122133,0.823466,-0.816801,0.612399
2.648000,0.060211,0.120422,0.820685,-0.819367,0.610474
2.650000,0.059348,0.118696,0.817880,-0.821957,0.608533
2.652000,0.058477,0.116954,0.815051,-0.824568,0.606574
2.654000,0.057599,0.115198,0.812197,-0.827203,0.604598
2.656000,0.056714,0.113427,0.809320,-0.829859,0.602606
2.658000,0.055821,0.111642,0.806418,-0.832537,0.600597
2.660000,0.054921,0.109842,0.803494,-0.835236,0.598573
2.662000,0.054014,0.108029,0.800546,-0.837957,0.596532
2.664000,0.053100,0.106201,0.797576,-0.840699,0.594476
2.666000,0.052179,0.104359,0.794583,-0.843462,0.592404
2.668000,0.051252,0.102504,0.791568,-0.846245,0.590317
2.670000,0.050317,0.100635,0.788532,-0.849048,0.588214
2.672000,0.049376,0.098753,0.785473,-0.851871,0.586097
2.674000,0.048429,0.096858,0.782394,-0.854713,0.583965
2.676000,0.047475,0.094950,0.779294,-0.857575,0.581819
2.678000,0.046515,0.093030,0.776173,-0.860456,0.579658
2.680000,0.045548,0.091097,0.773032,-0.863355,0.577484
2.682000,0.044576,0.089151,0.769871,-0.866273,0.575295
2.684000,0.043597,0.087194,0.766691,-0.869209,0.573093
2.686000,0.042613,0.085225,0.763491,-0.872162,0.570878
2.688000,0.041622,0.083244,0.760272,-0.875133,0.568650
2.690000,0.040626,0.081252,0.757035,-0.878121,0.566409
2.692000,0.039625,0.079249,0.753780,-0.881126,0.564155
2.694000,0.038618,0.077235,0.750507,-0.884147,0.561889
2.696000,0.037605,0.075210,0.747217,-0.887185,0.559611
2.698000,0.036587,0.073175,0.743909,-0.890238,0.557322
2.700000,0.035565,0.071129,0.740585,-0.893306,0.555020
2.702000,0.034537,0.069073,0.737244,-0.896390,0.552707
2.704000,0.033504,0.067008,0.733887,-0.899489,0.550384
2.706000,0.032466,0.064932,0.730515,-0.902601,0.548049
2.708000,0.031424,0.062848,0.727128,-0.905728,0.545704
2.710000,0.030377,0.060754,0.723726,-0.908869,0.543348
2.712000,0.029326,0.058652,0.720309,-0.912023,0.540983
2.714000,0.028270,0.056540,0.716878,-0.915190,0.538608
2.716000,0.027210,0.054421,0.713433,-0.918369,0.536223
2.718000,0.026146,0.052293,0.709976,-0.921561,0.533829
2.720000,0.025078,0.050157,0.706505,-0.924765,0.531427
2.722000,0.024007,0.048013,0.703022,-0.927980,0.529015
2.724000,0.022931,0.045863,0.699527,-0.931206,0.526595
2.726000,0.021852,0.043705,0.696020,-0.934443,0.524168
2.728000,0.020770,0.041539,0.692502,-0.937691,0.521732
2.730000,0.019684,0.039368,0.688973,-0.940948,0.519289
2.732000,0.018595,0.037190,0.685433,-0.944215,0.516838
2.734000,0.017503,0.035005,0.681884,-0.947492,0.514381
2.736000,0.016408,0.032815,0.678325,-0.950777,0.511917
2.738000,0.015310,0.030619,0.674757,-0.954071,0.509447
2.740000,0.014209,0.028418,0.671180,-0.957373,0.506971
2.742000,0.013106,0.026212,0.667594,-0.960682,0.504488
2.744000,0.012000,0.024001,0.664001,-0.963999,0.502001
2.746000,0.010893,0.021785,0.660401,-0.967322,0.499508
2.748000,0.009783,0.019565,0.656793,-0.970652,0.497011
2.750000,0.008671,0.017341,0.653179,-0.973988,0.494509
2.752000,0.007557,0.015113,0.649559,-0.977330,0.492002
2.754000,0.006441,0.012882,0.645933,-0.980677,0.489492
2.756000,0.005324,0.010647,0.642302,-0.984029,0.486978
2.758000,0.004205,0.008410,0.638666,-0.987385,0.484461
2.760000,0.003085,0.006170,0.635026,-0.990745,0.481941
2.762000,0.001964,0.003927,0.631382,-0.994109,0.479418
2.764000,0.000841,0.001683,0.627734,-0.997476,0.476893
2.766000,-0.000282,-0.000564,0.624084,-1.000846,0.474366
2.768000,-0.001406,-0.002812,0.620431,-1.004218,0.471837
2.770000,-0.002530,-0.005061,0.616776,-1.007591,0.469306
2.772000,-0.003656,-0.007311,0.613119,-1.010967,0.466775
2.774000,-0.004781,-0.009562,0.609462,-1.014343,0.464243
2.776000,-0.005907,-0.011813,0.605803,-1.017720,0.461710
2.778000,-0.007032,-0.014065,0.602145,-1.021097,0.459177
2.780000,-0.008158,-0.016316,0.598487,-1.024474,0.456645
2.782000,-0.009283,-0.018567,0.594829,-1.027850,0.454113
2.784000,-0.010408,-0.020816,0.591173,-1.031225,0.451582
2.786000,-0.011533,-0.023065,0.587519,-1.034598,0.449052
2.788000,-0.012656,-0.025313,0.583867,-1.037969,0.446523
2.790000,-0.013779,-0.027559,0.580217,-1.041338,0.443997
2.792000,-0.014901,-0.029803,0.576571,-1.044704,0.441472
2.794000,-0.016022,-0.032044,0.572928,-1.048066,0.438950
2.796000,-0.017142,-0.034283,0.569290,-1.051425,0.436431
2.798000,-0.018260,-0.036520,0.565656,-1.054779,0.433915
2.800000,-0.019376,-0.038753,0.562027,-1.058129,0.431403
2.802000,-0.020491,-0.040982,0.558404,-1.061474,0.428895
2.804000,-0.021604,-0.043208,0.554786,-1.064813,0.426391
2.806000,-0.022715,-0.045430,0.551176,-1.068145,0.423891
2.808000,-0.023824,-0.047648,0.547572,-1.071472,0.421396
2.810000,-0.024930,-0.049861,0.543976,-1.074791,0.418907
2.812000,-0.026034,-0.052069,0.540388,-1.078103,0.416423
2.814000,-0.027136,-0.054272,0.536809,-1.081407,0.413944
2.816000,-0.028234,-0.056469,0.533238,-1.084703,0.411473
2.818000,-0.029330,-0.058660,0.529677,-1.087990,0.409007
2.820000,-0.030423,-0.060845,0.526126,-1.091268,0.406549
2.822000,-0.031512,-0.063024,0.522586,-1.094536,0.404098
2.824000,-0.032598,-0.065196,0.519056,-1.097794,0.401654
2.826000,-0.033681,-0.067361,0.515538,-1.101042,0.399219
2.828000,-0.034759,-0.069519,0.512032,-1.104278,0.396791
2.830000,-0.035834,-0.071669,0.508538,-1.107503,0.394373
2.832000,-0.036905,-0.073811,0.505057,-1.110716,0.391963
2.834000,-0.037972,-0.075945,0.501590,-1.113917,0.389562
2.836000,-0.039035,-0.078070,0.498137,-1.117105,0.387172
2.838000,-0.040093,-0.080186,0.494698,-1.120279,0.384791
2.840000,-0.041147,-0.082293,0.491274,-1.123440,0.382420
2.842000,-0.042195,-0.084391,0.487865,-1.126586,0.380061
2.844000,-0.043239,-0.086478,0.484473,-1.129718,0.377712
2.846000,-0.044278,-0.088556,0.481096,-1.132834,0.375374
2.848000,-0.045312,-0.090624,0.477737,-1.135935,0.373049
2.850000,-0.046340,-0.092680,0.474395,-1.139020,0.370735
2.852000,-0.047363,-0.094726,0.471071,-1.142089,0.368433
2.854000,-0.048380,-0.096760,0.467765,-1.145140,0.366145
2.856000,-0.049391,-0.098783,0.464478,-1.148174,0.363869
2.858000,-0.050397,-0.100794,0.461210,-1.151191,0.361607
2.860000,-0.051396,-0.102793,0.457962,-1.154189,0.359358
2.862000,-0.052389,-0.104779,0.454735,-1.157168,0.357124
2.864000,-0.053376,-0.106752,0.451528,-1.160128,0.354904
2.866000,-0.054356,-0.108713,0.448342,-1.163069,0.352698
2.868000,-0.055330,-0.110660,0.445178,-1.165989,0.350508
2.870000,-0.056296,-0.112593,0.442037,-1.168889,0.348333
2.872000,-0.057256,-0.114512,0.438918,-1.171768,0.346174
2.874000,-0.058209,-0.116417,0.435822,-1.174626,0.344031
2.876000,-0.059154,-0.118308,0.432750,-1.177462,0.341904
2.878000,-0.060092,-0.120183,0.429702,-1.180275,0.339794
2.880000,-0.061022,-0.122044,0.426678,-1.183066,0.337700
2.882000,-0.061945,-0.123889,0.423680,-1.185834,0.335625
2.884000,-0.062859,-0.125719,0.420707,-1.188578,0.333567
2.886000,-0.063766,-0.127532,0.417760,-1.191298,0.331526
2.888000,-0.064665,-0.129329,0.414840,-1.193994,0.329505
2.890000,-0.065555,-0.131110,0.411946,-1.196665,0.327501
2.892000,-0.066437,-0.132874,0.409080,-1.199311,0.325517
2.894000,-0.067310,-0.134620,0.406242,-1.201931,0.323552
2.896000,-0.068175,-0.136350,0.403432,-1.204524,0.321607
2.898000,-0.069031,-0.138061,0.400651,-1.207092,0.319681
2.900000,-0.069877,-0.139755,0.397898,-1.209632,0.317776
2.902000,-0.070715,-0.141430,0.395176,-1.212145,0.315891
2.904000,-0.071544,-0.143087,0.392483,-1.214631,0.314027
2.906000,-0.072363,-0.144725,0.389821,-1.217088,0.312184
2.908000,-0.073172,-0.146344,0.387190,-1.219517,0.310363
2.910000,-0.073972,-0.147944,0.384591,-1.221916,0.308563
2.912000,-0.074762,-0.149524,0.382023,-1.224287,0.306785
2.914000,-0.075542,-0.151085,0.379487,-1.226627,0.305030
2.916000,-0.076313,-0.152625,0.376984,-1.228938,0.303297
2.918000,-0.077073,-0.154145,0.374514,-1.231218,0.301587
2.920000,-0.077822,-0.155644,0.372078,-1.233467,0.299900
2.922000,-0.078561,-0.157123,0.369675,-1.235684,0.298237
2.924000,-0.079290,-0.158580,0.367307,-1.237870,0.296597
2.926000,-0.080008,-0.160016,0.364974,-1.240024,0.294982
2.928000,-0.080715,-0.161431,0.362675,-1.242146,0.293391
2.930000,-0.081412,-0.162823,0.360412,-1.244235,0.291824
2.932000,-0.082097,-0.164194,0.358186,-1.246290,0.290282
2.934000,-0.082771,-0.165542,0.355995,-1.248312,0.288766
2.936000,-0.083434,-0.166867,0.353841,-1.250301,0.287275
2.938000,-0.084085,-0.168170,0.351724,-1.252255,0.285809
2.940000,-0.084725,-0.169449,0.349645,-1.254174,0.284370
2.942000,-0.085353,-0.170706,0.347603,-1.256058,0.282956
2.944000,-0.085969,-0.171938,0.345600,-1.257908,0.281569
2.946000,-0.086574,-0.173147,0.343635,-1.259721,0.280209
2.948000,-0.087166,-0.174333,0.341710,-1.261499,0.278876
2.950000,-0.087747,-0.175494,0.339823,-1.263240,0.277570
2.952000,-0.088315,-0.176630,0.337976,-1.264945,0.276291
2.954000,-0.088871,-0.177742,0.336169,-1.266613,0.275040
2.956000,-0.089415,-0.178829,0.334403,-1.268244,0.273817
2.958000,-0.089946,-0.179891,0.332677,-1.269837,0.272622
2.960000,-0.090464,-0.180928,0.330992,-1.271392,0.271456
2.962000,-0.090970,-0.181939,0.329348,-1.272909,0.270318
2.964000,-0.091463,-0.182925,0.327747,-1.274388,0.269209
2.966000,-0.091943,-0.183885,0.326187,-1.275828,0.268129
2.968000,-0.092409,-0.184819,0.324669,-1.277228,0.267079
2.970000,-0.092863,-0.185727,0.323194,-1.278590,0.266057
2.972000,-0.093304,-0.186608,0.321762,-1.279912,0.265066
2.974000,-0.093731,-0.187463,0.320373,-1.281194,0.264104
2.976000,-0.094145,-0.188291,0.319028,-1.282436,0.263173
2.978000,-0.094546,-0.189092,0.317726,-1.283638,0.262272
2.980000,-0.094933,-0.189866,0.316468,-1.284798,0.261401
2.982000,-0.095306,-0.190612,0.315255,-1.285918,0.260561
2.984000,-0.095666,-0.191332,0.314086,-1.286997,0.259752
2.986000,-0.096012,-0.192023,0.312962,-1.288035,0.258974
2.988000,-0.096343,-0.192687,0.311884,-1.289030,0.258227
2.990000,-0.096661,-0.193323,0.310850,-1.289984,0.257512
2.992000,-0.096965,-0.193931,0.309862,-1.290896,0.256828
2.994000,-0.097255,-0.194510,0.308920,-1.291766,0.256176
2.996000,-0.097531,-0.195062,0.308025,-1.292593,0.255555
2.998000,-0.097792,-0.195585,0.307175,-1.293377,0.254967
3.000000,-0.098039,-0.196079,0.306372,-1.294118,0.254411
3.002000,-0.098272,-0.196544,0.305616,-1.294816,0.253888
3.004000,-0.098490,-0.196981,0.304906,-1.295471,0.253397
3.006000,-0.098694,-0.197388,0.304244,-1.296083,0.252938
3.008000,-0.098883,-0.197767,0.303629,-1.296650,0.252512
3.010000,-0.099058,-0.198116,0.303061,-1.297174,0.252119
3.012000,-0.099218,-0.198436,0.302542,-1.297654,0.251760
3.014000,-0.099363,-0.198726,0.302070,-1.298090,0.251433
3.016000,-0.099494,-0.198987,0.301646,-1.298481,0.251139
3.018000,-0.099609,-0.199218,0.301270,-1.298828,0.250879
3.020000,-0.099710,-0.199420,0.300943,-1.299130,0.250653
3.022000,-0.099796,-0.199592,0.300664,-1.299387,0.250459
3.024000,-0.099867,-0.199733,0.300433,-1.299600,0.250300
3.026000,-0.099922,-0.199845,0.300252,-1.299767,0.250174
3.028000,-0.099963,-0.199927,0.300119,-1.299890,0.250083
3.030000,-0.099989,-0.199978,0.300036,-1.299967,0.250025
3.032000,-0.100000,-0.199999,0.300001,-1.299999,0.250001
3.034000,-0.099995,-0.199990,0.300016,-1.299986,0.250011
3.036000,-0.099976,-0.199951,0.300080,-1.299927,0.250055
3.038000,-0.099941,-0.199881,0.300193,-1.299822,0.250134
3.040000,-0.099891,-0.199781,0.300356,-1.299672,0.250246
3.042000,-0.099825,-0.199650,0.300568,-1.299476,0.250393
3.044000,-0.099745,-0.199489,0.300830,-1.299234,0.250575
3.046000,-0.099649,-0.199298,0.301141,-1.298946,0.250790
3.048000,-0.099538,-0.199075,0.301503,-1.298613,0.251040
3.050000,-0.099411,-0.198822,0.301914,-1.298234,0.251325
3.052000,-0.099269,-0.198539,0.302374,-1.297808,0.251644
3.054000,-0.099112,-0.198225,0.302885,-1.297337,0.251997
3.056000,-0.098940,-0.197880,0.303445,-1.296820,0.252385
3.058000,-0.098752,-0.197504,0.304056,-1.296256,0.252808
3.060000,-0.098549,-0.197098,0.304716,-1.295647,0.253265
3.062000,-0.098331,-0.196661,0.305426,-1.294992,0.253756
3.064000,-0.098097,-0.196194,0.306185,-1.294291,0.254282
3.066000,-0.097848,-0.195696,0.306995,-1.293543,0.254843
3.068000,-0.097583,-0.195167,0.307854,-1.292750,0.255437
3.070000,-0.097304,-0.194607,0.308763,-1.291911,0.256067
3.072000,-0.097009,-0.194017,0.309722,-1.291026,0.256730
3.074000,-0.096698,-0.193397,0.310730,-1.290095,0.257428
3.076000,-0.096373,-0.192746,0.311788,-1.289119,0.258161
3.078000,-0.096032,-0.192065,0.312895,-1.288097,0.258927
3.080000,-0.095676,-0.191353,0.314052,-1.287029,0.259728
3.082000,-0.095305,-0.190611,0.315258,-1.285916,0.260563
3.084000,-0.094919,-0.189838,0.316513,-1.284757,0.261432
3.086000,-0.094518,-0.189035,0.317818,-1.283553,0.262335
3.088000,-0.094101,-0.188202,0.319171,-1.282304,0.263272
3.090000,-0.093670,-0.187339,0.320573,-1.281009,0.264243
3.092000,-0.093223,-0.186446,0.322024,-1.279670,0.265248
3.094000,-0.092762,-0.185524,0.323524,-1.278285,0.266286
3.096000,-0.092285,-0.184571,0.325072,-1.276856,0.267358
3.098000,-0.091794,-0.183588,0.326669,-1.275382,0.268463
3.100000,-0.091288,-0.182576,0.328314,-1.273864,0.269602
3.102000,-0.090767,-0.181535,0.330006,-1.272302,0.270774
3.104000,-0.090232,-0.180463,0.331747,-1.270695,0.271979
3.106000,-0.089681,-0.179363,0.333535,-1.269044,0.273217
3.108000,-0.089117,-0.178233,0.335371,-1.267350,0.274487
3.110000,-0.088537,-0.177075,0.337254,-1.265612,0.275791
3.112000,-0.087944,-0.175887,0.339184,-1.263831,0.277127
3.114000,-0.087335,-0.174671,0.341160,-1.262006,0.278496
3.116000,-0.086713,-0.173426,0.343184,-1.260138,0.279896
3.118000,-0.086076,-0.172152,0.345253,-1.258228,0.281329
3.120000,-0.085425,-0.170850,0.347369,-1.256275,0.282794
3.122000,-0.084760,-0.169520,0.349530,-1.254280,0.284290
3.124000,-0.084081,-0.168161,0.351738,-1.252242,0.285818
3.126000,-0.083388,-0.166775,0.353990,-1.250163,0.287378
3.128000,-0.082681,-0.165362,0.356288,-1.248042,0.288968
3.130000,-0.081960,-0.163920,0.358630,-1.245880,0.290590
3.132000,-0.081226,-0.162451,0.361016,-1.243677,0.292242
3.134000,-0.080478,-0.160956,0.363447,-1.241433,0.293925
3.136000,-0.079716,-0.159433,0.365922,-1.239149,0.295638
3.138000,-0.078942,-0.157883,0.368440,-1.236825,0.297382
3.140000,-0.078153,-0.156307,0.371001,-1.234460,0.299155
3.142000,-0.077352,-0.154704,0.373606,-1.232056,0.300958
3.144000,-0.076538,-0.153076,0.376252,-1.229613,0.302790
3.146000,-0.075710,-0.151421,0.378941,-1.227131,0.304652
3.148000,-0.074870,-0.149741,0.381672,-1.224611,0.306542
3.150000,-0.074017,-0.148035,0.384444,-1.222052,0.308461
3.152000,-0.073152,-0.146304,0.387257,-1.219455,0.310409
3.154000,-0.072274,-0.144547,0.390110,-1.216821,0.312384
3.156000,-0.071383,-0.142766,0.393004,-1.214150,0.314388
3.158000,-0.070481,-0.140961,0.395938,-1.211442,0.316419
3.160000,-0.069566,-0.139131,0.398912,-1.208697,0.318477
3.162000,-0.068639,-0.137278,0.401924,-1.205916,0.320563
3.164000,-0.067700,-0.135400,0.404975,-1.203100,0.322675
3.166000,-0.066750,-0.133499,0.408064,-1.200249,0.324813
3.168000,-0.065787,-0.131575,0.411191,-1.197362,0.326978
3.170000,-0.064814,-0.129628,0.414355,-1.194442,0.329169
3.172000,-0.063829,-0.127658,0.417556,-1.191487,0.331385
3.174000,-0.062833,-0.125666,0.420793,-1.188499,0.333626
3.176000,-0.061826,-0.123652,0.424066,-1.185478,0.335892
3.178000,-0.060808,-0.121616,0.427375,-1.182424,0.338182
3.180000,-0.059779,-0.119558,0.430718,-1.179337,0.340497
3.182000,-0.058740,-0.117479,0.434096,-1.176219,0.342836
3.184000,-0.057690,-0.115380,0.437508,-1.173070,0.345198
3.186000,-0.056630,-0.113260,0.440953,-1.169890,0.347583
3.188000,-0.055560,-0.111119,0.444431,-1.166679,0.349991
3.190000,-0.054480,-0.108959,0.447941,-1.163439,0.352421
3.192000,-0.053390,-0.106779,0.451484,-1.160169,0.354873
3.194000,-0.052290,-0.104580,0.455057,-1.156870,0.357347
3.196000,-0.051181,-0.102362,0.458661,-1.153543,0.359843
3.198000,-0.050063,-0.100126,0.462296,-1.150188,0.362359
3.200000,-0.048935,-0.097871,0.465960,-1.146806,0.364895
3.202000,-0.047799,-0.095598,0.469653,-1.143397,0.367452
3.204000,-0.046654,-0.093308,0.473375,-1.139961,0.370029
3.206000,-0.045500,-0.091000,0.477125,-1.136500,0.372625
3.208000,-0.044338,-0.088676,0.480902,-1.133014,0.375240
3.210000,-0.043168,-0.086335,0.484705,-1.129503,0.377873
3.212000,-0.041989,-0.083978,0.488535,-1.125967,0.380524
3.214000,-0.040803,-0.081606,0.492391,-1.122409,0.383193
3.216000,-0.039609,-0.079218,0.496271,-1.118827,0.385880
3.218000,-0.038408,-0.076815,0.500175,-1.115223,0.388583
3.220000,-0.037199,-0.074398,0.504104,-1.111597,0.391303
3.222000,-0.035983,-0.071966,0.508055,-1.107949,0.394038
3.224000,-0.034760,-0.069521,0.512029,-1.104281,0.396789
3.226000,-0.033531,-0.067062,0.516024,-1.100593,0.399555
3.228000,-0.032295,-0.064590,0.520041,-1.096885,0.402336
3.230000,-0.031053,-0.062106,0.524078,-1.093159,0.405131
3.232000,-0.029805,-0.059609,0.528135,-1.089414,0.407939
3.234000,-0.028551,-0.057101,0.532211,-1.085652,0.410761
3.236000,-0.027291,-0.054581,0.536305,-1.081872,0.413596
3.238000,-0.026025,-0.052051,0.540417,-1.078076,0.416443
3.240000,-0.024755,-0.049510,0.544547,-1.074265,0.419302
3.242000,-0.023479,-0.046958,0.548692,-1.070438,0.422172
3.244000,-0.022199,-0.044398,0.552854,-1.066596,0.425053
3.246000,-0.020914,-0.041827,0.557031,-1.062741,0.427944
3.248000,-0.019624,-0.039248,0.561221,-1.058873,0.430846
3.250000,-0.018331,-0.036661,0.565426,-1.054992,0.433756
3.252000,-0.017033,-0.034066,0.569643,-1.051099,0.436676
3.254000,-0.015731,-0.031463,0.573873,-1.047194,0.439604
3.256000,-0.014426,-0.028853,0.578114,-1.043279,0.442540
3.258000,-0.013118,-0.026236,0.582366,-1.039355,0.445484
3.260000,-0.011807,-0.023614,0.586628,-1.035421,0.448435
3.262000,-0.010493,-0.020985,0.590899,-1.031478,0.451392
3.264000,-0.009176,-0.018352,0.595179,-1.027527,0.454354
3.266000,-0.007857,-0.015713,0.599466,-1.023570,0.457323
3.268000,-0.006535,-0.013070,0.603761,-1.019605,0.460296
3.270000,-0.005212,-0.010424,0.608062,-1.015635,0.463274
3.272000,-0.003887,-0.007773,0.612368,-1.011660,0.466255
3.274000,-0.002560,-0.005120,0.616680,-1.007680,0.469240
3.276000,-0.001232,-0.002464,0.620995,-1.003697,0.472227
3.278000,0.000097,0.000193,0.625314,-0.999710,0.475217
3.280000,0.001426,0.002853,0.629635,-0.995721,0.478209
3.282000,0.002756,0.005513,0.633958,-0.991731,0.481202
3.284000,0.004087,0.008174,0.638283,-0.987739,0.484196
3.286000,0.005418,0.010835,0.642607,-0.983747,0.487190
3.288000,0.006748,0.013496,0.646931,-0.979756,0.490183
3.290000,0.008078,0.016156,0.651254,-0.975766,0.493176
3.292000,0.009407,0.018815,0.655574,-0.971778,0.496167
3.294000,0.010736,0.021472,0.659892,-0.967792,0.499156
3.296000,0.012063,0.024127,0.664206,-0.963810,0.502143
3.298000,0.013389,0.026779,0.668515,-0.959832,0.505126
3.300000,0.014714,0.029428,0.672820,-0.955859,0.508106
3.302000,0.016036,0.032073,0.677118,-0.951891,0.511082
3.304000,0.017357,0.034714,0.681410,-0.947929,0.514053
3.306000,0.018675,0.037350,0.685694,-0.943975,0.517019
3.308000,0.019991,0.039982,0.689970,-0.940028,0.519979
3.310000,0.021304,0.042607,0.694237,-0.936089,0.522933
3.312000,0.022613,0.045227,0.698493,-0.932160,0.525880
3.314000,0.023920,0.047840,0.702740,-0.928240,0.528820
3.316000,0.025223,0.050446,0.706974,-0.924332,0.531751
3.318000,0.026522,0.053044,0.711196,-0.920434,0.534674
3.320000,0.027817,0.055634,0.715405,-0.916549,0.537588
3.322000,0.029108,0.058216,0.719601,-0.912676,0.540493
3.324000,0.030394,0.060789,0.723781,-0.908817,0.543387
3.326000,0.031676,0.063352,0.727947,-0.904972,0.546271
3.328000,0.032952,0.065905,0.732095,-0.901143,0.549143
3.330000,0.034224,0.068448,0.736227,-0.897329,0.552004
3.332000,0.035490,0.070979,0.740341,-0.893531,0.554852
3.334000,0.036750,0.073500,0.744437,-0.889751,0.557687
3.336000,0.038004,0.076008,0.748513,-0.885988,0.560509
3.338000,0.039252,0.078504,0.752569,-0.882244,0.563317
3.340000,0.040493,0.080987,0.756604,-0.878520,0.566110
3.342000,0.041728,0.083457,0.760617,-0.874815,0.568889
3.344000,0.042956,0.085912,0.764607,-0.871132,0.571651
3.346000,0.044177,0.088354,0.768575,-0.867469,0.574398
3.348000,0.045390,0.090780,0.772518,-0.863830,0.577128
3.350000,0.046596,0.093192,0.776436,-0.860213,0.579841
3.352000,0.047794,0.095587,0.780329,-0.856619,0.582536
3.354000,0.048983,0.097967,0.784196,-0.853050,0.585212
3.356000,0.050165,0.100329,0.788035,-0.849506,0.587870
3.358000,0.051337,0.102675,0.791846,-0.845988,0.590509
3.360000,0.052501,0.105002,0.795629,-0.842497,0.593128
3.362000,0.053656,0.107312,0.799382,-0.839032,0.595726
3.364000,0.054801,0.109603,0.803105,-0.835596,0.598303
3.366000,0.055937,0.111875,0.806797,-0.832188,0.600859
3.368000,0.057064,0.114127,0.810457,-0.828809,0.603393
3.370000,0.058180,0.116360,0.814085,-0.825460,0.605905
3.372000,0.059286,0.118572,0.817680,-0.822142,0.608394
3.374000,0.060382,0.120763,0.821241,-0.818855,0.610859
3.376000,0.061467,0.122933,0.824767,-0.815600,0.613300
3.378000,0.062541,0.125082,0.828258,-0.812378,0.615717
3.380000,0.063604,0.127208,0.831712,-0.809189,0.618109
3.382000,0.064655,0.129311,0.835130,-0.806034,0.620475
3.384000,0.065696,0.131391,0.838511,-0.802913,0.622815
3.386000,0.066724,0.133448,0.841853,-0.799828,0.625129
3.388000,0.067740,0.135481,0.845156,-0.796779,0.627416
3.390000,0.068745,0.137489,0.848420,-0.793766,0.629675
3.392000,0.069736,0.139473,0.851643,-0.790791,0.631907
3.394000,0.070716,0.141431,0.854826,-0.787853,0.634110
3.396000,0.071682,0.143364,0.857967,-0.784954,0.636285
3.398000,0.072635,0.145271,0.861065,-0.782094,0.638430
3.400000,0.073576,0.147151,0.864120,-0.779273,0.640545
3.402000,0.074502,0.149004,0.867132,-0.776493,0.642630
3.404000,0.075415,0.150831,0.870100,-0.773754,0.644684
3.406000,0.076315,0.152629,0.873022,-0.771056,0.646708
3.408000,0.077200,0.154399,0.875899,-0.768401,0.648699
3.410000,0.078071,0.156141,0.878730,-0.765788,0.650659
3.412000,0.078927,0.157855,0.881514,-0.763218,0.652586
3.414000,0.079769,0.159538,0.884250,-0.760692,0.654481
3.416000,0.080596,0.161193,0.886938,-0.758211,0.656342
3.418000,0.081409,0.162817,0.889578,-0.755774,0.658169
3.420000,0.082206,0.164411,0.892168,-0.753383,0.659963
3.422000,0.082987,0.165975,0.894709,-0.751038,0.661721
3.424000,0.083753,0.167507,0.897199,-0.748740,0.663445
3.426000,0.084504,0.169008,0.899638,-0.746488,0.665134
3.428000,0.085239,0.170477,0.902025,-0.744284,0.666787
3.430000,0.085957,0.171914,0.904361,-0.742129,0.668403
3.432000,0.086659,0.173319,0.906643,-0.740022,0.669984
3.434000,0.087345,0.174691,0.908873,-0.737964,0.671527
3.436000,0.088015,0.176030,0.911048,-0.735955,0.673034
3.438000,0.088668,0.177335,0.913170,-0.733997,0.674502
3.440000,0.089304,0.178607,0.915237,-0.732089,0.675933
3.442000,0.089923,0.179845,0.917248,-0.730232,0.677326
3.444000,0.090524,0.181049,0.919204,-0.728427,0.678680
3.446000,0.091109,0.182218,0.921103,-0.726674,0.679995
3.448000,0.091676,0.183352,0.922946,-0.724973,0.681270
3.450000,0.092225,0.184450,0.924732,-0.723324,0.682507
3.452000,0.092757,0.185514,0.926460,-0.721729,0.683703
3.454000,0.093271,0.186542,0.928130,-0.720188,0.684859
3.456000,0.093767,0.187533,0.929742,-0.718700,0.685975
3.458000,0.094244,0.188489,0.931294,-0.717267,0.687050
3.460000,0.094704,0.189408,0.932788,-0.715888,0.688084
3.462000,0.095145,0.190290,0.934221,-0.714565,0.689076
3.464000,0.095568,0.191135,0.935595,-0.713297,0.690027
3.466000,0.095972,0.191943,0.936908,-0.712085,0.690936
3.468000,0.096357,0.192714,0.938160,-0.710929,0.691803
3.470000,0.096724,0.193447,0.939352,-0.709829,0.692628
3.472000,0.097071,0.194142,0.940481,-0.708787,0.693410
3.474000,0.097400,0.194799,0.941549,-0.707801,0.694149
3.476000,0.097709,0.195418,0.942555,-0.706873,0.694846
3.478000,0.097999,0.195999,0.943498,-0.706002,0.695498
3.480000,0.098270,0.196540,0.944378,-0.705189,0.696108
3.482000,0.098522,0.197043,0.945196,-0.704435,0.696674
3.484000,0.098754,0.197507,0.945950,-0.703739,0.697196
3.486000,0.098966,0.197932,0.946640,-0.703102,0.697674
3.488000,0.099159,0.198318,0.947267,-0.702523,0.698108
3.490000,0.099332,0.198664,0.947829,-0.702004,0.698497
3.492000,0.099485,0.198971,0.948327,-0.701544,0.698842
3.494000,0.099619,0.199238,0.948761,-0.701144,0.699142
3.496000,0.099732,0.199465,0.949130,-0.700803,0.699398
3.498000,0.099826,0.199652,0.949434,-0.700522,0.699608
3.500000,0.099900,0.199799,0.949674,-0.700301,0.699774
3.502000,0.099953,0.199906,0.949848,-0.700141,0.699894
3.504000,0.099986,0.199973,0.949956,-0.700041,0.699970
3.506000,0.100000,0.200000,0.949999,-0.700001,0.699999
3.508000,0.099993,0.199986,0.949977,-0.700022,0.699984
3.510000,0.099966,0.199931,0.949888,-0.700103,0.699923
3.512000,0.099918,0.199837,0.949734,-0.700245,0.699816
3.514000,0.099851,0.199701,0.949515,-0.700448,0.699664
3.516000,0.099763,0.199525,0.949229,-0.700712,0.699466
3.518000,0.099654,0.199309,0.948877,-0.701037,0.699222
3.520000,0.099526,0.199052,0.948459,-0.701423,0.698933
3.522000,0.099377,0.198754,0.947975,-0.701869,0.698598
3.524000,0.099208,0.198415,0.947425,-0.702377,0.698217
3.526000,0.099018,0.198036,0.946809,-0.702946,0.697791
3.528000,0.098808,0.197616,0.946126,-0.703576,0.697318
3.530000,0.098578,0.197156,0.945378,-0.704266,0.696800
3.532000,0.098327,0.196655,0.944564,-0.705018,0.696236
3.534000,0.098056,0.196113,0.943684,-0.705831,0.695627
3.536000,0.097765,0.195531,0.942737,-0.706704,0.694972
3.538000,0.097454,0.194908,0.941726,-0.707638,0.694272
3.540000,0.097122,0.194245,0.940648,-0.708633,0.693526
3.542000,0.096771,0.193541,0.939505,-0.709688,0.692734
3.544000,0.096399,0.192798,0.938296,-0.710803,0.691897
3.546000,0.096007,0.192014,0.937022,-0.711979,0.691015
3.548000,0.095595,0.191190,0.935683,-0.713215,0.690088
3.550000,0.095163,0.190326,0.934279,-0.714511,0.689116
3.552000,0.094711,0.189422,0.932810,-0.715867,0.688099
3.554000,0.094239,0.188478,0.931277,-0.717283,0.687038
3.556000,0.093747,0.187495,0.929679,-0.718758,0.685932
3.558000,0.093236,0.186472,0.928017,-0.720292,0.684781
3.560000,0.092705,0.185410,0.926291,-0.721885,0.683586
3.562000,0.092154,0.184309,0.924501,-0.723537,0.682347
3.564000,0.091584,0.183168,0.922648,-0.725248,0.681064
3.566000,0.090995,0.181989,0.920732,-0.727016,0.679738
3.568000,0.090386,0.180771,0.918753,-0.728843,0.678368
3.570000,0.089757,0.179515,0.916712,-0.730728,0.676954
3.572000,0.089110,0.178220,0.914608,-0.732670,0.675498
3.574000,0.088444,0.176888,0.912442,-0.734669,0.673999
3.576000,0.087759,0.175517,0.910215,-0.736724,0.672457
3.578000,0.087054,0.174109,0.907927,-0.738837,0.670873
