DanielTruong99/gene_pkgs/ros2_pkgs_gene/joint_planner/motion_files/chirp_signals_30s.csv
timestamp,L_hip_joint,L_hip2_joint,L_thigh_joint,L_calf_joint,L_toe_joint
0.000000,0.100000,0.200000,0.950000,-0.700000,0.700000
0.002000,0.100000,0.200000,0.950000,-0.700000,0.700000
0.004000,0.100000,0.200000,0.950000,-0.700000,0.700000
0.006000,0.100000,0.200000,0.950000,-0.700000,0.700000
0.008000,0.100000,0.200000,0.950000,-0.700000,0.700000
0.010000,0.100000,0.200000,0.950000,-0.700000,0.700000
0.012000,0.100000,0.200000,0.950000,-0.700000,0.700000
0.014000,0.100000,0.200000,0.950000,-0.700000,0.700000
0.016000,0.100000,0.200000,0.950000,-0.700000,0.700000
0.018000,0.100000,0.200000,0.950000,-0.700000,0.700000
0.020000,0.100000,0.200000,0.950000,-0.700000,0.700000
0.022000,0.100000,0.200000,0.949999,-0.700000,0.700000
0.024000,0.100000,0.200000,0.949999,-0.700001,0.700000
0.026000,0.100000,0.200000,0.949999,-0.700001,0.699999
0.028000,0.100000,0.199999,0.949999,-0.700001,0.699999
0.030000,0.100000,0.199999,0.949999,-0.700001,0.699999
0.032000,0.100000,0.199999,0.949999,-0.700001,0.699999
0.034000,0.100000,0.199999,0.949998,-0.700001,0.699999
0.036000,0.099999,0.199999,0.949998,-0.700002,0.699999
0.038000,0.099999,0.199999,0.949998,-0.700002,0.699999
0.040000,0.099999,0.199999,0.949998,-0.700002,0.699998
0.042000,0.099999,0.199998,0.949997,-0.700003,0.699998
0.044000,0.099999,0.199998,0.949997,-0.700003,0.699998
0.046000,0.099999,0.199998,0.949996,-0.700003,0.699998
0.048000,0.099999,0.199998,0.949996,-0.700004,0.699997
0.050000,0.099999,0.199997,0.949996,-0.700004,0.699997
0.052000,0.099998,0.199997,0.949995,-0.700005,0.699997
0.054000,0.099998,0.199997,0.949994,-0.700005,0.699996
0.056000,0.099998,0.199996,0.949994,-0.700006,0.699996
0.058000,0.099998,0.199996,0.949993,-0.700006,0.699995
0.060000,0.099998,0.199995,0.949993,-0.700007,0.699995
0.062000,0.099997,0.199995,0.949992,-0.700008,0.699994
0.064000,0.099997,0.199994,0.949991,-0.700008,0.699994
0.066000,0.099997,0.199994,0.949990,-0.700009,0.699993
0.068000,0.099997,0.199993,0.949989,-0.700010,0.699993
0.070000,0.099996,0.199993,0.949988,-0.700011,0.699992
0.072000,0.099996,0.199992,0.949987,-0.700012,0.699991
0.074000,0.099996,0.199991,0.949986,-0.700013,0.699990
0.076000,0.099995,0.199991,0.949985,-0.700014,0.699990
0.078000,0.099995,0.199990,0.949984,-0.700015,0.699989
0.080000,0.099995,0.199989,0.949982,-0.700016,0.699988
0.082000,0.099994,0.199988,0.949981,-0.700017,0.699987
0.084000,0.099994,0.199987,0.949980,-0.700019,0.699986
0.086000,0.099993,0.199987,0.949978,-0.700020,0.699985
0.088000,0.099993,0.199986,0.949977,-0.700022,0.699984
0.090000,0.099992,0.199985,0.949975,-0.700023,0.699983
0.092000,0.099992,0.199983,0.949973,-0.700025,0.699981
0.094000,0.099991,0.199982,0.949971,-0.700027,0.699980
0.096000,0.099991,0.199981,0.949969,-0.700028,0.699979
0.098000,0.099990,0.199980,0.949967,-0.700030,0.699977
0.100000,0.099989,0.199979,0.949965,-0.700032,0.699976
0.102000,0.099989,0.199977,0.949963,-0.700034,0.699974
0.104000,0.099988,0.199976,0.949961,-0.700036,0.699973
0.106000,0.099987,0.199974,0.949958,-0.700039,0.699971
0.108000,0.099986,0.199973,0.949956,-0.700041,0.699969
0.110000,0.099985,0.199971,0.949953,-0.700044,0.699967
0.112000,0.099985,0.199969,0.949950,-0.700046,0.699965
0.114000,0.099984,0.199967,0.949947,-0.700049,0.699963
0.116000,0.099983,0.199966,0.949944,-0.700052,0.699961
0.118000,0.099982,0.199964,0.949941,-0.700055,0.699959
0.120000,0.099981,0.199962,0.949938,-0.700058,0.699957
0.122000,0.099980,0.199960,0.949934,-0.700061,0.699954
0.124000,0.099979,0.199957,0.949931,-0.700064,0.699952
0.126000,0.099978,0.199955,0.949927,-0.700067,0.699949
0.128000,0.099976,0.199953,0.949923,-0.700071,0.699947
0.130000,0.099975,0.199950,0.949919,-0.700075,0.699944
0.132000,0.099974,0.199948,0.949915,-0.700078,0.699941
0.134000,0.099973,0.199945,0.949911,-0.700082,0.699938
0.136000,0.099971,0.199942,0.949906,-0.700087,0.699935
0.138000,0.099970,0.199939,0.949902,-0.700091,0.699932
0.140000,0.099968,0.199937,0.949897,-0.700095,0.699929
0.142000,0.099967,0.199933,0.949892,-0.700100,0.699925
0.144000,0.099965,0.199930,0.949887,-0.700105,0.699922
0.146000,0.099964,0.199927,0.949881,-0.700109,0.699918
0.148000,0.099962,0.199924,0.949876,-0.700115,0.699914
0.150000,0.099960,0.199920,0.949870,-0.700120,0.699910
0.152000,0.099958,0.199917,0.949864,-0.700125,0.699906
0.154000,0.099956,0.199913,0.949858,-0.700131,0.699902
0.156000,0.099955,0.199909,0.949852,-0.700136,0.699898
0.158000,0.099953,0.199905,0.949846,-0.700142,0.699893
0.160000,0.099950,0.199901,0.949839,-0.700149,0.699889
0.162000,0.099948,0.199897,0.949832,-0.700155,0.699884
0.164000,0.099946,0.199892,0.949825,-0.700161,0.699879
0.166000,0.099944,0.199888,0.949818,-0.700168,0.699874
0.168000,0.099942,0.199883,0.949810,-0.700175,0.699869
0.170000,0.099939,0.199878,0.949802,-0.700182,0.699863
0.172000,0.099937,0.199874,0.949794,-0.700190,0.699858
0.174000,0.099934,0.199868,0.949786,-0.700197,0.699852
0.176000,0.099932,0.199863,0.949778,-0.700205,0.699846
0.178000,0.099929,0.199858,0.949769,-0.700213,0.699840
0.180000,0.099926,0.199852,0.949760,-0.700221,0.699834
0.182000,0.099923,0.199847,0.949751,-0.700230,0.699828
0.184000,0.099920,0.199841,0.949741,-0.700239,0.699821
0.186000,0.099917,0.199835,0.949732,-0.700248,0.699814
0.188000,0.099914,0.199829,0.949722,-0.700257,0.699807
0.190000,0.099911,0.199822,0.949711,-0.700266,0.699800
0.192000,0.099908,0.199816,0.949701,-0.700276,0.699793
0.194000,0.099905,0.199809,0.949690,-0.700286,0.699785
0.196000,0.099901,0.199802,0.949679,-0.700296,0.699778
0.198000,0.099898,0.199795,0.949667,-0.700307,0.699770
0.200000,0.099894,0.199788,0.949656,-0.700318,0.699762
0.202000,0.099890,0.199781,0.949644,-0.700329,0.699753
0.204000,0.099887,0.199773,0.949631,-0.700340,0.699745
0.206000,0.099883,0.199765,0.949619,-0.700352,0.699736
0.208000,0.099879,0.199757,0.949606,-0.700364,0.699727
0.210000,0.099875,0.199749,0.949592,-0.700376,0.699718
0.212000,0.099870,0.199741,0.949579,-0.700389,0.699708
0.214000,0.099866,0.199732,0.949565,-0.700402,0.699699
0.216000,0.099862,0.199723,0.949550,-0.700415,0.699689
0.218000,0.099857,0.199714,0.949536,-0.700429,0.699678
0.220000,0.099852,0.199705,0.949521,-0.700443,0.699668
0.222000,0.099848,0.199695,0.949505,-0.700457,0.699657
0.224000,0.099843,0.199686,0.949489,-0.700471,0.699646
0.226000,0.099838,0.199676,0.949473,-0.700486,0.699635
0.228000,0.099833,0.199666,0.949457,-0.700501,0.699624
0.230000,0.099828,0.199655,0.949440,-0.700517,0.699612
0.232000,0.099822,0.199645,0.949423,-0.700533,0.699600
0.234000,0.099817,0.199634,0.949405,-0.700549,0.699588
0.236000,0.099811,0.199623,0.949387,-0.700566,0.699576
0.238000,0.099806,0.199611,0.949368,-0.700583,0.699563
0.240000,0.099800,0.199600,0.949349,-0.700600,0.699550
0.242000,0.099794,0.199588,0.949330,-0.700618,0.699536
0.244000,0.099788,0.199576,0.949310,-0.700637,0.699523
0.246000,0.099782,0.199563,0.949290,-0.700655,0.699509
0.248000,0.099775,0.199551,0.949270,-0.700674,0.699494
0.250000,0.099769,0.199538,0.949249,-0.700694,0.699480
0.252000,0.099762,0.199524,0.949227,-0.700713,0.699465
0.254000,0.099755,0.199511,0.949205,-0.700734,0.699450
0.256000,0.099749,0.199497,0.949183,-0.700754,0.699434
0.258000,0.099742,0.199483,0.949160,-0.700775,0.699418
0.260000,0.099734,0.199469,0.949137,-0.700797,0.699402
0.262000,0.099727,0.199454,0.949113,-0.700819,0.699386
0.264000,0.099720,0.199439,0.949089,-0.700841,0.699369
0.266000,0.099712,0.199424,0.949064,-0.700864,0.699352
0.268000,0.099704,0.199408,0.949038,-0.700888,0.699334
0.270000,0.099696,0.199392,0.949013,-0.700911,0.699316
0.272000,0.099688,0.199376,0.948986,-0.700936,0.699298
0.274000,0.099680,0.199360,0.948959,-0.700961,0.699280
0.276000,0.099671,0.199343,0.948932,-0.700986,0.699261
0.278000,0.099663,0.199326,0.948904,-0.701012,0.699241
0.280000,0.099654,0.199308,0.948876,-0.701038,0.699222
0.282000,0.099645,0.199290,0.948847,-0.701065,0.699202
0.284000,0.099636,0.199272,0.948817,-0.701092,0.699181
0.286000,0.099627,0.199254,0.948787,-0.701120,0.699160
0.288000,0.099617,0.199235,0.948756,-0.701148,0.699139
0.290000,0.099608,0.199216,0.948725,-0.701177,0.699117
0.292000,0.099598,0.199196,0.948693,-0.701206,0.699095
0.294000,0.099588,0.199176,0.948661,-0.701236,0.699073
0.296000,0.099578,0.199156,0.948628,-0.701266,0.699050
0.298000,0.099568,0.199135,0.948594,-0.701297,0.699027
0.300000,0.099557,0.199114,0.948560,-0.701329,0.699003
0.302000,0.099546,0.199093,0.948525,-0.701361,0.698979
0.304000,0.099535,0.199071,0.948490,-0.701394,0.698955
0.306000,0.099524,0.199048,0.948454,-0.701427,0.698930
0.308000,0.099513,0.199026,0.948417,-0.701461,0.698904
0.310000,0.099501,0.199003,0.948380,-0.701496,0.698878
0.312000,0.099490,0.198979,0.948342,-0.701531,0.698852
0.314000,0.099478,0.198956,0.948303,-0.701567,0.698825
0.316000,0.099466,0.198931,0.948264,-0.701603,0.698798
0.318000,0.099453,0.198907,0.948224,-0.701640,0.698770
0.320000,0.099441,0.198882,0.948183,-0.701677,0.698742
0.322000,0.099428,0.198856,0.948141,-0.701716,0.698713
0.324000,0.099415,0.198830,0.948099,-0.701755,0.698684
0.326000,0.099402,0.198804,0.948056,-0.701794,0.698654
0.328000,0.099389,0.198777,0.948013,-0.701834,0.698624
0.330000,0.099375,0.198750,0.947969,-0.701875,0.698594
0.332000,0.099361,0.198722,0.947924,-0.701917,0.698562
0.334000,0.099347,0.198694,0.947878,-0.701959,0.698531
0.336000,0.099333,0.198665,0.947831,-0.702002,0.698499
0.338000,0.099318,0.198636,0.947784,-0.702045,0.698466
0.340000,0.099303,0.198607,0.947736,-0.702090,0.698433
0.342000,0.099288,0.198577,0.947687,-0.702135,0.698399
0.344000,0.099273,0.198546,0.947638,-0.702181,0.698365
0.346000,0.099258,0.198515,0.947587,-0.702227,0.698330
0.348000,0.099242,0.198484,0.947536,-0.702274,0.698294
0.350000,0.099226,0.198452,0.947484,-0.702322,0.698258
0.352000,0.099210,0.198419,0.947432,-0.702371,0.698222
0.354000,0.099193,0.198386,0.947378,-0.702420,0.698185
0.356000,0.099176,0.198353,0.947324,-0.702471,0.698147
0.358000,0.099159,0.198319,0.947268,-0.702522,0.698109
0.360000,0.099142,0.198284,0.947212,-0.702573,0.698070
0.362000,0.099125,0.198249,0.947155,-0.702626,0.698031
0.364000,0.099107,0.198214,0.947097,-0.702679,0.697991
0.366000,0.099089,0.198178,0.947039,-0.702733,0.697950
0.368000,0.099071,0.198141,0.946979,-0.702788,0.697909
0.370000,0.099052,0.198104,0.946919,-0.702844,0.697867
0.372000,0.099033,0.198066,0.946857,-0.702901,0.697824
0.374000,0.099014,0.198028,0.946795,-0.702958,0.697781
0.376000,0.098994,0.197989,0.946732,-0.703017,0.697737
0.378000,0.098975,0.197949,0.946668,-0.703076,0.697693
0.380000,0.098955,0.197909,0.946603,-0.703136,0.697648
0.382000,0.098934,0.197869,0.946537,-0.703197,0.697602
0.384000,0.098914,0.197828,0.946470,-0.703259,0.697556
0.386000,0.098893,0.197786,0.946402,-0.703321,0.697509
0.388000,0.098872,0.197743,0.946333,-0.703385,0.697461
0.390000,0.098850,0.197700,0.946263,-0.703449,0.697413
0.392000,0.098828,0.197657,0.946192,-0.703515,0.697364
0.394000,0.098806,0.197613,0.946121,-0.703581,0.697314
0.396000,0.098784,0.197568,0.946048,-0.703648,0.697264
0.398000,0.098761,0.197522,0.945974,-0.703716,0.697213
0.400000,0.098738,0.197476,0.945899,-0.703785,0.697161
0.402000,0.098715,0.197430,0.945823,-0.703855,0.697108
0.404000,0.098691,0.197382,0.945746,-0.703926,0.697055
0.406000,0.098667,0.197334,0.945668,-0.703998,0.697001
0.408000,0.098643,0.197286,0.945589,-0.704071,0.696946
0.410000,0.098618,0.197236,0.945509,-0.704145,0.696891
0.412000,0.098593,0.197186,0.945428,-0.704220,0.696835
0.414000,0.098568,0.197136,0.945346,-0.704296,0.696778
0.416000,0.098542,0.197084,0.945262,-0.704373,0.696720
0.418000,0.098516,0.197032,0.945178,-0.704451,0.696662
0.420000,0.098490,0.196980,0.945092,-0.704530,0.696602
0.422000,0.098463,0.196926,0.945005,-0.704610,0.696542
0.424000,0.098436,0.196872,0.944918,-0.704691,0.696481
0.426000,0.098409,0.196818,0.944829,-0.704774,0.696420
0.428000,0.098381,0.196762,0.944738,-0.704857,0.696357
0.430000,0.098353,0.196706,0.944647,-0.704941,0.696294
0.432000,0.098324,0.196649,0.944554,-0.705027,0.696230
0.434000,0.098296,0.196591,0.944461,-0.705113,0.696165
0.436000,0.098266,0.196533,0.944366,-0.705201,0.696099
0.438000,0.098237,0.196474,0.944270,-0.705289,0.696033
0.440000,0.098207,0.196414,0.944172,-0.705379,0.695966
0.442000,0.098177,0.196353,0.944074,-0.705470,0.695897
0.444000,0.098146,0.196292,0.943974,-0.705562,0.695828
0.446000,0.098115,0.196230,0.943873,-0.705656,0.695758
0.448000,0.098083,0.196167,0.943771,-0.705750,0.695687
0.450000,0.098051,0.196103,0.943667,-0.705846,0.695616
0.452000,0.098019,0.196038,0.943562,-0.705942,0.695543
0.454000,0.097987,0.195973,0.943456,-0.706040,0.695470
0.456000,0.097953,0.195907,0.943349,-0.706140,0.695395
0.458000,0.097920,0.195840,0.943240,-0.706240,0.695320
0.460000,0.097886,0.195772,0.943130,-0.706341,0.695244
0.462000,0.097852,0.195704,0.943019,-0.706444,0.695167
0.464000,0.097817,0.195634,0.942906,-0.706548,0.695089
0.466000,0.097782,0.195564,0.942792,-0.706654,0.695010
0.468000,0.097747,0.195493,0.942677,-0.706760,0.694930
0.470000,0.097711,0.195421,0.942560,-0.706868,0.694849
0.472000,0.097674,0.195349,0.942442,-0.706977,0.694767
0.474000,0.097638,0.195275,0.942322,-0.707087,0.694685
0.476000,0.097600,0.195201,0.942201,-0.707199,0.694601
0.478000,0.097563,0.195125,0.942079,-0.707312,0.694516
0.480000,0.097525,0.195049,0.941955,-0.707426,0.694430
0.482000,0.097486,0.194972,0.941830,-0.707542,0.694344
0.484000,0.097447,0.194894,0.941703,-0.707659,0.694256
0.486000,0.097408,0.194815,0.941575,-0.707777,0.694167
0.488000,0.097368,0.194736,0.941445,-0.707897,0.694078
0.490000,0.097327,0.194655,0.941314,-0.708018,0.693987
0.492000,0.097287,0.194573,0.941182,-0.708140,0.693895
0.494000,0.097245,0.194491,0.941048,-0.708264,0.693802
0.496000,0.097204,0.194408,0.940912,-0.708389,0.693708
0.498000,0.097162,0.194323,0.940775,-0.708515,0.693614
0.500000,0.097119,0.194238,0.940637,-0.708643,0.693518
0.502000,0.097076,0.194152,0.940496,-0.708772,0.693421
0.504000,0.097032,0.194064,0.940355,-0.708903,0.693323
0.506000,0.096988,0.193976,0.940212,-0.709035,0.693223
0.508000,0.096944,0.193887,0.940067,-0.709169,0.693123
0.510000,0.096899,0.193797,0.939920,-0.709304,0.693022
0.512000,0.096853,0.193706,0.939772,-0.709441,0.692919
0.514000,0.096807,0.193614,0.939623,-0.709579,0.692816
0.516000,0.096760,0.193521,0.939472,-0.709719,0.692711
0.518000,0.096713,0.193427,0.939319,-0.709860,0.692605
0.520000,0.096666,0.193332,0.939164,-0.710002,0.692498
0.522000,0.096618,0.193236,0.939008,-0.710146,0.692390
0.524000,0.096569,0.193139,0.938850,-0.710292,0.692281
0.526000,0.096520,0.193040,0.938691,-0.710439,0.692171
0.528000,0.096471,0.192941,0.938530,-0.710588,0.692059
0.530000,0.096421,0.192841,0.938367,-0.710738,0.691946
0.532000,0.096370,0.192740,0.938202,-0.710890,0.691832
0.534000,0.096319,0.192637,0.938036,-0.711044,0.691717
0.536000,0.096267,0.192534,0.937868,-0.711199,0.691601
0.538000,0.096215,0.192430,0.937698,-0.711356,0.691483
0.540000,0.096162,0.192324,0.937527,-0.711514,0.691365
0.542000,0.096109,0.192217,0.937353,-0.711674,0.691245
0.544000,0.096055,0.192110,0.937178,-0.711835,0.691123
0.546000,0.096000,0.192001,0.937001,-0.711999,0.691001
0.548000,0.095945,0.191891,0.936823,-0.712164,0.690877
0.550000,0.095890,0.191780,0.936642,-0.712330,0.690752
0.552000,0.095834,0.191668,0.936460,-0.712498,0.690626
0.554000,0.095777,0.191554,0.936276,-0.712668,0.690499
0.556000,0.095720,0.191440,0.936090,-0.712840,0.690370
0.558000,0.095662,0.191324,0.935902,-0.713013,0.690240
0.560000,0.095604,0.191208,0.935712,-0.713188,0.690109
0.562000,0.095545,0.191090,0.935521,-0.713365,0.689976
0.564000,0.095485,0.190971,0.935327,-0.713544,0.689842
0.566000,0.095425,0.190851,0.935132,-0.713724,0.689707
0.568000,0.095365,0.190729,0.934935,-0.713906,0.689570
0.570000,0.095303,0.190607,0.934736,-0.714090,0.689432
0.572000,0.095241,0.190483,0.934534,-0.714276,0.689293
0.574000,0.095179,0.190358,0.934331,-0.714463,0.689152
0.576000,0.095116,0.190232,0.934126,-0.714653,0.689011
0.578000,0.095052,0.190104,0.933919,-0.714844,0.688867
0.580000,0.094988,0.189976,0.933710,-0.715037,0.688722
0.582000,0.094923,0.189846,0.933499,-0.715231,0.688576
0.584000,0.094857,0.189715,0.933286,-0.715428,0.688429
0.586000,0.094791,0.189582,0.933071,-0.715627,0.688280
0.588000,0.094724,0.189449,0.932854,-0.715827,0.688130
0.590000,0.094657,0.189314,0.932635,-0.716029,0.687978
0.592000,0.094589,0.189178,0.932414,-0.716234,0.687825
0.594000,0.094520,0.189040,0.932190,-0.716440,0.687670
0.596000,0.094451,0.188902,0.931965,-0.716648,0.687514
0.598000,0.094381,0.188762,0.931738,-0.716858,0.687357
0.600000,0.094310,0.188620,0.931508,-0.717069,0.687198
0.602000,0.094239,0.188478,0.931276,-0.717283,0.687038
0.604000,0.094167,0.188334,0.931043,-0.717499,0.686876
0.606000,0.094094,0.188189,0.930807,-0.717717,0.686712
0.608000,0.094021,0.188042,0.930569,-0.717937,0.686547
0.610000,0.093947,0.187894,0.930328,-0.718159,0.686381
0.612000,0.093873,0.187745,0.930086,-0.718382,0.686213
0.614000,0.093797,0.187595,0.929841,-0.718608,0.686044
0.616000,0.093721,0.187443,0.929594,-0.718836,0.685873
0.618000,0.093645,0.187289,0.929345,-0.719066,0.685701
0.620000,0.093567,0.187135,0.929094,-0.719298,0.685527
0.622000,0.093489,0.186979,0.928840,-0.719532,0.685351
0.624000,0.093411,0.186821,0.928585,-0.719768,0.685174
0.626000,0.093331,0.186663,0.928327,-0.720006,0.684995
0.628000,0.093251,0.186502,0.928066,-0.720247,0.684815
0.630000,0.093170,0.186341,0.927804,-0.720489,0.684633
0.632000,0.093089,0.186178,0.927539,-0.720734,0.684450
0.634000,0.093007,0.186013,0.927271,-0.720980,0.684265
0.636000,0.092924,0.185847,0.927002,-0.721229,0.684078
0.638000,0.092840,0.185680,0.926730,-0.721480,0.683890
0.640000,0.092756,0.185511,0.926456,-0.721733,0.683700
0.642000,0.092670,0.185341,0.926179,-0.721989,0.683509
0.644000,0.092585,0.185169,0.925900,-0.722246,0.683315
0.646000,0.092498,0.184996,0.925619,-0.722506,0.683121
0.648000,0.092411,0.184822,0.925335,-0.722768,0.682924
0.650000,0.092323,0.184645,0.925049,-0.723032,0.682726
0.652000,0.092234,0.184468,0.924760,-0.723298,0.682526
0.654000,0.092144,0.184289,0.924469,-0.723567,0.682325
0.656000,0.092054,0.184108,0.924176,-0.723838,0.682122
0.658000,0.091963,0.183926,0.923880,-0.724111,0.681917
0.660000,0.091871,0.183742,0.923581,-0.724387,0.681710
0.662000,0.091779,0.183557,0.923280,-0.724664,0.681502
0.664000,0.091685,0.183370,0.922977,-0.724945,0.681292
0.666000,0.091591,0.183182,0.922671,-0.725227,0.681080
0.668000,0.091496,0.182992,0.922362,-0.725512,0.680866
0.670000,0.091400,0.182801,0.922051,-0.725799,0.680651
0.672000,0.091304,0.182608,0.921738,-0.726088,0.680434
0.674000,0.091207,0.182413,0.921422,-0.726380,0.680215
0.676000,0.091109,0.182217,0.921103,-0.726674,0.679994
0.678000,0.091010,0.182020,0.920782,-0.726971,0.679772
0.680000,0.090910,0.181820,0.920458,-0.727270,0.679548
0.682000,0.090810,0.181619,0.920131,-0.727571,0.679322
0.684000,0.090708,0.181417,0.919802,-0.727875,0.679094
0.686000,0.090606,0.181213,0.919471,-0.728181,0.678864
0.688000,0.090503,0.181007,0.919136,-0.728490,0.678633
0.690000,0.090400,0.180799,0.918799,-0.728801,0.678399
0.692000,0.090295,0.180590,0.918459,-0.729114,0.678164
0.694000,0.090190,0.180380,0.918117,-0.729431,0.677927
0.696000,0.090084,0.180167,0.917772,-0.729749,0.677688
0.698000,0.089977,0.179953,0.917424,-0.730070,0.677447
0.700000,0.089869,0.179738,0.917073,-0.730394,0.677205
0.702000,0.089760,0.179520,0.916720,-0.730720,0.676960
0.704000,0.089651,0.179301,0.916364,-0.731048,0.676714
0.706000,0.089540,0.179080,0.916005,-0.731380,0.676465
0.708000,0.089429,0.178858,0.915644,-0.731713,0.676215
0.710000,0.089317,0.178634,0.915280,-0.732050,0.675963
0.712000,0.089204,0.178408,0.914912,-0.732389,0.675709
0.714000,0.089090,0.178180,0.914542,-0.732730,0.675452
0.716000,0.088975,0.177951,0.914170,-0.733074,0.675194
0.718000,0.088860,0.177719,0.913794,-0.733421,0.674934
0.720000,0.088743,0.177487,0.913416,-0.733770,0.674672
0.722000,0.088626,0.177252,0.913034,-0.734122,0.674408
0.724000,0.088508,0.177016,0.912650,-0.734477,0.674142
0.726000,0.088389,0.176777,0.912263,-0.734834,0.673875
0.728000,0.088269,0.176537,0.911873,-0.735194,0.673605
0.730000,0.088148,0.176296,0.911480,-0.735557,0.673333
0.732000,0.088026,0.176052,0.911085,-0.735922,0.673059
0.734000,0.087903,0.175807,0.910686,-0.736290,0.672783
0.736000,0.087780,0.175560,0.910284,-0.736661,0.672505
0.738000,0.087655,0.175311,0.909880,-0.737034,0.672224
0.740000,0.087530,0.175060,0.909472,-0.737410,0.671942
0.742000,0.087404,0.174807,0.909062,-0.737789,0.671658
0.744000,0.087276,0.174553,0.908648,-0.738171,0.671372
0.746000,0.087148,0.174296,0.908232,-0.738555,0.671083
0.748000,0.087019,0.174038,0.907812,-0.738943,0.670793
0.750000,0.086889,0.173778,0.907389,-0.739333,0.670500
0.752000,0.086758,0.173516,0.906964,-0.739726,0.670206
0.754000,0.086626,0.173252,0.906535,-0.740121,0.669909
0.756000,0.086493,0.172987,0.906103,-0.740520,0.669610
0.758000,0.086360,0.172719,0.905669,-0.740921,0.669309
0.760000,0.086225,0.172450,0.905231,-0.741325,0.669006
0.762000,0.086089,0.172178,0.904790,-0.741733,0.668701
0.764000,0.085953,0.171905,0.904346,-0.742142,0.668393
0.766000,0.085815,0.171630,0.903898,-0.742555,0.668084
0.768000,0.085676,0.171353,0.903448,-0.742971,0.667772
0.770000,0.085537,0.171074,0.902995,-0.743390,0.667458
0.772000,0.085396,0.170793,0.902538,-0.743811,0.667142
0.774000,0.085255,0.170510,0.902078,-0.744236,0.666823
0.776000,0.085112,0.170225,0.901615,-0.744663,0.666503
0.778000,0.084969,0.169938,0.901149,-0.745093,0.666180
0.780000,0.084824,0.169649,0.900679,-0.745527,0.665855
0.782000,0.084679,0.169358,0.900207,-0.745963,0.665528
0.784000,0.084533,0.169065,0.899731,-0.746402,0.665198
0.786000,0.084385,0.168770,0.899252,-0.746844,0.664867
0.788000,0.084237,0.168474,0.898769,-0.747290,0.664533
0.790000,0.084087,0.168175,0.898284,-0.747738,0.664197
0.792000,0.083937,0.167874,0.897795,-0.748189,0.663858
0.794000,0.083785,0.167571,0.897303,-0.748644,0.663517
0.796000,0.083633,0.167266,0.896807,-0.749101,0.663174
0.798000,0.083480,0.166959,0.896309,-0.749561,0.662829
0.800000,0.083325,0.166650,0.895806,-0.750025,0.662481
0.802000,0.083170,0.166339,0.895301,-0.750491,0.662131
0.804000,0.083013,0.166026,0.894792,-0.750961,0.661779
0.806000,0.082855,0.165711,0.894280,-0.751434,0.661425
0.808000,0.082697,0.165394,0.893765,-0.751910,0.661068
0.810000,0.082537,0.165074,0.893246,-0.752389,0.660709
0.812000,0.082376,0.164753,0.892723,-0.752871,0.660347
0.814000,0.082215,0.164429,0.892198,-0.753356,0.659983
0.816000,0.082052,0.164104,0.891669,-0.753844,0.659617
0.818000,0.081888,0.163776,0.891136,-0.754336,0.659248
0.820000,0.081723,0.163446,0.890600,-0.754830,0.658877
0.822000,0.081557,0.163114,0.890061,-0.755328,0.658504
0.824000,0.081390,0.162780,0.889518,-0.755829,0.658128
0.826000,0.081222,0.162444,0.888972,-0.756334,0.657750
0.828000,0.081053,0.162106,0.888422,-0.756841,0.657369
0.830000,0.080883,0.161765,0.887869,-0.757352,0.656986
0.832000,0.080711,0.161423,0.887312,-0.757866,0.656601
0.834000,0.080539,0.161078,0.886752,-0.758383,0.656213
0.836000,0.080366,0.160731,0.886188,-0.758903,0.655823
0.838000,0.080191,0.160382,0.885621,-0.759427,0.655430
0.840000,0.080015,0.160031,0.885050,-0.759954,0.655035
0.842000,0.079839,0.159677,0.884476,-0.760484,0.654637
0.844000,0.079661,0.159322,0.883898,-0.761017,0.654237
0.846000,0.079482,0.158964,0.883316,-0.761554,0.653834
0.848000,0.079302,0.158604,0.882731,-0.762094,0.653429
0.850000,0.079121,0.158242,0.882143,-0.762638,0.653022
0.852000,0.078939,0.157877,0.881550,-0.763184,0.652612
0.854000,0.078755,0.157510,0.880954,-0.763734,0.652199
0.856000,0.078571,0.157141,0.880355,-0.764288,0.651784
0.858000,0.078385,0.156770,0.879752,-0.764845,0.651367
0.860000,0.078198,0.156397,0.879145,-0.765405,0.650947
0.862000,0.078011,0.156021,0.878535,-0.765968,0.650524
0.864000,0.077822,0.155643,0.877920,-0.766535,0.650099
0.866000,0.077632,0.155263,0.877303,-0.767105,0.649671
0.868000,0.077440,0.154881,0.876681,-0.767679,0.649241
0.870000,0.077248,0.154496,0.876056,-0.768256,0.648808
0.872000,0.077055,0.154109,0.875427,-0.768836,0.648373
0.874000,0.076860,0.153720,0.874795,-0.769420,0.647935
0.876000,0.076664,0.153328,0.874159,-0.770007,0.647494
0.878000,0.076467,0.152935,0.873519,-0.770598,0.647051
0.880000,0.076269,0.152538,0.872875,-0.771192,0.646606
0.882000,0.076070,0.152140,0.872227,-0.771790,0.646157
0.884000,0.075870,0.151739,0.871576,-0.772391,0.645707
0.886000,0.075668,0.151336,0.870921,-0.772996,0.645253
0.888000,0.075465,0.150931,0.870263,-0.773604,0.644797
0.890000,0.075262,0.150523,0.869600,-0.774215,0.644338
0.892000,0.075057,0.150113,0.868934,-0.774830,0.643877
0.894000,0.074850,0.149701,0.868264,-0.775449,0.643413
0.896000,0.074643,0.149286,0.867590,-0.776071,0.642947
0.898000,0.074434,0.148869,0.866912,-0.776697,0.642477
0.900000,0.074225,0.148449,0.866230,-0.777326,0.642006
0.902000,0.074014,0.148028,0.865545,-0.777958,0.641531
0.904000,0.073802,0.147604,0.864856,-0.778595,0.641054
0.906000,0.073589,0.147177,0.864163,-0.779234,0.640574
0.908000,0.073374,0.146748,0.863466,-0.779878,0.640092
0.910000,0.073158,0.146317,0.862765,-0.780525,0.639606
0.912000,0.072942,0.145883,0.862060,-0.781175,0.639119
0.914000,0.072724,0.145447,0.861352,-0.781829,0.638628
0.916000,0.072504,0.145009,0.860639,-0.782487,0.638135
0.918000,0.072284,0.144568,0.859923,-0.783148,0.637639
0.920000,0.072062,0.144125,0.859203,-0.783813,0.637140
0.922000,0.071839,0.143679,0.858478,-0.784482,0.636639
0.924000,0.071615,0.143231,0.857750,-0.785154,0.636135
0.926000,0.071390,0.142780,0.857018,-0.785829,0.635628
0.928000,0.071164,0.142328,0.856282,-0.786509,0.635118
0.930000,0.070936,0.141872,0.855542,-0.787192,0.634606
0.932000,0.070707,0.141414,0.854798,-0.787878,0.634091
0.934000,0.070477,0.140954,0.854051,-0.788569,0.633573
0.936000,0.070246,0.140492,0.853299,-0.789263,0.633053
0.938000,0.070013,0.140026,0.852543,-0.789960,0.632530
0.940000,0.069779,0.139559,0.851783,-0.790662,0.632004
0.942000,0.069544,0.139089,0.851020,-0.791367,0.631475
0.944000,0.069308,0.138617,0.850252,-0.792075,0.630944
0.946000,0.069071,0.138142,0.849480,-0.792788,0.630409
0.948000,0.068832,0.137664,0.848704,-0.793504,0.629872
0.950000,0.068592,0.137184,0.847925,-0.794223,0.629332
0.952000,0.068351,0.136702,0.847141,-0.794947,0.628790
0.954000,0.068109,0.136217,0.846353,-0.795674,0.628244
0.956000,0.067865,0.135730,0.845561,-0.796405,0.627696
0.958000,0.067620,0.135240,0.844765,-0.797140,0.627145
0.960000,0.067374,0.134748,0.843965,-0.797878,0.626591
0.962000,0.067127,0.134253,0.843162,-0.798620,0.626035
0.964000,0.066878,0.133756,0.842354,-0.799366,0.625476
0.966000,0.066628,0.133256,0.841541,-0.800116,0.624913
0.968000,0.066377,0.132754,0.840725,-0.800869,0.624348
0.970000,0.066125,0.132249,0.839905,-0.801626,0.623780
0.972000,0.065871,0.131742,0.839081,-0.802387,0.623210
0.974000,0.065616,0.131232,0.838252,-0.803152,0.622636
0.976000,0.065360,0.130720,0.837420,-0.803920,0.622060
0.978000,0.065103,0.130205,0.836583,-0.804692,0.621481
0.980000,0.064844,0.129688,0.835743,-0.805468,0.620899
0.982000,0.064584,0.129168,0.834898,-0.806248,0.620314
0.984000,0.064323,0.128646,0.834049,-0.807031,0.619726
0.986000,0.064060,0.128121,0.833196,-0.807819,0.619136
0.988000,0.063797,0.127593,0.832339,-0.808610,0.618543
0.990000,0.063532,0.127063,0.831478,-0.809405,0.617946
0.992000,0.063265,0.126531,0.830613,-0.810204,0.617347
0.994000,0.062998,0.125996,0.829743,-0.811006,0.616745
0.996000,0.062729,0.125458,0.828870,-0.811813,0.616141
0.998000,0.062459,0.124918,0.827992,-0.812623,0.615533
1.000000,0.062188,0.124375,0.827110,-0.813437,0.614922
1.002000,0.061915,0.123830,0.826224,-0.814255,0.614309
1.004000,0.061641,0.123283,0.825334,-0.815076,0.613693
1.006000,0.061366,0.122732,0.824440,-0.815902,0.613074
1.008000,0.061090,0.122179,0.823541,-0.816731,0.612452
1.010000,0.060812,0.121624,0.822639,-0.817564,0.611827
1.012000,0.060533,0.121066,0.821732,-0.818401,0.611199
1.014000,0.060253,0.120505,0.820821,-0.819242,0.610568
1.016000,0.059971,0.119942,0.819906,-0.820087,0.609935
1.018000,0.059688,0.119377,0.818987,-0.820935,0.609299
1.020000,0.059404,0.118808,0.818063,-0.821788,0.608659
1.022000,0.059119,0.118237,0.817136,-0.822644,0.608017
1.024000,0.058832,0.117664,0.816204,-0.823504,0.607372
1.026000,0.058544,0.117088,0.815268,-0.824368,0.606724
1.028000,0.058255,0.116510,0.814328,-0.825236,0.606073
1.030000,0.057964,0.115929,0.813384,-0.826107,0.605420
1.032000,0.057672,0.115345,0.812435,-0.826983,0.604763
1.034000,0.057379,0.114759,0.811483,-0.827862,0.604104
1.036000,0.057085,0.114170,0.810526,-0.828745,0.603441
1.038000,0.056789,0.113579,0.809565,-0.829632,0.602776
1.040000,0.056492,0.112985,0.808600,-0.830523,0.602108
1.042000,0.056194,0.112388,0.807631,-0.831418,0.601437
1.044000,0.055894,0.111789,0.806657,-0.832317,0.600763
1.046000,0.055594,0.111187,0.805679,-0.833219,0.600086
1.048000,0.055292,0.110583,0.804697,-0.834125,0.599406
1.050000,0.054988,0.109976,0.803711,-0.835036,0.598723
1.052000,0.054683,0.109367,0.802721,-0.835950,0.598038
1.054000,0.054377,0.108755,0.801727,-0.836868,0.597349
1.056000,0.054070,0.108140,0.800728,-0.837790,0.596658
1.058000,0.053762,0.107523,0.799725,-0.838715,0.595964
1.060000,0.053452,0.106903,0.798718,-0.839645,0.595266
1.062000,0.053141,0.106281,0.797707,-0.840578,0.594566
1.064000,0.052828,0.105656,0.796692,-0.841516,0.593863
1.066000,0.052514,0.105029,0.795672,-0.842457,0.593158
1.068000,0.052199,0.104399,0.794648,-0.843402,0.592449
1.070000,0.051883,0.103766,0.793620,-0.844350,0.591737
1.072000,0.051566,0.103131,0.792588,-0.845303,0.591023
1.074000,0.051247,0.102494,0.791552,-0.846260,0.590305
1.076000,0.050927,0.101853,0.790511,-0.847220,0.589585
1.078000,0.050605,0.101210,0.789467,-0.848184,0.588862
1.080000,0.050282,0.100565,0.788418,-0.849153,0.588136
1.082000,0.049959,0.099917,0.787365,-0.850124,0.587407
1.084000,0.049633,0.099266,0.786308,-0.851100,0.586675
1.086000,0.049307,0.098613,0.785247,-0.852080,0.585940
1.088000,0.048979,0.097958,0.784181,-0.853063,0.585202
1.090000,0.048650,0.097299,0.783112,-0.854051,0.584462
1.092000,0.048319,0.096639,0.782038,-0.855042,0.583719
1.094000,0.047988,0.095975,0.780960,-0.856037,0.582972
1.096000,0.047655,0.095310,0.779878,-0.857036,0.582223
1.098000,0.047321,0.094641,0.778792,-0.858038,0.581471
1.100000,0.046985,0.093970,0.777701,-0.859045,0.580716
1.102000,0.046648,0.093297,0.776607,-0.860055,0.579959
1.104000,0.046310,0.092621,0.775508,-0.861069,0.579198
1.106000,0.045971,0.091942,0.774406,-0.862087,0.578435
1.108000,0.045630,0.091261,0.773299,-0.863109,0.577668
1.110000,0.045289,0.090577,0.772188,-0.864134,0.576899
1.112000,0.044945,0.089891,0.771073,-0.865164,0.576127
1.114000,0.044601,0.089202,0.769954,-0.866197,0.575353
1.116000,0.044255,0.088511,0.768830,-0.867234,0.574575
1.118000,0.043909,0.087817,0.767703,-0.868274,0.573794
1.120000,0.043560,0.087121,0.766572,-0.869319,0.573011
1.122000,0.043211,0.086422,0.765436,-0.870367,0.572225
1.124000,0.042860,0.085721,0.764296,-0.871419,0.571436
1.126000,0.042509,0.085017,0.763153,-0.872474,0.570644
1.128000,0.042155,0.084311,0.762005,-0.873534,0.569850
1.130000,0.041801,0.083602,0.760853,-0.874597,0.569052
1.132000,0.041445,0.082891,0.759697,-0.875664,0.568252
1.134000,0.041088,0.082177,0.758537,-0.876735,0.567449
1.136000,0.040730,0.081461,0.757373,-0.877809,0.566643
1.138000,0.040371,0.080742,0.756205,-0.878887,0.565834
1.140000,0.040010,0.080021,0.755033,-0.879969,0.565023
1.142000,0.039648,0.079297,0.753857,-0.881055,0.564209
1.144000,0.039285,0.078571,0.752677,-0.882144,0.563392
1.146000,0.038921,0.077842,0.751493,-0.883237,0.562572
1.148000,0.038555,0.077111,0.750305,-0.884334,0.561750
1.150000,0.038189,0.076377,0.749113,-0.885434,0.560925
1.152000,0.037821,0.075641,0.747917,-0.886538,0.560097
1.154000,0.037452,0.074903,0.746717,-0.887645,0.559266
1.156000,0.037081,0.074162,0.745514,-0.888757,0.558432
1.158000,0.036709,0.073419,0.744306,-0.889872,0.557596
1.160000,0.036337,0.072673,0.743094,-0.890990,0.556757
1.162000,0.035963,0.071925,0.741878,-0.892112,0.555916
1.164000,0.035587,0.071175,0.740659,-0.893238,0.555071
1.166000,0.035211,0.070422,0.739435,-0.894368,0.554224
1.168000,0.034833,0.069666,0.738208,-0.895501,0.553375
1.170000,0.034454,0.068909,0.736976,-0.896637,0.552522
1.172000,0.034074,0.068149,0.735741,-0.897777,0.551667
1.174000,0.033693,0.067386,0.734502,-0.898921,0.550809
1.176000,0.033311,0.066621,0.733259,-0.900068,0.549949
1.178000,0.032927,0.065854,0.732013,-0.901219,0.549086
1.180000,0.032542,0.065084,0.730762,-0.902373,0.548220
1.182000,0.032156,0.064313,0.729508,-0.903531,0.547352
1.184000,0.031769,0.063538,0.728250,-0.904693,0.546481
1.186000,0.031381,0.062762,0.726988,-0.905857,0.545607
1.188000,0.030991,0.061983,0.725722,-0.907026,0.544731
1.190000,0.030601,0.061202,0.724453,-0.908198,0.543852
1.192000,0.030209,0.060418,0.723179,-0.909373,0.542970
1.194000,0.029816,0.059632,0.721902,-0.910552,0.542086
1.196000,0.029422,0.058844,0.720622,-0.911734,0.541200
1.198000,0.029027,0.058054,0.719337,-0.912919,0.540311
1.200000,0.028631,0.057261,0.718049,-0.914108,0.539419
1.202000,0.028233,0.056466,0.716758,-0.915301,0.538524
1.204000,0.027834,0.055669,0.715462,-0.916497,0.537628
1.206000,0.027435,0.054870,0.714163,-0.917696,0.536728
1.208000,0.027034,0.054068,0.712860,-0.918898,0.535826
1.210000,0.026632,0.053264,0.711554,-0.920104,0.534922
1.212000,0.026229,0.052458,0.710244,-0.921313,0.534015
1.214000,0.025825,0.051650,0.708930,-0.922526,0.533106
1.216000,0.025419,0.050839,0.707613,-0.923742,0.532194
1.218000,0.025013,0.050026,0.706293,-0.924961,0.531280
1.220000,0.024606,0.049211,0.704968,-0.926183,0.530363
1.222000,0.024197,0.048394,0.703641,-0.927409,0.529444
1.224000,0.023788,0.047575,0.702309,-0.928637,0.528522
1.226000,0.023377,0.046754,0.700975,-0.929869,0.527598
1.228000,0.022965,0.045930,0.699637,-0.931105,0.526671
1.230000,0.022552,0.045105,0.698295,-0.932343,0.525743
1.232000,0.022138,0.044277,0.696950,-0.933585,0.524811
1.234000,0.021723,0.043447,0.695601,-0.934830,0.523878
1.236000,0.021307,0.042615,0.694249,-0.936078,0.522942
1.238000,0.020890,0.041781,0.692894,-0.937329,0.522003
1.240000,0.020472,0.040945,0.691535,-0.938583,0.521063
1.242000,0.020053,0.040107,0.690173,-0.939840,0.520120
1.244000,0.019633,0.039266,0.688808,-0.941100,0.519175
1.246000,0.019212,0.038424,0.687439,-0.942364,0.518227
1.248000,0.018790,0.037580,0.686067,-0.943630,0.517277
1.250000,0.018367,0.036734,0.684692,-0.944900,0.516325
1.252000,0.017943,0.035885,0.683314,-0.946172,0.515371
1.254000,0.017517,0.035035,0.681932,-0.947448,0.514414
1.256000,0.017091,0.034183,0.680547,-0.948726,0.513456
1.258000,0.016664,0.033328,0.679159,-0.950007,0.512495
1.260000,0.016236,0.032472,0.677768,-0.951291,0.511531
1.262000,0.015807,0.031614,0.676373,-0.952579,0.510566
1.264000,0.015377,0.030754,0.674976,-0.953869,0.509599
1.266000,0.014946,0.029892,0.673575,-0.955162,0.508629
1.268000,0.014514,0.029029,0.672171,-0.956457,0.507657
1.270000,0.014081,0.028163,0.670765,-0.957756,0.506683
1.272000,0.013648,0.027295,0.669355,-0.959057,0.505707
1.274000,0.013213,0.026426,0.667942,-0.960361,0.504729
1.276000,0.012777,0.025555,0.666526,-0.961668,0.503749
1.278000,0.012341,0.024682,0.665108,-0.962978,0.502767
1.280000,0.011903,0.023807,0.663686,-0.964290,0.501783
1.282000,0.011465,0.022930,0.662261,-0.965605,0.500796
1.284000,0.011026,0.022052,0.660834,-0.966923,0.499808
1.286000,0.010586,0.021171,0.659403,-0.968243,0.498818
1.288000,0.010145,0.020289,0.657970,-0.969566,0.497826
1.290000,0.009703,0.019406,0.656534,-0.970891,0.496831
1.292000,0.009260,0.018520,0.655096,-0.972219,0.495835
1.294000,0.008817,0.017633,0.653654,-0.973550,0.494837
1.296000,0.008372,0.016744,0.652210,-0.974883,0.493838
1.298000,0.007927,0.015854,0.650763,-0.976219,0.492836
1.300000,0.007481,0.014962,0.649313,-0.977557,0.491832
1.302000,0.007034,0.014068,0.647861,-0.978898,0.490827
1.304000,0.006586,0.013173,0.646406,-0.980241,0.489819
1.306000,0.006138,0.012276,0.644948,-0.981586,0.488810
1.308000,0.005689,0.011377,0.643488,-0.982934,0.487800
1.310000,0.005239,0.010477,0.642026,-0.984284,0.486787
1.312000,0.004788,0.009576,0.640560,-0.985637,0.485773
1.314000,0.004336,0.008672,0.639093,-0.986991,0.484756
1.316000,0.003884,0.007768,0.637622,-0.988348,0.483739
1.318000,0.003431,0.006861,0.636150,-0.989708,0.482719
1.320000,0.002977,0.005954,0.634675,-0.991069,0.481698
1.322000,0.002522,0.005045,0.633198,-0.992433,0.480675
1.324000,0.002067,0.004134,0.631718,-0.993799,0.479651
1.326000,0.001611,0.003222,0.630236,-0.995167,0.478625
1.328000,0.001154,0.002309,0.628752,-0.996537,0.477597
1.330000,0.000697,0.001394,0.627265,-0.997909,0.476568
1.332000,0.000239,0.000478,0.625776,-0.999284,0.475537
1.334000,-0.000220,-0.000440,0.624285,-1.000660,0.474505
1.336000,-0.000679,-0.001359,0.622792,-1.002038,0.473471
1.338000,-0.001139,-0.002279,0.621297,-1.003418,0.472436
1.340000,-0.001600,-0.003200,0.619799,-1.004800,0.471400
1.342000,-0.002062,-0.004123,0.618300,-1.006185,0.470362
1.344000,-0.002524,-0.005047,0.616799,-1.007571,0.469322
1.346000,-0.002986,-0.005972,0.615295,-1.008958,0.468281
1.348000,-0.003449,-0.006899,0.613790,-1.010348,0.467239
1.350000,-0.003913,-0.007826,0.612282,-1.011739,0.466195
1.352000,-0.004378,-0.008755,0.610773,-1.013133,0.465151
1.354000,-0.004842,-0.009685,0.609262,-1.014527,0.464104
1.356000,-0.005308,-0.010616,0.607749,-1.015924,0.463057
1.358000,-0.005774,-0.011548,0.606234,-1.017322,0.462008
1.360000,-0.006241,-0.012481,0.604718,-1.018722,0.460958
1.362000,-0.006708,-0.013416,0.603200,-1.020124,0.459907
1.364000,-0.007176,-0.014351,0.601680,-1.021527,0.458855
1.366000,-0.007644,-0.015287,0.600158,-1.022931,0.457802
1.368000,-0.008112,-0.016225,0.598635,-1.024337,0.456747
1.370000,-0.008582,-0.017163,0.597110,-1.025745,0.455692
1.372000,-0.009051,-0.018102,0.595584,-1.027154,0.454635
1.374000,-0.009521,-0.019043,0.594056,-1.028564,0.453577
1.376000,-0.009992,-0.019984,0.592526,-1.029976,0.452518
1.378000,-0.010463,-0.020926,0.590996,-1.031389,0.451459
1.380000,-0.010934,-0.021869,0.589464,-1.032803,0.450398
1.382000,-0.011406,-0.022812,0.587930,-1.034218,0.449336
1.384000,-0.011878,-0.023757,0.586395,-1.035635,0.448274
1.386000,-0.012351,-0.024702,0.584859,-1.037053,0.447210
1.388000,-0.012824,-0.025648,0.583322,-1.038472,0.446146
1.390000,-0.013298,-0.026595,0.581783,-1.039893,0.445081
1.392000,-0.013771,-0.027543,0.580243,-1.041314,0.444015
1.394000,-0.014245,-0.028491,0.578702,-1.042736,0.442948
1.396000,-0.014720,-0.029440,0.577160,-1.044160,0.441880
1.398000,-0.015195,-0.030389,0.575617,-1.045584,0.440812
1.400000,-0.015670,-0.031340,0.574073,-1.047009,0.439743
1.402000,-0.016145,-0.032290,0.572528,-1.048435,0.438673
1.404000,-0.016621,-0.033242,0.570982,-1.049862,0.437603
1.406000,-0.017097,-0.034194,0.569435,-1.051290,0.436532
1.408000,-0.017573,-0.035146,0.567888,-1.052719,0.435461
1.410000,-0.018049,-0.036099,0.566339,-1.054148,0.434389
1.412000,-0.018526,-0.037052,0.564790,-1.055578,0.433316
1.414000,-0.019003,-0.038006,0.563240,-1.057009,0.432243
1.416000,-0.019480,-0.038960,0.561689,-1.058441,0.431170
1.418000,-0.019957,-0.039915,0.560138,-1.059872,0.430096
1.420000,-0.020435,-0.040870,0.558586,-1.061305,0.429021
1.422000,-0.020913,-0.041825,0.557034,-1.062738,0.427947
1.424000,-0.021390,-0.042781,0.555481,-1.064171,0.426871
1.426000,-0.021868,-0.043737,0.553928,-1.065605,0.425796
1.428000,-0.022347,-0.044693,0.552374,-1.067040,0.424720
1.430000,-0.022825,-0.045650,0.550820,-1.068474,0.423644
1.432000,-0.023303,-0.046606,0.549265,-1.069909,0.422568
1.434000,-0.023781,-0.047563,0.547710,-1.071344,0.421492
1.436000,-0.024260,-0.048520,0.546155,-1.072780,0.420415
1.438000,-0.024738,-0.049477,0.544600,-1.074215,0.419338
1.440000,-0.025217,-0.050434,0.543045,-1.075651,0.418262
1.442000,-0.025696,-0.051391,0.541489,-1.077087,0.417185
1.444000,-0.026174,-0.052349,0.539934,-1.078523,0.416108
1.446000,-0.026653,-0.053306,0.538378,-1.079959,0.415031
1.448000,-0.027132,-0.054263,0.536823,-1.081395,0.413954
1.450000,-0.027610,-0.055220,0.535267,-1.082830,0.412877
1.452000,-0.028089,-0.056177,0.533712,-1.084266,0.411801
1.454000,-0.028567,-0.057134,0.532157,-1.085701,0.410724
1.456000,-0.029046,-0.058091,0.530602,-1.087137,0.409647
1.458000,-0.029524,-0.059048,0.529047,-1.088572,0.408571
1.460000,-0.030002,-0.060004,0.527493,-1.090006,0.407495
1.462000,-0.030480,-0.060960,0.525939,-1.091441,0.406419
1.464000,-0.030958,-0.061916,0.524386,-1.092875,0.405344
1.466000,-0.031436,-0.062872,0.522833,-1.094308,0.404269
1.468000,-0.031914,-0.063828,0.521280,-1.095741,0.403194
1.470000,-0.032391,-0.064783,0.519728,-1.097174,0.402120
1.472000,-0.032869,-0.065737,0.518177,-1.098606,0.401046
1.474000,-0.033346,-0.066691,0.516627,-1.100037,0.399972
1.476000,-0.033823,-0.067645,0.515077,-1.101468,0.398899
1.478000,-0.034299,-0.068598,0.513528,-1.102898,0.397827
1.480000,-0.034776,-0.069551,0.511979,-1.104327,0.396755
1.482000,-0.035252,-0.070503,0.510432,-1.105755,0.395684
1.484000,-0.035728,-0.071455,0.508885,-1.107183,0.394613
1.486000,-0.036203,-0.072406,0.507340,-1.108609,0.393543
1.488000,-0.036678,-0.073357,0.505795,-1.110035,0.392474
1.490000,-0.037153,-0.074306,0.504252,-1.111460,0.391405
1.492000,-0.037628,-0.075256,0.502710,-1.112883,0.390338
1.494000,-0.038102,-0.076204,0.501169,-1.114306,0.389271
1.496000,-0.038576,-0.077151,0.499629,-1.115727,0.388205
1.498000,-0.039049,-0.078098,0.498090,-1.117147,0.387140
1.500000,-0.039522,-0.079044,0.496553,-1.118566,0.386075
1.502000,-0.039995,-0.079989,0.495017,-1.119984,0.385012
1.504000,-0.040467,-0.080933,0.493483,-1.121400,0.383950
1.506000,-0.040938,-0.081877,0.491950,-1.122815,0.382889
1.508000,-0.041409,-0.082819,0.490419,-1.124228,0.381829
1.510000,-0.041880,-0.083760,0.488890,-1.125640,0.380770
1.512000,-0.042350,-0.084701,0.487362,-1.127051,0.379712
1.514000,-0.042820,-0.085640,0.485835,-1.128460,0.378655
1.516000,-0.043289,-0.086578,0.484311,-1.129867,0.377600
1.518000,-0.043757,-0.087515,0.482788,-1.131272,0.376546
1.520000,-0.044225,-0.088451,0.481268,-1.132676,0.375493
1.522000,-0.044693,-0.089385,0.479749,-1.134078,0.374442
1.524000,-0.045159,-0.090319,0.478232,-1.135478,0.373392
1.526000,-0.045625,-0.091251,0.476718,-1.136876,0.372343
1.528000,-0.046091,-0.092181,0.475205,-1.138272,0.371296
1.530000,-0.046555,-0.093111,0.473695,-1.139666,0.370250
1.532000,-0.047019,-0.094039,0.472187,-1.141058,0.369206
1.534000,-0.047483,-0.094965,0.470681,-1.142448,0.368164
1.536000,-0.047945,-0.095891,0.469178,-1.143836,0.367123
1.538000,-0.048407,-0.096814,0.467677,-1.145222,0.366084
1.540000,-0.048868,-0.097737,0.466178,-1.146605,0.365046
1.542000,-0.049329,-0.098657,0.464682,-1.147986,0.364011
1.544000,-0.049788,-0.099576,0.463189,-1.149364,0.362977
1.546000,-0.050247,-0.100494,0.461698,-1.150740,0.361945
1.548000,-0.050705,-0.101409,0.460210,-1.152114,0.360915
1.550000,-0.051162,-0.102323,0.458725,-1.153485,0.359886
1.552000,-0.051618,-0.103236,0.457242,-1.154853,0.358860
1.554000,-0.052073,-0.104146,0.455762,-1.156219,0.357836
1.556000,-0.052527,-0.105055,0.454286,-1.157582,0.356813
1.558000,-0.052981,-0.105962,0.452812,-1.158943,0.355793
1.560000,-0.053433,-0.106867,0.451342,-1.160300,0.354775
1.562000,-0.053885,-0.107770,0.449874,-1.161655,0.353759
1.564000,-0.054335,-0.108671,0.448410,-1.163006,0.352745
1.566000,-0.054785,-0.109570,0.446949,-1.164355,0.351734
1.568000,-0.055233,-0.110467,0.445491,-1.165700,0.350725
1.570000,-0.055681,-0.111362,0.444037,-1.167043,0.349718
1.572000,-0.056127,-0.112255,0.442586,-1.168382,0.348713
1.574000,-0.056573,-0.113145,0.441139,-1.169718,0.347711
1.576000,-0.057017,-0.114034,0.439695,-1.171051,0.346712
1.578000,-0.057460,-0.114920,0.438255,-1.172380,0.345715
1.580000,-0.057902,-0.115804,0.436818,-1.173706,0.344720
1.582000,-0.058343,-0.116686,0.435385,-1.175029,0.343728
1.584000,-0.058783,-0.117565,0.433956,-1.176348,0.342739
1.586000,-0.059221,-0.118442,0.432531,-1.177664,0.341752
1.588000,-0.059659,-0.119317,0.431110,-1.178976,0.340768
1.590000,-0.060095,-0.120189,0.429693,-1.180284,0.339787
1.592000,-0.060529,-0.121059,0.428280,-1.181588,0.338809
1.594000,-0.060963,-0.121926,0.426870,-1.182889,0.337833
1.596000,-0.061395,-0.122790,0.425466,-1.184186,0.336861
1.598000,-0.061826,-0.123652,0.424065,-1.185478,0.335891
1.600000,-0.062256,-0.124512,0.422669,-1.186767,0.334925
1.602000,-0.062684,-0.125368,0.421277,-1.188052,0.333961
1.604000,-0.063111,-0.126222,0.419889,-1.189333,0.333000
1.606000,-0.063536,-0.127073,0.418506,-1.190609,0.332043
1.608000,-0.063961,-0.127921,0.417128,-1.191882,0.331089
1.610000,-0.064383,-0.128767,0.415754,-1.193150,0.330138
1.612000,-0.064805,-0.129609,0.414385,-1.194414,0.329190
1.614000,-0.065224,-0.130449,0.413021,-1.195673,0.328245
1.616000,-0.065643,-0.131285,0.411661,-1.196928,0.327304
1.618000,-0.066059,-0.132119,0.410307,-1.198178,0.326366
1.620000,-0.066475,-0.132949,0.408957,-1.199424,0.325432
1.622000,-0.066888,-0.133777,0.407613,-1.200665,0.324501
1.624000,-0.067301,-0.134601,0.406273,-1.201902,0.323574
1.626000,-0.067711,-0.135422,0.404939,-1.203133,0.322650
1.628000,-0.068120,-0.136240,0.403610,-1.204360,0.321730
1.630000,-0.068527,-0.137055,0.402286,-1.205582,0.320813
1.632000,-0.068933,-0.137866,0.400967,-1.206799,0.319901
1.634000,-0.069337,-0.138674,0.399654,-1.208011,0.318992
1.636000,-0.069739,-0.139479,0.398347,-1.209218,0.318086
1.638000,-0.070140,-0.140280,0.397045,-1.210420,0.317185
1.640000,-0.070539,-0.141078,0.395748,-1.211617,0.316287
1.642000,-0.070936,-0.141872,0.394458,-1.212808,0.315394
1.644000,-0.071331,-0.142663,0.393173,-1.213994,0.314504
1.646000,-0.071725,-0.143450,0.391894,-1.215175,0.313619
1.648000,-0.072117,-0.144234,0.390620,-1.216350,0.312737
1.650000,-0.072507,-0.145013,0.389353,-1.217520,0.311860
1.652000,-0.072895,-0.145790,0.388092,-1.218684,0.310987
1.654000,-0.073281,-0.146562,0.386837,-1.219843,0.310118
1.656000,-0.073665,-0.147331,0.385588,-1.220996,0.309253
1.658000,-0.074048,-0.148095,0.384345,-1.222143,0.308393
1.660000,-0.074428,-0.148856,0.383108,-1.223285,0.307537
1.662000,-0.074807,-0.149613,0.381878,-1.224420,0.306685
1.664000,-0.075183,-0.150367,0.380654,-1.225550,0.305838
1.666000,-0.075558,-0.151116,0.379437,-1.226673,0.304995
1.668000,-0.075930,-0.151861,0.378226,-1.227791,0.304157
1.670000,-0.076301,-0.152602,0.377022,-1.228902,0.303323
1.672000,-0.076669,-0.153338,0.375825,-1.230008,0.302494
1.674000,-0.077036,-0.154071,0.374634,-1.231107,0.301670
1.676000,-0.077400,-0.154800,0.373451,-1.232199,0.300850
1.678000,-0.077762,-0.155524,0.372274,-1.233286,0.300036
1.680000,-0.078122,-0.156244,0.371104,-1.234366,0.299226
1.682000,-0.078480,-0.156959,0.369941,-1.235439,0.298421
1.684000,-0.078835,-0.157671,0.368785,-1.236506,0.297621
1.686000,-0.079189,-0.158377,0.367637,-1.237566,0.296825
1.688000,-0.079540,-0.159080,0.366495,-1.238620,0.296035
1.690000,-0.079889,-0.159778,0.365361,-1.239667,0.295250
1.692000,-0.080236,-0.160471,0.364235,-1.240707,0.294470
1.694000,-0.080580,-0.161160,0.363115,-1.241740,0.293695
1.696000,-0.080922,-0.161844,0.362004,-1.242766,0.292926
1.698000,-0.081262,-0.162523,0.360899,-1.243785,0.292161
1.700000,-0.081599,-0.163198,0.359803,-1.244797,0.291402
1.702000,-0.081934,-0.163868,0.358714,-1.245802,0.290648
1.704000,-0.082267,-0.164534,0.357633,-1.246800,0.289900
1.706000,-0.082597,-0.165194,0.356560,-1.247791,0.289157
1.708000,-0.082925,-0.165849,0.355495,-1.248774,0.288419
1.710000,-0.083250,-0.166500,0.354437,-1.249750,0.287687
1.712000,-0.083573,-0.167146,0.353388,-1.250719,0.286961
1.714000,-0.083893,-0.167786,0.352347,-1.251680,0.286240
1.716000,-0.084211,-0.168422,0.351314,-1.252633,0.285525
1.718000,-0.084526,-0.169053,0.350289,-1.253579,0.284816
1.720000,-0.084839,-0.169678,0.349273,-1.254517,0.284112
1.722000,-0.085149,-0.170298,0.348265,-1.255448,0.283414
1.724000,-0.085457,-0.170913,0.347266,-1.256370,0.282722
1.726000,-0.085762,-0.171523,0.346275,-1.257285,0.282036
1.728000,-0.086064,-0.172128,0.345292,-1.258192,0.281356
1.730000,-0.086363,-0.172727,0.344319,-1.259090,0.280682
1.732000,-0.086660,-0.173321,0.343354,-1.259981,0.280014
1.734000,-0.086955,-0.173909,0.342398,-1.260864,0.279352
1.736000,-0.087246,-0.174492,0.341450,-1.261738,0.278696
1.738000,-0.087535,-0.175070,0.340512,-1.262604,0.278047
1.740000,-0.087821,-0.175642,0.339582,-1.263462,0.277403
1.742000,-0.088104,-0.176208,0.338662,-1.264312,0.276766
1.744000,-0.088384,-0.176769,0.337751,-1.265153,0.276135
1.746000,-0.088662,-0.177324,0.336849,-1.265986,0.275511
1.748000,-0.088937,-0.177873,0.335956,-1.266810,0.274893
1.750000,-0.089208,-0.178417,0.335073,-1.267625,0.274281
1.752000,-0.089477,-0.178955,0.334199,-1.268432,0.273676
1.754000,-0.089743,-0.179487,0.333334,-1.269230,0.273078
1.756000,-0.090006,-0.180013,0.332479,-1.270019,0.272486
1.758000,-0.090267,-0.180533,0.331634,-1.270800,0.271900
1.760000,-0.090524,-0.181047,0.330798,-1.271571,0.271322
1.762000,-0.090778,-0.181556,0.329972,-1.272333,0.270750
1.764000,-0.091029,-0.182058,0.329156,-1.273087,0.270185
1.766000,-0.091277,-0.182554,0.328349,-1.273831,0.269627
1.768000,-0.091522,-0.183044,0.327553,-1.274566,0.269075
1.770000,-0.091764,-0.183528,0.326767,-1.275292,0.268531
1.772000,-0.092003,-0.184006,0.325990,-1.276009,0.267993
1.774000,-0.092239,-0.184478,0.325224,-1.276716,0.267463
1.776000,-0.092471,-0.184943,0.324468,-1.277414,0.266939
1.778000,-0.092701,-0.185402,0.323722,-1.278103,0.266423
1.780000,-0.092927,-0.185855,0.322986,-1.278782,0.265914
1.782000,-0.093150,-0.186301,0.322261,-1.279451,0.265412
1.784000,-0.093370,-0.186741,0.321546,-1.280111,0.264917
1.786000,-0.093587,-0.187174,0.320842,-1.280761,0.264429
1.788000,-0.093800,-0.187601,0.320148,-1.281401,0.263949
1.790000,-0.094011,-0.188021,0.319465,-1.282032,0.263476
1.792000,-0.094218,-0.188435,0.318793,-1.282653,0.263011
1.794000,-0.094421,-0.188842,0.318131,-1.283263,0.262553
1.796000,-0.094621,-0.189243,0.317481,-1.283864,0.262102
1.798000,-0.094818,-0.189636,0.316841,-1.284455,0.261659
1.800000,-0.095012,-0.190024,0.316212,-1.285035,0.261224
1.802000,-0.095202,-0.190404,0.315594,-1.285606,0.260796
1.804000,-0.095389,-0.190777,0.314987,-1.286166,0.260376
1.806000,-0.095572,-0.191144,0.314391,-1.286716,0.259963
1.808000,-0.095752,-0.191504,0.313807,-1.287256,0.259558
1.810000,-0.095928,-0.191856,0.313233,-1.287785,0.259161
1.812000,-0.096101,-0.192202,0.312671,-1.288304,0.258772
1.814000,-0.096271,-0.192541,0.312121,-1.288812,0.258391
1.816000,-0.096437,-0.192873,0.311581,-1.289310,0.258018
1.818000,-0.096599,-0.193198,0.311054,-1.289797,0.257652
1.820000,-0.096758,-0.193515,0.310537,-1.290273,0.257295
1.822000,-0.096913,-0.193826,0.310033,-1.290739,0.256946
1.824000,-0.097065,-0.194129,0.309540,-1.291194,0.256605
1.826000,-0.097213,-0.194425,0.309059,-1.291638,0.256271
1.828000,-0.097357,-0.194714,0.308589,-1.292071,0.255946
1.830000,-0.097498,-0.194996,0.308132,-1.292494,0.255630
1.832000,-0.097635,-0.195270,0.307686,-1.292905,0.255321
1.834000,-0.097769,-0.195537,0.307252,-1.293306,0.255021
1.836000,-0.097898,-0.195797,0.306831,-1.293695,0.254729
1.838000,-0.098024,-0.196049,0.306421,-1.294073,0.254445
1.840000,-0.098147,-0.196293,0.306024,-1.294440,0.254170
1.842000,-0.098265,-0.196530,0.305638,-1.294796,0.253903
1.844000,-0.098380,-0.196760,0.305265,-1.295140,0.253645
1.846000,-0.098491,-0.196982,0.304904,-1.295473,0.253395
1.848000,-0.098598,-0.197196,0.304556,-1.295795,0.253154
1.850000,-0.098702,-0.197403,0.304220,-1.296105,0.252921
1.852000,-0.098801,-0.197602,0.303896,-1.296403,0.252697
1.854000,-0.098897,-0.197794,0.303585,-1.296691,0.252482
1.856000,-0.098989,-0.197977,0.303287,-1.296966,0.252275
1.858000,-0.099077,-0.198153,0.303001,-1.297230,0.252077
1.860000,-0.099161,-0.198322,0.302728,-1.297482,0.251888
1.862000,-0.099241,-0.198482,0.302467,-1.297723,0.251708
1.864000,-0.099317,-0.198634,0.302219,-1.297951,0.251536
1.866000,-0.099389,-0.198779,0.301984,-1.298168,0.251374
1.868000,-0.099458,-0.198915,0.301762,-1.298373,0.251220
1.870000,-0.099522,-0.199044,0.301553,-1.298566,0.251075
1.872000,-0.099582,-0.199165,0.301357,-1.298747,0.250940
1.874000,-0.099639,-0.199278,0.301174,-1.298916,0.250813
1.876000,-0.099691,-0.199382,0.301004,-1.299073,0.250695
1.878000,-0.099739,-0.199479,0.300847,-1.299218,0.250586
1.880000,-0.099784,-0.199567,0.300703,-1.299351,0.250487
1.882000,-0.099824,-0.199648,0.300573,-1.299471,0.250396
1.884000,-0.099860,-0.199720,0.300455,-1.299580,0.250315
1.886000,-0.099892,-0.199784,0.300351,-1.299676,0.250243
1.888000,-0.099920,-0.199839,0.300261,-1.299759,0.250181
1.890000,-0.099943,-0.199887,0.300184,-1.299830,0.250127
1.892000,-0.099963,-0.199926,0.300120,-1.299889,0.250083
1.894000,-0.099979,-0.199957,0.300070,-1.299936,0.250048
1.896000,-0.099990,-0.199980,0.300033,-1.299970,0.250023
1.898000,-0.099997,-0.199994,0.300010,-1.299991,0.250007
1.900000,-0.100000,-0.200000,0.300000,-1.300000,0.250000
1.902000,-0.099999,-0.199997,0.300004,-1.299996,0.250003
1.904000,-0.099993,-0.199986,0.300022,-1.299979,0.250015
1.906000,-0.099983,-0.199967,0.300054,-1.299950,0.250037
1.908000,-0.099969,-0.199939,0.300099,-1.299908,0.250069
1.910000,-0.099951,-0.199902,0.300159,-1.299854,0.250110
1.912000,-0.099929,-0.199857,0.300232,-1.299786,0.250160
1.914000,-0.099902,-0.199804,0.300319,-1.299706,0.250221
1.916000,-0.099871,-0.199742,0.300420,-1.299613,0.250291
1.918000,-0.099836,-0.199671,0.300535,-1.299507,0.250370
1.920000,-0.099796,-0.199592,0.300664,-1.299387,0.250459
1.922000,-0.099752,-0.199504,0.300807,-1.299255,0.250558
1.924000,-0.099703,-0.199407,0.300964,-1.299110,0.250667
1.926000,-0.099651,-0.199301,0.301135,-1.298952,0.250786
1.928000,-0.099594,-0.199187,0.301321,-1.298781,0.250914
1.930000,-0.099532,-0.199064,0.301520,-1.298597,0.251052
1.932000,-0.099466,-0.198933,0.301734,-1.298399,0.251201
1.934000,-0.099396,-0.198792,0.301962,-1.298189,0.251359
1.936000,-0.099322,-0.198643,0.302205,-1.297965,0.251526
1.938000,-0.099243,-0.198485,0.302462,-1.297728,0.251704
1.940000,-0.099159,-0.198318,0.302733,-1.297477,0.251892
1.942000,-0.099071,-0.198142,0.303018,-1.297214,0.252090
1.944000,-0.098979,-0.197958,0.303319,-1.296937,0.252297
1.946000,-0.098882,-0.197764,0.303633,-1.296646,0.252515
1.948000,-0.098781,-0.197562,0.303962,-1.296343,0.252743
1.950000,-0.098675,-0.197350,0.304306,-1.296026,0.252981
1.952000,-0.098565,-0.197130,0.304664,-1.295695,0.253229
1.954000,-0.098450,-0.196901,0.305036,-1.295351,0.253487
1.956000,-0.098331,-0.196662,0.305423,-1.294994,0.253755
1.958000,-0.098208,-0.196415,0.305825,-1.294623,0.254033
1.960000,-0.098079,-0.196159,0.306242,-1.294238,0.254321
1.962000,-0.097947,-0.195894,0.306673,-1.293840,0.254620
1.964000,-0.097810,-0.195619,0.307119,-1.293429,0.254928
1.966000,-0.097668,-0.195336,0.307580,-1.293004,0.255247
1.968000,-0.097522,-0.195043,0.308055,-1.292565,0.255576
1.970000,-0.097371,-0.194742,0.308545,-1.292112,0.255916
1.972000,-0.097215,-0.194431,0.309050,-1.291646,0.256265
1.974000,-0.097056,-0.194111,0.309570,-1.291167,0.256625
1.976000,-0.096891,-0.193782,0.310104,-1.290673,0.256995
1.978000,-0.096722,-0.193444,0.310653,-1.290166,0.257375
1.980000,-0.096548,-0.193097,0.311218,-1.289645,0.257766
1.982000,-0.096370,-0.192740,0.311797,-1.289111,0.258167
1.984000,-0.096187,-0.192375,0.312391,-1.288562,0.258578
1.986000,-0.096000,-0.192000,0.313000,-1.288000,0.259000
1.988000,-0.095808,-0.191616,0.313624,-1.287424,0.259432
1.990000,-0.095612,-0.191223,0.314262,-1.286835,0.259874
1.992000,-0.095410,-0.190821,0.314916,-1.286231,0.260327
1.994000,-0.095205,-0.190409,0.315585,-1.285614,0.260789
1.996000,-0.094994,-0.189989,0.316268,-1.284983,0.261263
1.998000,-0.094779,-0.189559,0.316967,-1.284338,0.261746
2.000000,-0.094560,-0.189120,0.317681,-1.283679,0.262240
2.002000,-0.094336,-0.188671,0.318409,-1.283007,0.262745
2.004000,-0.094107,-0.188214,0.319153,-1.282320,0.263260
2.006000,-0.093873,-0.187747,0.319912,-1.281620,0.263785
2.008000,-0.093635,-0.187271,0.320685,-1.280906,0.264321
2.010000,-0.093393,-0.186785,0.321474,-1.280178,0.264867
2.012000,-0.093145,-0.186291,0.322278,-1.279436,0.265423
2.014000,-0.092893,-0.185787,0.323097,-1.278680,0.265990
2.016000,-0.092637,-0.185274,0.323931,-1.277910,0.266567
2.018000,-0.092376,-0.184751,0.324779,-1.277127,0.267155
2.020000,-0.092110,-0.184219,0.325643,-1.276329,0.267753
2.022000,-0.091839,-0.183679,0.326522,-1.275518,0.268362
2.024000,-0.091564,-0.183128,0.327416,-1.274693,0.268981
2.026000,-0.091284,-0.182569,0.328325,-1.273853,0.269610
2.028000,-0.091000,-0.182000,0.329250,-1.273000,0.270250
2.030000,-0.090711,-0.181422,0.330189,-1.272134,0.270900
2.032000,-0.090418,-0.180835,0.331143,-1.271253,0.271560
2.034000,-0.090119,-0.180239,0.332112,-1.270358,0.272231
2.036000,-0.089817,-0.179633,0.333096,-1.269450,0.272913
2.038000,-0.089509,-0.179018,0.334096,-1.268527,0.273605
2.040000,-0.089197,-0.178394,0.335110,-1.267591,0.274307
2.042000,-0.088880,-0.177761,0.336139,-1.266641,0.275019
2.044000,-0.088559,-0.177118,0.337183,-1.265677,0.275742
2.046000,-0.088233,-0.176466,0.338243,-1.264699,0.276476
2.048000,-0.087902,-0.175805,0.339317,-1.263707,0.277219
2.050000,-0.087567,-0.175135,0.340406,-1.262702,0.277973
2.052000,-0.087228,-0.174455,0.341510,-1.261683,0.278738
2.054000,-0.086883,-0.173767,0.342629,-1.260650,0.279513
2.056000,-0.086534,-0.173069,0.343763,-1.259603,0.280298
2.058000,-0.086181,-0.172362,0.344912,-1.258543,0.281093
2.060000,-0.085823,-0.171646,0.346076,-1.257468,0.281899
2.062000,-0.085460,-0.170920,0.347255,-1.256380,0.282715
2.064000,-0.085093,-0.170186,0.348448,-1.255279,0.283541
2.066000,-0.084721,-0.169442,0.349656,-1.254163,0.284377
2.068000,-0.084345,-0.168690,0.350879,-1.253034,0.285224
2.070000,-0.083964,-0.167928,0.352117,-1.251892,0.286081
2.072000,-0.083578,-0.167157,0.353370,-1.250735,0.286948
2.074000,-0.083188,-0.166377,0.354637,-1.249565,0.287826
2.076000,-0.082794,-0.165588,0.355920,-1.248382,0.288714
2.078000,-0.082395,-0.164790,0.357216,-1.247185,0.289611
2.080000,-0.081991,-0.163983,0.358528,-1.245974,0.290519
2.082000,-0.081583,-0.163167,0.359854,-1.244750,0.291437
2.084000,-0.081171,-0.162342,0.361195,-1.243513,0.292366
2.086000,-0.080754,-0.161508,0.362550,-1.242262,0.293304
2.088000,-0.080332,-0.160665,0.363920,-1.240997,0.294252
2.090000,-0.079906,-0.159813,0.365304,-1.239719,0.295210
2.092000,-0.079476,-0.158952,0.366703,-1.238428,0.296179
2.094000,-0.079041,-0.158082,0.368116,-1.237124,0.297157
2.096000,-0.078602,-0.157204,0.369544,-1.235806,0.298146
2.098000,-0.078158,-0.156316,0.370986,-1.234475,0.299144
2.100000,-0.077710,-0.155420,0.372442,-1.233130,0.300152
2.102000,-0.077258,-0.154515,0.373913,-1.231773,0.301170
2.104000,-0.076801,-0.153601,0.375398,-1.230402,0.302198
2.106000,-0.076339,-0.152679,0.376897,-1.229018,0.303236
2.108000,-0.075874,-0.151748,0.378410,-1.227621,0.304284
2.110000,-0.075404,-0.150808,0.379938,-1.226211,0.305342
2.112000,-0.074929,-0.149859,0.381479,-1.224788,0.306409
2.114000,-0.074451,-0.148902,0.383035,-1.223352,0.307486
2.116000,-0.073968,-0.147936,0.384605,-1.221904,0.308572
2.118000,-0.073481,-0.146961,0.386188,-1.220442,0.309669
2.120000,-0.072989,-0.145978,0.387786,-1.218967,0.310775
2.122000,-0.072493,-0.144987,0.389397,-1.217480,0.311890
2.124000,-0.071993,-0.143986,0.391022,-1.215980,0.313015
2.126000,-0.071489,-0.142978,0.392661,-1.214467,0.314150
2.128000,-0.070980,-0.141961,0.394314,-1.212941,0.315294
2.130000,-0.070468,-0.140936,0.395980,-1.211403,0.316448
2.132000,-0.069951,-0.139902,0.397660,-1.209853,0.317611
2.134000,-0.069430,-0.138860,0.399353,-1.208289,0.318783
2.136000,-0.068905,-0.137809,0.401060,-1.206714,0.319965
2.138000,-0.068375,-0.136751,0.402780,-1.205126,0.321156
2.140000,-0.067842,-0.135684,0.404514,-1.203526,0.322356
2.142000,-0.067304,-0.134609,0.406261,-1.201913,0.323565
2.144000,-0.066763,-0.133525,0.408021,-1.200288,0.324784
2.146000,-0.066217,-0.132434,0.409795,-1.198651,0.326012
2.148000,-0.065667,-0.131335,0.411581,-1.197002,0.327249
2.150000,-0.065114,-0.130227,0.413381,-1.195341,0.328494
2.152000,-0.064556,-0.129112,0.415194,-1.193668,0.329749
2.154000,-0.063994,-0.127988,0.417019,-1.191982,0.331013
2.156000,-0.063428,-0.126857,0.418858,-1.190285,0.332286
2.158000,-0.062859,-0.125718,0.420709,-1.188577,0.333568
2.160000,-0.062285,-0.124571,0.422573,-1.186856,0.334858
2.162000,-0.061708,-0.123416,0.424449,-1.185124,0.336157
2.164000,-0.061127,-0.122253,0.426339,-1.183380,0.337465
2.166000,-0.060541,-0.121083,0.428240,-1.181624,0.338782
2.168000,-0.059953,-0.119905,0.430154,-1.179858,0.340107
2.170000,-0.059360,-0.118719,0.432081,-1.178079,0.341441
2.172000,-0.058763,-0.117526,0.434020,-1.176290,0.342783
2.174000,-0.058163,-0.116326,0.435971,-1.174489,0.344133
2.176000,-0.057559,-0.115118,0.437934,-1.172677,0.345493
2.178000,-0.056951,-0.113902,0.439909,-1.170853,0.346860
2.180000,-0.056340,-0.112679,0.441896,-1.169019,0.348236
2.182000,-0.055725,-0.111449,0.443895,-1.167174,0.349620
2.184000,-0.055106,-0.110212,0.445906,-1.165318,0.351012
2.186000,-0.054484,-0.108967,0.447928,-1.163451,0.352412
2.188000,-0.053858,-0.107715,0.449963,-1.161573,0.353820
2.190000,-0.053228,-0.106456,0.452008,-1.159685,0.355237
2.192000,-0.052595,-0.105190,0.454065,-1.157786,0.356661
2.194000,-0.051959,-0.103918,0.456134,-1.155876,0.358093
2.196000,-0.051319,-0.102638,0.458214,-1.153956,0.359533
2.198000,-0.050675,-0.101351,0.460305,-1.152026,0.360980
2.200000,-0.050029,-0.100057,0.462407,-1.150086,0.362436
2.202000,-0.049378,-0.098757,0.464520,-1.148135,0.363899
2.204000,-0.048725,-0.097450,0.466644,-1.146175,0.365369
2.206000,-0.048068,-0.096136,0.468779,-1.144204,0.366847
2.208000,-0.047408,-0.094816,0.470925,-1.142223,0.368332
2.210000,-0.046744,-0.093489,0.473081,-1.140233,0.369825
2.212000,-0.046078,-0.092155,0.475247,-1.138233,0.371325
2.214000,-0.045408,-0.090816,0.477425,-1.136223,0.372832
2.216000,-0.044735,-0.089469,0.479612,-1.134204,0.374347
2.218000,-0.044059,-0.088117,0.481810,-1.132176,0.375868
2.220000,-0.043379,-0.086758,0.484018,-1.130138,0.377397
2.222000,-0.042697,-0.085394,0.486235,-1.128090,0.378932
2.224000,-0.042011,-0.084023,0.488463,-1.126034,0.380474
2.226000,-0.041323,-0.082646,0.490701,-1.123969,0.382023
2.228000,-0.040631,-0.081263,0.492948,-1.121894,0.383579
2.230000,-0.039937,-0.079874,0.495204,-1.119811,0.385142
2.232000,-0.039240,-0.078480,0.497471,-1.117719,0.386711
2.234000,-0.038540,-0.077079,0.499746,-1.115619,0.388286
2.236000,-0.037837,-0.075673,0.502031,-1.113510,0.389868
2.238000,-0.037131,-0.074261,0.504325,-1.111392,0.391456
2.240000,-0.036422,-0.072844,0.506628,-1.109266,0.393050
2.242000,-0.035711,-0.071421,0.508940,-1.107132,0.394651
2.244000,-0.034997,-0.069993,0.511261,-1.104990,0.396258
2.246000,-0.034280,-0.068560,0.513590,-1.102840,0.397870
2.248000,-0.033561,-0.067121,0.515928,-1.100682,0.399489
2.250000,-0.032839,-0.065677,0.518275,-1.098516,0.401113
2.252000,-0.032114,-0.064228,0.520629,-1.096342,0.402743
2.254000,-0.031387,-0.062774,0.522992,-1.094161,0.404379
2.256000,-0.030658,-0.061315,0.525363,-1.091973,0.406021
2.258000,-0.029926,-0.059851,0.527742,-1.089777,0.407667
2.260000,-0.029191,-0.058382,0.530129,-1.087574,0.409320
2.262000,-0.028454,-0.056909,0.532523,-1.085363,0.410977
2.264000,-0.027715,-0.055431,0.534925,-1.083146,0.412640
2.266000,-0.026974,-0.053948,0.537334,-1.080922,0.414308
2.268000,-0.026230,-0.052461,0.539751,-1.078691,0.415981
2.270000,-0.025485,-0.050969,0.542175,-1.076454,0.417660
2.272000,-0.024737,-0.049473,0.544606,-1.074210,0.419342
2.274000,-0.023987,-0.047973,0.547044,-1.071960,0.421030
2.276000,-0.023234,-0.046469,0.549488,-1.069703,0.422723
2.278000,-0.022480,-0.044960,0.551940,-1.067440,0.424420
2.280000,-0.021724,-0.043448,0.554397,-1.065172,0.426121
2.282000,-0.020966,-0.041931,0.556861,-1.062897,0.427827
2.284000,-0.020206,-0.040411,0.559332,-1.060617,0.429537
2.286000,-0.019444,-0.038887,0.561808,-1.058331,0.431252
2.288000,-0.018680,-0.037360,0.564291,-1.056039,0.432970
2.290000,-0.017914,-0.035828,0.566779,-1.053743,0.434693
2.292000,-0.017147,-0.034294,0.569273,-1.051440,0.436420
2.294000,-0.016378,-0.032756,0.571772,-1.049133,0.438150
2.296000,-0.015607,-0.031214,0.574277,-1.046821,0.439884
2.298000,-0.014835,-0.029669,0.576787,-1.044504,0.441622
2.300000,-0.014061,-0.028122,0.579302,-1.042182,0.443363
2.302000,-0.013285,-0.026571,0.581823,-1.039856,0.445108
2.304000,-0.012508,-0.025017,0.584347,-1.037525,0.446856
2.306000,-0.011730,-0.023460,0.586877,-1.035190,0.448607
2.308000,-0.010950,-0.021901,0.589411,-1.032851,0.450362
2.310000,-0.010169,-0.020339,0.591950,-1.030508,0.452119
2.312000,-0.009387,-0.018774,0.594492,-1.028161,0.453879
2.314000,-0.008603,-0.017207,0.597039,-1.025810,0.455642
2.316000,-0.007819,-0.015637,0.599590,-1.023456,0.457408
2.318000,-0.007033,-0.014065,0.602144,-1.021098,0.459177
2.320000,-0.006246,-0.012491,0.604702,-1.018737,0.460947
2.322000,-0.005457,-0.010915,0.607263,-1.016372,0.462721
2.324000,-0.004668,-0.009337,0.609828,-1.014005,0.464496
2.326000,-0.003878,-0.007756,0.612396,-1.011635,0.466274
2.328000,-0.003087,-0.006174,0.614966,-1.009262,0.468054
2.330000,-0.002295,-0.004591,0.617540,-1.006886,0.469835
2.332000,-0.001503,-0.003005,0.620116,-1.004508,0.471619
2.334000,-0.000709,-0.001419,0.622695,-1.002128,0.473404
2.336000,0.000085,0.000170,0.625276,-0.999745,0.475191
2.338000,0.000880,0.001759,0.627859,-0.997361,0.476979
2.340000,0.001675,0.003350,0.630444,-0.994975,0.478769
2.342000,0.002471,0.004942,0.633031,-0.992587,0.480560
2.344000,0.003268,0.006535,0.635620,-0.990197,0.482352
2.346000,0.004065,0.008129,0.638210,-0.987806,0.484145
2.348000,0.004862,0.009724,0.640801,-0.985414,0.485939
2.350000,0.005660,0.011319,0.643394,-0.983021,0.487734
2.352000,0.006458,0.012916,0.645988,-0.980627,0.489530
2.354000,0.007256,0.014512,0.648582,-0.978232,0.491326
2.356000,0.008055,0.016109,0.651177,-0.975836,0.493123
2.358000,0.008853,0.017706,0.653773,-0.973440,0.494920
2.360000,0.009652,0.019304,0.656369,-0.971044,0.496717
2.362000,0.010451,0.020902,0.658965,-0.968648,0.498514
2.364000,0.011250,0.022499,0.661561,-0.966251,0.500311
2.366000,0.012048,0.024097,0.664157,-0.963855,0.502109
2.368000,0.012847,0.025694,0.666752,-0.961459,0.503905
2.370000,0.013645,0.027291,0.669347,-0.959064,0.505702
2.372000,0.014444,0.028887,0.671942,-0.956669,0.507498
2.374000,0.015241,0.030483,0.674535,-0.954276,0.509293
2.376000,0.016039,0.032078,0.677127,-0.951883,0.511088
2.378000,0.016836,0.033673,0.679718,-0.949491,0.512882
2.380000,0.017633,0.035266,0.682308,-0.947101,0.514674
2.382000,0.018429,0.036859,0.684895,-0.944712,0.516466
2.384000,0.019225,0.038450,0.687482,-0.942325,0.518256
2.386000,0.020020,0.040040,0.690066,-0.939939,0.520046
2.388000,0.020815,0.041629,0.692648,-0.937556,0.521833
2.390000,0.021608,0.043217,0.695227,-0.935175,0.523619
2.392000,0.022401,0.044803,0.697805,-0.932796,0.525403
2.394000,0.023194,0.046387,0.700379,-0.930419,0.527186
2.396000,0.023985,0.047970,0.702951,-0.928045,0.528966
2.398000,0.024775,0.049550,0.705519,-0.925675,0.530744
2.400000,0.025564,0.051129,0.708085,-0.923307,0.532520
2.402000,0.026353,0.052706,0.710646,-0.920942,0.534294
2.404000,0.027140,0.054280,0.713205,-0.918580,0.536065
2.406000,0.027926,0.055852,0.715759,-0.916222,0.537833
2.408000,0.028711,0.057421,0.718310,-0.913868,0.539599
2.410000,0.029494,0.058988,0.720856,-0.911518,0.541362
2.412000,0.030276,0.060553,0.723398,-0.909171,0.543122
2.414000,0.031057,0.062114,0.725935,-0.906829,0.544878
2.416000,0.031836,0.063673,0.728468,-0.904491,0.546632
2.418000,0.032614,0.065228,0.730996,-0.902158,0.548382
2.420000,0.033390,0.066781,0.733518,-0.899829,0.550128
2.422000,0.034165,0.068330,0.736036,-0.897505,0.551871
2.424000,0.034938,0.069875,0.738548,-0.895187,0.553610
2.426000,0.035709,0.071418,0.741054,-0.892873,0.555345
2.428000,0.036478,0.072956,0.743554,-0.890565,0.557076
2.430000,0.037246,0.074491,0.746049,-0.888263,0.558803
2.432000,0.038011,0.076023,0.748537,-0.885966,0.560525
2.434000,0.038775,0.077550,0.751018,-0.883675,0.562243
2.436000,0.039536,0.079073,0.753493,-0.881391,0.563957
2.438000,0.040296,0.080592,0.755962,-0.879112,0.565666
2.440000,0.041053,0.082106,0.758423,-0.876841,0.567370
2.442000,0.041808,0.083616,0.760877,-0.874575,0.569069
2.444000,0.042561,0.085122,0.763323,-0.872317,0.570762
2.446000,0.043312,0.086623,0.765762,-0.870065,0.572451
2.448000,0.044060,0.088119,0.768194,-0.867821,0.574134
2.450000,0.044805,0.089611,0.770617,-0.865584,0.575812
2.452000,0.045548,0.091097,0.773032,-0.863355,0.577484
2.454000,0.046289,0.092578,0.775439,-0.861133,0.579150
2.456000,0.047027,0.094054,0.777837,-0.858919,0.580811
2.458000,0.047762,0.095524,0.780227,-0.856714,0.582465
2.460000,0.048495,0.096989,0.782608,-0.854516,0.584113
2.462000,0.049224,0.098449,0.784979,-0.852327,0.585755
2.464000,0.049951,0.099902,0.787341,-0.850146,0.587390
2.466000,0.050675,0.101350,0.789694,-0.847975,0.589019
2.468000,0.051396,0.102792,0.792037,-0.845812,0.590641
2.470000,0.052114,0.104228,0.794370,-0.843658,0.592256
2.472000,0.052829,0.105658,0.796694,-0.841514,0.593865
2.474000,0.053540,0.107081,0.799006,-0.839379,0.595466
2.476000,0.054249,0.108498,0.801309,-0.837253,0.597060
2.478000,0.054954,0.109908,0.803600,-0.835138,0.598646
2.480000,0.055656,0.111312,0.805881,-0.833033,0.600226
2.482000,0.056354,0.112708,0.808151,-0.830937,0.601797
2.484000,0.057049,0.114098,0.810410,-0.828853,0.603361
2.486000,0.057741,0.115481,0.812657,-0.826778,0.604916
2.488000,0.058428,0.116857,0.814893,-0.824715,0.606464
2.490000,0.059113,0.118225,0.817116,-0.822662,0.608004
2.492000,0.059793,0.119586,0.819328,-0.820620,0.609535
2.494000,0.060470,0.120940,0.821528,-0.818590,0.611058
2.496000,0.061143,0.122286,0.823715,-0.816571,0.612572
2.498000,0.061812,0.123624,0.825889,-0.814564,0.614077
2.500000,0.062477,0.124955,0.828051,-0.812568,0.615574
2.502000,0.063139,0.126277,0.830200,-0.810584,0.617062
2.504000,0.063796,0.127591,0.832336,-0.808613,0.618540
2.506000,0.064449,0.128898,0.834458,-0.806654,0.620010
2.508000,0.065098,0.130195,0.836567,-0.804707,0.621470
2.510000,0.065742,0.131485,0.838663,-0.802773,0.622920
2.512000,0.066383,0.132766,0.840744,-0.800852,0.624361
2.514000,0.067019,0.134038,0.842811,-0.798943,0.625792
2.516000,0.067651,0.135301,0.844864,-0.797048,0.627214
2.518000,0.068278,0.136555,0.846903,-0.795167,0.628625
2.520000,0.068900,0.137801,0.848927,-0.793299,0.630026
2.522000,0.069519,0.139037,0.850936,-0.791444,0.631417
2.524000,0.070132,0.140264,0.852930,-0.789603,0.632797
2.526000,0.070741,0.141482,0.854908,-0.787777,0.634167
2.528000,0.071345,0.142690,0.856872,-0.785965,0.635527
2.530000,0.071944,0.143889,0.858820,-0.784167,0.636875
2.532000,0.072539,0.145078,0.860752,-0.782383,0.638213
2.534000,0.073129,0.146257,0.862668,-0.780614,0.639539
2.536000,0.073713,0.147426,0.864568,-0.778860,0.640855
2.538000,0.074293,0.148586,0.866452,-0.777122,0.642159
2.540000,0.074867,0.149735,0.868319,-0.775398,0.643451
2.542000,0.075437,0.150873,0.870169,-0.773690,0.644733
2.544000,0.076001,0.152002,0.872003,-0.771997,0.646002
2.546000,0.076560,0.153120,0.873820,-0.770320,0.647260
2.548000,0.077114,0.154227,0.875619,-0.768659,0.648505
2.550000,0.077662,0.155324,0.877401,-0.767014,0.649739
2.552000,0.078205,0.156410,0.879166,-0.765386,0.650961
2.554000,0.078742,0.157485,0.880912,-0.763773,0.652170
2.556000,0.079274,0.158548,0.882641,-0.762177,0.653367
2.558000,0.079801,0.159601,0.884352,-0.760598,0.654551
2.560000,0.080321,0.160643,0.886044,-0.759036,0.655723
2.562000,0.080836,0.161673,0.887719,-0.757491,0.656882
2.564000,0.081346,0.162692,0.889374,-0.755963,0.658028
2.566000,0.081849,0.163699,0.891011,-0.754452,0.659161
2.568000,0.082347,0.164694,0.892628,-0.752958,0.660281
2.570000,0.082839,0.165678,0.894227,-0.751483,0.661388
2.572000,0.083325,0.166650,0.895806,-0.750025,0.662481
2.574000,0.083805,0.167610,0.897366,-0.748585,0.663561
2.576000,0.084279,0.168558,0.898906,-0.747164,0.664627
2.578000,0.084747,0.169493,0.900427,-0.745760,0.665680
2.580000,0.085208,0.170417,0.901927,-0.744375,0.666719
2.582000,0.085664,0.171328,0.903407,-0.743009,0.667744
2.584000,0.086113,0.172226,0.904867,-0.741661,0.668754
2.586000,0.086556,0.173112,0.906307,-0.740332,0.669751
2.588000,0.086993,0.173985,0.907726,-0.739022,0.670733
2.590000,0.087423,0.174846,0.909124,-0.737731,0.671701
2.592000,0.087847,0.175693,0.910502,-0.736460,0.672655
2.594000,0.088264,0.176528,0.911858,-0.735208,0.673594
2.596000,0.088675,0.177349,0.913193,-0.733976,0.674518
2.598000,0.089079,0.178158,0.914506,-0.732763,0.675428
2.600000,0.089476,0.178953,0.915799,-0.731571,0.676322
2.602000,0.089867,0.179735,0.917069,-0.730398,0.677202
2.604000,0.090252,0.180503,0.918317,-0.729245,0.678066
2.606000,0.090629,0.181258,0.919544,-0.728113,0.678915
2.608000,0.091000,0.181999,0.920748,-0.727001,0.679749
2.610000,0.091363,0.182726,0.921931,-0.725910,0.680567
2.612000,0.091720,0.183440,0.923090,-0.724840,0.681370
2.614000,0.092070,0.184140,0.924227,-0.723790,0.682157
2.616000,0.092413,0.184826,0.925342,-0.722762,0.682929
2.618000,0.092749,0.185497,0.926433,-0.721754,0.683684
2.620000,0.093077,0.186155,0.927502,-0.720768,0.684424
2.622000,0.093399,0.186798,0.928547,-0.719803,0.685148
2.624000,0.093714,0.187427,0.929569,-0.718859,0.685856
2.626000,0.094021,0.188042,0.930568,-0.717937,0.686547
2.628000,0.094321,0.188642,0.931543,-0.717037,0.687222
2.630000,0.094614,0.189227,0.932494,-0.716159,0.687881
2.632000,0.094899,0.189798,0.933422,-0.715303,0.688523
2.634000,0.095177,0.190354,0.934326,-0.714469,0.689149
2.636000,0.095448,0.190896,0.935205,-0.713657,0.689757
2.638000,0.095711,0.191422,0.936061,-0.712867,0.690350
2.640000,0.095967,0.191933,0.936892,-0.712100,0.690925
2.642000,0.096215,0.192430,0.937698,-0.711355,0.691484
2.644000,0.096456,0.192911,0.938481,-0.710633,0.692025
2.646000,0.096689,0.193377,0.939238,-0.709934,0.692549
2.648000,0.096914,0.193828,0.939971,-0.709258,0.693057
2.650000,0.097132,0.194264,0.940678,-0.708605,0.693547
2.652000,0.097342,0.194684,0.941361,-0.707974,0.694019
2.654000,0.097544,0.195088,0.942019,-0.707368,0.694474
2.656000,0.097739,0.195477,0.942651,-0.706784,0.694912
2.658000,0.097925,0.195851,0.943258,-0.706224,0.695332
2.660000,0.098104,0.196209,0.943839,-0.705687,0.695735
2.662000,0.098275,0.196551,0.944395,-0.705174,0.696120
2.664000,0.098439,0.196877,0.944925,-0.704684,0.696487
2.666000,0.098594,0.197188,0.945430,-0.704219,0.696836
2.668000,0.098741,0.197482,0.945908,-0.703777,0.697167
2.670000,0.098880,0.197760,0.946361,-0.703359,0.697481
2.672000,0.099011,0.198023,0.946787,-0.702966,0.697776
2.674000,0.099135,0.198269,0.947188,-0.702596,0.698053
2.676000,0.099250,0.198500,0.947562,-0.702251,0.698312
2.678000,0.099357,0.198714,0.947909,-0.701930,0.698553
2.680000,0.099456,0.198911,0.948231,-0.701633,0.698775
2.682000,0.099546,0.199093,0.948526,-0.701361,0.698979
2.684000,0.099629,0.199258,0.948794,-0.701113,0.699165
2.686000,0.099703,0.199406,0.949035,-0.700891,0.699332
2.688000,0.099769,0.199538,0.949250,-0.700692,0.699481
2.690000,0.099827,0.199654,0.949438,-0.700519,0.699611
2.692000,0.099877,0.199753,0.949599,-0.700370,0.699722
2.694000,0.099918,0.199836,0.949733,-0.700247,0.699815
2.696000,0.099951,0.199901,0.949840,-0.700148,0.699889
2.698000,0.099975,0.199950,0.949920,-0.700074,0.699944
2.700000,0.099991,0.199983,0.949972,-0.700026,0.699981
2.702000,0.099999,0.199998,0.949997,-0.700002,0.699998
2.704000,0.099999,0.199997,0.949996,-0.700004,0.699997
2.706000,0.099990,0.199979,0.949966,-0.700031,0.699977
2.708000,0.099972,0.199944,0.949909,-0.700084,0.699937
2.710000,0.099946,0.199892,0.949825,-0.700161,0.699879
2.712000,0.099912,0.199824,0.949713,-0.700265,0.699802
2.714000,0.099869,0.199738,0.949574,-0.700393,0.699705
2.716000,0.099817,0.199635,0.949407,-0.700548,0.699589
2.718000,0.099758,0.199515,0.949212,-0.700727,0.699454
2.720000,0.099689,0.199378,0.948990,-0.700933,0.699300
2.722000,0.099612,0.199224,0.948739,-0.701164,0.699127
2.724000,0.099527,0.199053,0.948461,-0.701420,0.698935
2.726000,0.099432,0.198865,0.948155,-0.701703,0.698723
2.728000,0.099330,0.198659,0.947821,-0.702011,0.698492
2.730000,0.099218,0.198437,0.947460,-0.702345,0.698241
2.732000,0.099098,0.198197,0.947070,-0.702705,0.697972
2.734000,0.098970,0.197940,0.946652,-0.703090,0.697682
2.736000,0.098833,0.197666,0.946207,-0.703501,0.697374
2.738000,0.098687,0.197374,0.945733,-0.703939,0.697046
2.740000,0.098533,0.197066,0.945231,-0.704402,0.696699
2.742000,0.098370,0.196740,0.944702,-0.704891,0.696332
2.744000,0.098198,0.196396,0.944144,-0.705406,0.695946
2.746000,0.098018,0.196036,0.943558,-0.705946,0.695540
2.748000,0.097829,0.195658,0.942944,-0.706513,0.695115
2.750000,0.097631,0.195263,0.942302,-0.707106,0.694671
2.752000,0.097425,0.194850,0.941632,-0.707724,0.694207
2.754000,0.097210,0.194421,0.940934,-0.708369,0.693723
2.756000,0.096987,0.193974,0.940207,-0.709039,0.693220
2.758000,0.096755,0.193509,0.939453,-0.709736,0.692698
2.760000,0.096514,0.193028,0.938670,-0.710458,0.692156
2.762000,0.096265,0.192529,0.937860,-0.711206,0.691595
2.764000,0.096006,0.192013,0.937021,-0.711981,0.691015
2.766000,0.095740,0.191480,0.936154,-0.712781,0.690415
2.768000,0.095465,0.190929,0.935260,-0.713606,0.689795
2.770000,0.095181,0.190361,0.934337,-0.714458,0.689156
2.772000,0.094888,0.189776,0.933386,-0.715336,0.688498
2.774000,0.094587,0.189174,0.932407,-0.716239,0.687821
2.776000,0.094277,0.188554,0.931401,-0.717168,0.687124
2.778000,0.093959,0.187918,0.930366,-0.718123,0.686407
2.780000,0.093632,0.187264,0.929304,-0.719104,0.685672
2.782000,0.093297,0.186593,0.928214,-0.720110,0.684917
2.784000,0.092953,0.185905,0.927096,-0.721142,0.684143
2.786000,0.092600,0.185200,0.925950,-0.722200,0.683350
2.788000,0.092239,0.184478,0.924776,-0.723283,0.682538
2.790000,0.091869,0.183739,0.923575,-0.724392,0.681706
2.792000,0.091491,0.182983,0.922347,-0.725526,0.680855
2.794000,0.091105,0.182209,0.921090,-0.726686,0.679986
2.796000,0.090710,0.181419,0.919807,-0.727871,0.679097
2.798000,0.090306,0.180613,0.918495,-0.729081,0.678189
2.800000,0.089894,0.179789,0.917157,-0.730317,0.677262
2.802000,0.089474,0.178948,0.915791,-0.731578,0.676317
2.804000,0.089045,0.178091,0.914398,-0.732864,0.675352
2.806000,0.088608,0.177217,0.912977,-0.734175,0.674369
2.808000,0.088163,0.176326,0.911530,-0.735511,0.673367
2.810000,0.087709,0.175419,0.910056,-0.736872,0.672346
2.812000,0.087247,0.174495,0.908554,-0.738258,0.671307
2.814000,0.086777,0.173554,0.907026,-0.739668,0.670249
2.816000,0.086299,0.172598,0.905471,-0.741104,0.669172
2.818000,0.085812,0.171624,0.903889,-0.742564,0.668077
2.820000,0.085317,0.170635,0.902281,-0.744048,0.666964
2.822000,0.084814,0.169628,0.900646,-0.745557,0.665832
2.824000,0.084303,0.168606,0.898985,-0.747091,0.664682
2.826000,0.083784,0.167568,0.897298,-0.748648,0.663514
2.828000,0.083257,0.166513,0.895584,-0.750230,0.662327
2.830000,0.082721,0.165443,0.893844,-0.751836,0.661123
2.832000,0.082178,0.164356,0.892078,-0.753466,0.659900
2.834000,0.081627,0.163253,0.890287,-0.755120,0.658660
2.836000,0.081067,0.162135,0.888469,-0.756798,0.657402
2.838000,0.080500,0.161001,0.886626,-0.758499,0.656126
2.840000,0.079925,0.159851,0.884757,-0.760224,0.654832
2.842000,0.079343,0.158685,0.882863,-0.761972,0.653521
2.844000,0.078752,0.157504,0.880944,-0.763744,0.652192
2.846000,0.078154,0.156307,0.879000,-0.765539,0.650846
2.848000,0.077548,0.155095,0.877030,-0.767357,0.649482
2.850000,0.076934,0.153868,0.875036,-0.769198,0.648102
2.852000,0.076313,0.152626,0.873017,-0.771062,0.646704
2.854000,0.075684,0.151368,0.870973,-0.772948,0.645289
2.856000,0.075048,0.150095,0.868905,-0.774857,0.643857
2.858000,0.074404,0.148808,0.866812,-0.776789,0.642408
2.860000,0.073752,0.147505,0.864696,-0.778743,0.640943
2.862000,0.073094,0.146188,0.862555,-0.780719,0.639461
2.864000,0.072428,0.144856,0.860390,-0.782717,0.637963
2.866000,0.071754,0.143509,0.858202,-0.784737,0.636448
2.868000,0.071074,0.142148,0.855990,-0.786778,0.634916
2.870000,0.070386,0.140772,0.853755,-0.788841,0.633369
2.872000,0.069691,0.139383,0.851497,-0.790926,0.631805
2.874000,0.068989,0.137979,0.849215,-0.793032,0.630226
2.876000,0.068280,0.136561,0.846911,-0.795159,0.628631
2.878000,0.067564,0.135129,0.844584,-0.797307,0.627020
2.880000,0.066841,0.133683,0.842234,-0.799476,0.625393
2.882000,0.066112,0.132223,0.839863,-0.801665,0.623751
2.884000,0.065375,0.130750,0.837469,-0.803875,0.622094
2.886000,0.064632,0.129263,0.835053,-0.806105,0.620421
2.888000,0.063881,0.127763,0.832615,-0.808356,0.618733
2.890000,0.063125,0.126250,0.830156,-0.810626,0.617031
2.892000,0.062361,0.124723,0.827675,-0.812916,0.615313
2.894000,0.061592,0.123183,0.825173,-0.815225,0.613581
2.896000,0.060815,0.121631,0.822650,-0.817554,0.611835
2.898000,0.060033,0.120065,0.820106,-0.819902,0.610074
2.900000,0.059244,0.118487,0.817542,-0.822269,0.608298
2.902000,0.058448,0.116897,0.814957,-0.824655,0.606509
2.904000,0.057647,0.115294,0.812353,-0.827059,0.604706
2.906000,0.056839,0.113679,0.809728,-0.829482,0.602889
2.908000,0.056026,0.112051,0.807083,-0.831923,0.601058
2.910000,0.055206,0.110412,0.804420,-0.834382,0.599214
2.912000,0.054380,0.108761,0.801736,-0.836859,0.597356
2.914000,0.053549,0.107098,0.799034,-0.839353,0.595485
2.916000,0.052712,0.105423,0.796313,-0.841865,0.593601
2.918000,0.051869,0.103737,0.793573,-0.844394,0.591705
2.920000,0.051020,0.102040,0.790815,-0.846940,0.589795
2.922000,0.050166,0.100332,0.788039,-0.849503,0.587873
2.924000,0.049306,0.098612,0.785245,-0.852082,0.585939
2.926000,0.048441,0.096882,0.782433,-0.854677,0.583992
2.928000,0.047570,0.095141,0.779604,-0.857289,0.582034
2.930000,0.046695,0.093389,0.776758,-0.859916,0.580063
2.932000,0.045814,0.091627,0.773895,-0.862559,0.578081
2.934000,0.044928,0.089855,0.771015,-0.865217,0.576087
2.936000,0.044037,0.088073,0.768119,-0.867890,0.574082
2.938000,0.043140,0.086281,0.765206,-0.870579,0.572066
2.940000,0.042239,0.084479,0.762278,-0.873282,0.570039
2.942000,0.041334,0.082667,0.759334,-0.875999,0.568001
2.944000,0.040423,0.080846,0.756375,-0.878731,0.565952
2.946000,0.039508,0.079016,0.753401,-0.881476,0.563893
2.948000,0.038588,0.077177,0.750412,-0.884235,0.561824
2.950000,0.037664,0.075328,0.747409,-0.887008,0.559744
2.952000,0.036736,0.073471,0.744391,-0.889793,0.557655
2.954000,0.035803,0.071605,0.741359,-0.892592,0.555556
2.956000,0.034866,0.069731,0.738313,-0.895403,0.553448
2.958000,0.033924,0.067849,0.735255,-0.898227,0.551330
2.960000,0.032979,0.065958,0.732183,-0.901062,0.549203
2.962000,0.032030,0.064060,0.729098,-0.903910,0.547068
2.964000,0.031077,0.062154,0.726000,-0.906769,0.544923
2.966000,0.030120,0.060240,0.722891,-0.909639,0.542770
2.968000,0.029160,0.058319,0.719769,-0.912521,0.540609
2.970000,0.028196,0.056391,0.716636,-0.915413,0.538440
2.972000,0.027228,0.054456,0.713491,-0.918316,0.536263
2.974000,0.026257,0.052514,0.710335,-0.921229,0.534078
2.976000,0.025283,0.050565,0.707169,-0.924152,0.531886
2.978000,0.024305,0.048610,0.703991,-0.927085,0.529686
2.980000,0.023324,0.046649,0.700804,-0.930027,0.527480
2.982000,0.022341,0.044681,0.697607,-0.932978,0.525267
2.984000,0.021354,0.042708,0.694401,-0.935938,0.523047
2.986000,0.020365,0.040729,0.691185,-0.938906,0.520820
2.988000,0.019372,0.038745,0.687960,-0.941883,0.518588
2.990000,0.018378,0.036755,0.684727,-0.944867,0.516349
2.992000,0.017380,0.034760,0.681485,-0.947860,0.514105
2.994000,0.016380,0.032761,0.678236,-0.950859,0.511856
2.996000,0.015378,0.030756,0.674979,-0.953866,0.509601
2.998000,0.014374,0.028747,0.671714,-0.956879,0.507341
3.000000,0.013367,0.026734,0.668443,-0.959899,0.505076
3.002000,0.012358,0.024717,0.665165,-0.962925,0.502806
3.004000,0.011348,0.022696,0.661880,-0.965957,0.500533
3.006000,0.010335,0.020671,0.658590,-0.968994,0.498255
3.008000,0.009321,0.018643,0.655294,-0.972036,0.495973
3.010000,0.008305,0.016611,0.651993,-0.975084,0.493687
3.012000,0.007288,0.014576,0.648686,-0.978136,0.491398
3.014000,0.006269,0.012539,0.645375,-0.981192,0.489106
3.016000,0.005249,0.010499,0.642060,-0.984252,0.486811
3.018000,0.004228,0.008456,0.638741,-0.987316,0.484513
3.020000,0.003206,0.006411,0.635418,-0.990383,0.482213
3.022000,0.002182,0.004364,0.632092,-0.993453,0.479910
3.024000,0.001158,0.002316,0.628763,-0.996526,0.477605
3.026000,0.000133,0.000266,0.625432,-0.999602,0.475299
3.028000,-0.000893,-0.001786,0.622098,-1.002679,0.472991
3.030000,-0.001919,-0.003839,0.618762,-1.005758,0.470682
3.032000,-0.002946,-0.005892,0.615425,-1.008838,0.468371
3.034000,-0.003973,-0.007947,0.612087,-1.011920,0.466060
3.036000,-0.005001,-0.010002,0.608748,-1.015002,0.463748
3.038000,-0.006028,-0.012057,0.605408,-1.018085,0.461436
3.040000,-0.007056,-0.014112,0.602068,-1.021168,0.459124
3.042000,-0.008083,-0.016167,0.598729,-1.024250,0.456812
3.044000,-0.009111,-0.018222,0.595390,-1.027332,0.454501
3.046000,-0.010138,-0.020276,0.592052,-1.030413,0.452190
3.048000,-0.011164,-0.022329,0.588716,-1.033493,0.449880
3.050000,-0.012190,-0.024381,0.585381,-1.036571,0.447571
3.052000,-0.013216,-0.026432,0.582048,-1.039648,0.445264
3.054000,-0.014241,-0.028481,0.578718,-1.042722,0.442959
3.056000,-0.015264,-0.030529,0.575391,-1.045793,0.440655
3.058000,-0.016287,-0.032575,0.572066,-1.048862,0.438354
3.060000,-0.017309,-0.034618,0.568745,-1.051927,0.436055
3.062000,-0.018330,-0.036659,0.565429,-1.054989,0.433758
3.064000,-0.019349,-0.038698,0.562116,-1.058047,0.431465
3.066000,-0.020367,-0.040733,0.558808,-1.061100,0.429175
3.068000,-0.021383,-0.042766,0.555505,-1.064149,0.426888
3.070000,-0.022398,-0.044795,0.552208,-1.067193,0.424605
3.072000,-0.023410,-0.046821,0.548916,-1.070231,0.422326
3.074000,-0.024421,-0.048843,0.545630,-1.073264,0.420052
3.076000,-0.025430,-0.050861,0.542351,-1.076291,0.417782
3.078000,-0.026437,-0.052875,0.539079,-1.079312,0.415516
3.080000,-0.027442,-0.054884,0.535814,-1.082326,0.413256
3.082000,-0.028444,-0.056888,0.532556,-1.085333,0.411001
3.084000,-0.029444,-0.058888,0.529307,-1.088332,0.408751
3.086000,-0.030441,-0.060883,0.526066,-1.091324,0.406507
3.088000,-0.031436,-0.062872,0.522834,-1.094307,0.404269
3.090000,-0.032428,-0.064855,0.519610,-1.097283,0.402038
3.092000,-0.033416,-0.066833,0.516397,-1.100249,0.399813
3.094000,-0.034402,-0.068804,0.513193,-1.103207,0.397595
3.096000,-0.035385,-0.070770,0.509999,-1.106154,0.395384
3.098000,-0.036364,-0.072728,0.506816,-1.109093,0.393181
3.100000,-0.037340,-0.074680,0.503644,-1.112021,0.390985
3.102000,-0.038313,-0.076625,0.500484,-1.114938,0.388796
3.104000,-0.039282,-0.078563,0.497335,-1.117845,0.386616
3.106000,-0.040247,-0.080493,0.494198,-1.120740,0.384445
3.108000,-0.041208,-0.082416,0.491074,-1.123624,0.382282
3.110000,-0.042165,-0.084331,0.487962,-1.126496,0.380128
3.112000,-0.043119,-0.086237,0.484864,-1.129356,0.377983
3.114000,-0.044068,-0.088136,0.481780,-1.132203,0.375848
3.116000,-0.045013,-0.090025,0.478709,-1.135038,0.373722
3.118000,-0.045953,-0.091906,0.475653,-1.137859,0.371606
3.120000,-0.046889,-0.093778,0.472612,-1.140666,0.369500
3.122000,-0.047820,-0.095640,0.469585,-1.143460,0.367405
3.124000,-0.048746,-0.097493,0.466574,-1.146239,0.365321
3.126000,-0.049668,-0.099336,0.463579,-1.149004,0.363247
3.128000,-0.050585,-0.101169,0.460600,-1.151754,0.361185
3.130000,-0.051496,-0.102992,0.457638,-1.154488,0.359134
3.132000,-0.052402,-0.104804,0.454693,-1.157207,0.357095
3.134000,-0.053303,-0.106606,0.451765,-1.159909,0.355068
3.136000,-0.054199,-0.108397,0.448854,-1.162596,0.353053
3.138000,-0.055089,-0.110177,0.445962,-1.165266,0.351051
3.140000,-0.055973,-0.111946,0.443088,-1.167918,0.349061
3.142000,-0.056851,-0.113703,0.440233,-1.170554,0.347085
3.144000,-0.057724,-0.115448,0.437397,-1.173172,0.345121
3.146000,-0.058591,-0.117181,0.434581,-1.175772,0.343171
3.148000,-0.059451,-0.118902,0.431784,-1.178353,0.341235
3.150000,-0.060305,-0.120611,0.429008,-1.180916,0.339313
3.152000,-0.061153,-0.122306,0.426252,-1.183460,0.337405
3.154000,-0.061995,-0.123989,0.423517,-1.185984,0.335512
3.156000,-0.062830,-0.125659,0.420804,-1.188489,0.333633
3.158000,-0.063658,-0.127316,0.418112,-1.190974,0.331770
3.160000,-0.064479,-0.128959,0.415442,-1.193438,0.329921
3.162000,-0.065294,-0.130588,0.412794,-1.195882,0.328088
3.164000,-0.066102,-0.132203,0.410169,-1.198305,0.326271
3.166000,-0.066902,-0.133805,0.407567,-1.200707,0.324470
3.168000,-0.067696,-0.135391,0.404989,-1.203087,0.322685
3.170000,-0.068482,-0.136964,0.402434,-1.205445,0.320916
3.172000,-0.069260,-0.138521,0.399904,-1.207781,0.319164
3.174000,-0.070032,-0.140063,0.397397,-1.210095,0.317429
3.176000,-0.070795,-0.141590,0.394916,-1.212385,0.315711
3.178000,-0.071551,-0.143102,0.392459,-1.214653,0.314010
3.180000,-0.072299,-0.144598,0.390028,-1.216897,0.312327
3.182000,-0.073039,-0.146078,0.387623,-1.219117,0.310662
3.184000,-0.073771,-0.147542,0.385244,-1.221313,0.309015
3.186000,-0.074495,-0.148990,0.382891,-1.223485,0.307386
3.188000,-0.075211,-0.150421,0.380565,-1.225632,0.305776
3.190000,-0.075918,-0.151836,0.378266,-1.227754,0.304184
3.192000,-0.076617,-0.153234,0.375995,-1.229851,0.302612
3.194000,-0.077307,-0.154615,0.373751,-1.231922,0.301058
3.196000,-0.077989,-0.155979,0.371535,-1.233968,0.299524
3.198000,-0.078662,-0.157325,0.369347,-1.235987,0.298010
3.200000,-0.079327,-0.158653,0.367188,-1.237980,0.296515
3.202000,-0.079982,-0.159964,0.365058,-1.239946,0.295040
3.204000,-0.080628,-0.161257,0.362958,-1.241885,0.293586
3.206000,-0.081266,-0.162531,0.360887,-1.243797,0.292152
3.208000,-0.081894,-0.163787,0.358845,-1.245681,0.290739
3.210000,-0.082513,-0.165025,0.356834,-1.247538,0.289347
3.212000,-0.083122,-0.166244,0.354854,-1.249366,0.287976
3.214000,-0.083722,-0.167444,0.352904,-1.251166,0.286626
3.216000,-0.084312,-0.168625,0.350985,-1.252937,0.285297
3.218000,-0.084893,-0.169786,0.349097,-1.254679,0.283991
3.220000,-0.085464,-0.170928,0.347242,-1.256392,0.282706
3.222000,-0.086025,-0.172051,0.345418,-1.258076,0.281443
3.224000,-0.086577,-0.173153,0.343626,-1.259730,0.280202
3.226000,-0.087118,-0.174236,0.341866,-1.261354,0.278984
3.228000,-0.087649,-0.175299,0.340140,-1.262948,0.277789
3.230000,-0.088170,-0.176341,0.338446,-1.264511,0.276616
3.232000,-0.088681,-0.177363,0.336786,-1.266044,0.275467
3.234000,-0.089182,-0.178364,0.335159,-1.267546,0.274341
3.236000,-0.089672,-0.179344,0.333565,-1.269016,0.273238
3.238000,-0.090152,-0.180304,0.332006,-1.270456,0.272158
3.240000,-0.090621,-0.181242,0.330482,-1.271863,0.271103
3.242000,-0.091080,-0.182159,0.328991,-1.273239,0.270071
3.244000,-0.091527,-0.183055,0.327536,-1.274582,0.269063
3.246000,-0.091965,-0.183929,0.326115,-1.275894,0.268080
3.248000,-0.092391,-0.184782,0.324730,-1.277172,0.267121
3.250000,-0.092806,-0.185612,0.323380,-1.278418,0.266186
3.252000,-0.093210,-0.186421,0.322066,-1.279631,0.265277
3.254000,-0.093604,-0.187207,0.320788,-1.280811,0.264392
3.256000,-0.093986,-0.187972,0.319546,-1.281958,0.263532
3.258000,-0.094357,-0.188714,0.318340,-1.283070,0.262697
3.260000,-0.094716,-0.189433,0.317171,-1.284149,0.261888
3.262000,-0.095065,-0.190130,0.316039,-1.285195,0.261104
3.264000,-0.095402,-0.190804,0.314944,-1.286205,0.260346
3.266000,-0.095727,-0.191455,0.313886,-1.287182,0.259613
3.268000,-0.096041,-0.192083,0.312866,-1.288124,0.258907
3.270000,-0.096344,-0.192688,0.311883,-1.289031,0.258226
3.272000,-0.096635,-0.193269,0.310938,-1.289904,0.257572
3.274000,-0.096914,-0.193827,0.310030,-1.290741,0.256944
3.276000,-0.097181,-0.194362,0.309161,-1.291543,0.256343
3.278000,-0.097437,-0.194873,0.308331,-1.292310,0.255767
3.280000,-0.097680,-0.195361,0.307539,-1.293041,0.255219
3.282000,-0.097912,-0.195825,0.306785,-1.293737,0.254697
3.284000,-0.098132,-0.196264,0.306071,-1.294396,0.254203
3.286000,-0.098340,-0.196680,0.305395,-1.295020,0.253735
3.288000,-0.098536,-0.197072,0.304759,-1.295608,0.253294
3.290000,-0.098720,-0.197439,0.304161,-1.296159,0.252881
3.292000,-0.098891,-0.197782,0.303604,-1.296674,0.252495
3.294000,-0.099051,-0.198101,0.303086,-1.297152,0.252136
3.296000,-0.099198,-0.198396,0.302607,-1.297593,0.251805
3.298000,-0.099333,-0.198665,0.302169,-1.297998,0.251501
3.300000,-0.099455,-0.198911,0.301770,-1.298366,0.251226
3.302000,-0.099566,-0.199131,0.301412,-1.298697,0.250977
3.304000,-0.099663,-0.199327,0.301094,-1.298990,0.250757
3.306000,-0.099749,-0.199498,0.300816,-1.299247,0.250565
3.308000,-0.099822,-0.199644,0.300579,-1.299466,0.250401
3.310000,-0.099883,-0.199765,0.300382,-1.299648,0.250264
3.312000,-0.099931,-0.199861,0.300226,-1.299792,0.250156
3.314000,-0.099966,-0.199932,0.300110,-1.299898,0.250076
3.316000,-0.099989,-0.199978,0.300036,-1.299967,0.250025
3.318000,-0.099999,-0.199999,0.300002,-1.299998,0.250001
3.320000,-0.099997,-0.199994,0.300009,-1.299991,0.250007
3.322000,-0.099982,-0.199964,0.300058,-1.299947,0.250040
3.324000,-0.099955,-0.199909,0.300147,-1.299864,0.250102
3.326000,-0.099914,-0.199829,0.300278,-1.299743,0.250193
3.328000,-0.099861,-0.199723,0.300450,-1.299584,0.250312
3.330000,-0.099796,-0.199592,0.300663,-1.299388,0.250459
3.332000,-0.099718,-0.199435,0.300918,-1.299153,0.250636
3.334000,-0.099626,-0.199253,0.301214,-1.298879,0.250841
3.336000,-0.099523,-0.199045,0.301552,-1.298568,0.251074
3.338000,-0.099406,-0.198812,0.301930,-1.298218,0.251336
3.340000,-0.099277,-0.198553,0.302351,-1.297830,0.251628
3.342000,-0.099135,-0.198269,0.302813,-1.297404,0.251947
3.344000,-0.098980,-0.197959,0.303316,-1.296939,0.252296
3.346000,-0.098812,-0.197624,0.303861,-1.296436,0.252673
3.348000,-0.098632,-0.197263,0.304448,-1.295895,0.253079
3.350000,-0.098438,-0.196877,0.305076,-1.295315,0.253514
3.352000,-0.098232,-0.196465,0.305745,-1.294697,0.253977
3.354000,-0.098014,-0.196027,0.306456,-1.294041,0.254470
3.356000,-0.097782,-0.195564,0.307209,-1.293346,0.254991
3.358000,-0.097538,-0.195075,0.308002,-1.292613,0.255540
3.360000,-0.097281,-0.194561,0.308838,-1.291842,0.256119
3.362000,-0.097011,-0.194022,0.309715,-1.291033,0.256726
3.364000,-0.096728,-0.193457,0.310633,-1.290185,0.257361
3.366000,-0.096433,-0.192866,0.311592,-1.289300,0.258025
3.368000,-0.096125,-0.192251,0.312593,-1.288376,0.258718
3.370000,-0.095805,-0.191609,0.313635,-1.287414,0.259439
3.372000,-0.095471,-0.190943,0.314718,-1.286414,0.260189
3.374000,-0.095126,-0.190251,0.315842,-1.285377,0.260967
3.376000,-0.094767,-0.189534,0.317007,-1.284301,0.261774
3.378000,-0.094396,-0.188792,0.318213,-1.283188,0.262609
3.380000,-0.094012,-0.188025,0.319460,-1.282037,0.263472
3.382000,-0.093616,-0.187233,0.320747,-1.280849,0.264363
3.384000,-0.093208,-0.186415,0.322075,-1.279623,0.265283
3.386000,-0.092786,-0.185573,0.323444,-1.278359,0.266230
3.388000,-0.092353,-0.184706,0.324853,-1.277059,0.267206
3.390000,-0.091907,-0.183814,0.326302,-1.275721,0.268209
3.392000,-0.091449,-0.182897,0.327792,-1.274346,0.269241
3.394000,-0.090978,-0.181956,0.329321,-1.272934,0.270299
3.396000,-0.090495,-0.180990,0.330891,-1.271485,0.271386
3.398000,-0.090000,-0.180000,0.332500,-1.270000,0.272500
3.400000,-0.089493,-0.178985,0.334149,-1.268478,0.273642
3.402000,-0.088973,-0.177946,0.335838,-1.266919,0.274811
3.404000,-0.088441,-0.176883,0.337565,-1.265324,0.276007
3.406000,-0.087898,-0.175796,0.339332,-1.263693,0.277230
3.408000,-0.087342,-0.174684,0.341138,-1.262027,0.278480
3.410000,-0.086775,-0.173549,0.342983,-1.260324,0.279757
3.412000,-0.086195,-0.172390,0.344866,-1.258585,0.281061
3.414000,-0.085604,-0.171208,0.346788,-1.256811,0.282391
3.416000,-0.085001,-0.170001,0.348748,-1.255002,0.283748
3.418000,-0.084386,-0.168772,0.350746,-1.253158,0.285132
3.420000,-0.083759,-0.167519,0.352782,-1.251278,0.286541
3.422000,-0.083121,-0.166243,0.354855,-1.249364,0.287977
3.424000,-0.082472,-0.164944,0.356966,-1.247416,0.289438
3.426000,-0.081811,-0.163622,0.359115,-1.245433,0.290925
3.428000,-0.081139,-0.162277,0.361300,-1.243416,0.292438
3.430000,-0.080455,-0.160910,0.363522,-1.241365,0.293977
3.432000,-0.079760,-0.159520,0.365780,-1.239280,0.295540
3.434000,-0.079054,-0.158108,0.368075,-1.237161,0.297129
3.436000,-0.078337,-0.156673,0.370406,-1.235010,0.298743
3.438000,-0.077608,-0.155217,0.372772,-1.232825,0.300381
3.440000,-0.076869,-0.153739,0.375174,-1.230608,0.302044
3.442000,-0.076119,-0.152239,0.377612,-1.228358,0.303731
3.444000,-0.075359,-0.150717,0.380084,-1.226076,0.305443
3.446000,-0.074587,-0.149175,0.382591,-1.223762,0.307178
3.448000,-0.073805,-0.147611,0.385132,-1.221416,0.308938
3.450000,-0.073013,-0.146026,0.387708,-1.219039,0.310721
3.452000,-0.072210,-0.144420,0.390317,-1.216630,0.312527
3.454000,-0.071397,-0.142794,0.392960,-1.214191,0.314357
3.456000,-0.070573,-0.141147,0.395636,-1.211720,0.316210
3.458000,-0.069740,-0.139480,0.398345,-1.209220,0.318085
3.460000,-0.068896,-0.137793,0.401087,-1.206689,0.319983
3.462000,-0.068043,-0.136086,0.403861,-1.204129,0.321904
3.464000,-0.067180,-0.134359,0.406666,-1.201539,0.323846
3.466000,-0.066307,-0.132613,0.409504,-1.198920,0.325810
3.468000,-0.065424,-0.130848,0.412372,-1.196272,0.327796
3.470000,-0.064532,-0.129063,0.415272,-1.193595,0.329804
3.472000,-0.063630,-0.127260,0.418202,-1.190890,0.331832
3.474000,-0.062719,-0.125438,0.421162,-1.188158,0.333882
3.476000,-0.061799,-0.123598,0.424153,-1.185398,0.335952
3.478000,-0.060870,-0.121740,0.427172,-1.182610,0.338042
3.480000,-0.059932,-0.119864,0.430221,-1.179796,0.340153
3.482000,-0.058985,-0.117970,0.433299,-1.176955,0.342284
3.484000,-0.058029,-0.116059,0.436405,-1.174088,0.344434
3.486000,-0.057065,-0.114130,0.439539,-1.171195,0.346604
3.488000,-0.056092,-0.112185,0.442700,-1.168277,0.348792
3.490000,-0.055111,-0.110222,0.445889,-1.165333,0.351000
3.492000,-0.054122,-0.108244,0.449104,-1.162365,0.353226
3.494000,-0.053124,-0.106249,0.452346,-1.159373,0.355470
3.496000,-0.052119,-0.104238,0.455614,-1.156356,0.357733
3.498000,-0.051105,-0.102211,0.458907,-1.153316,0.360013
3.500000,-0.050084,-0.100169,0.462226,-1.150253,0.362310
3.502000,-0.049056,-0.098111,0.465569,-1.147167,0.364625
3.504000,-0.048020,-0.096039,0.468936,-1.144059,0.366956
3.506000,-0.046976,-0.093952,0.472328,-1.140928,0.369304
3.508000,-0.045925,-0.091851,0.475742,-1.137776,0.371668
3.510000,-0.044868,-0.089735,0.479180,-1.134603,0.374048
3.512000,-0.043803,-0.087606,0.482640,-1.131409,0.376443
3.514000,-0.042732,-0.085463,0.486123,-1.128195,0.378854
3.516000,-0.041653,-0.083307,0.489626,-1.124960,0.381280
3.518000,-0.040569,-0.081138,0.493151,-1.121706,0.383720
3.520000,-0.039478,-0.078956,0.496697,-1.118434,0.386175
3.522000,-0.038381,-0.076761,0.500263,-1.115142,0.388643
3.524000,-0.037277,-0.074555,0.503848,-1.111832,0.391126
3.526000,-0.036168,-0.072337,0.507453,-1.108505,0.393621
3.528000,-0.035053,-0.070107,0.511077,-1.105160,0.396130
3.530000,-0.033933,-0.067866,0.514718,-1.101798,0.398651
3.532000,-0.032807,-0.065614,0.518378,-1.098420,0.401185
3.534000,-0.031675,-0.063351,0.522055,-1.095026,0.403730
3.536000,-0.030539,-0.061078,0.525748,-1.091617,0.406287
3.538000,-0.029397,-0.058795,0.529458,-1.088192,0.408856
3.540000,-0.028251,-0.056502,0.533184,-1.084753,0.411435
3.542000,-0.027100,-0.054200,0.536925,-1.081300,0.414025
3.544000,-0.025944,-0.051889,0.540680,-1.077833,0.416625
3.546000,-0.024785,-0.049569,0.544450,-1.074354,0.419235
3.548000,-0.023620,-0.047241,0.548234,-1.070861,0.421854
3.550000,-0.022452,-0.044904,0.552031,-1.067356,0.424483
3.552000,-0.021280,-0.042560,0.555840,-1.063840,0.427120
3.554000,-0.020104,-0.040208,0.559661,-1.060313,0.429766
3.556000,-0.018925,-0.037850,0.563494,-1.056774,0.432419
3.558000,-0.017742,-0.035484,0.567339,-1.053226,0.435081
3.560000,-0.016556,-0.033112,0.571193,-1.049668,0.437749
3.562000,-0.015367,-0.030734,0.575058,-1.046101,0.440425
3.564000,-0.014175,-0.028350,0.578932,-1.042525,0.443106
3.566000,-0.012980,-0.025960,0.582814,-1.038941,0.445795
3.568000,-0.011783,-0.023566,0.586705,-1.035349,0.448488
3.570000,-0.010583,-0.021167,0.590604,-1.031750,0.451188
3.572000,-0.009381,-0.018763,0.594510,-1.028144,0.453892
3.574000,-0.008178,-0.016355,0.598423,-1.024533,0.456600
