DanielTruong99/gene_pkgs/ros2_pkgs_gene/joint_planner/motion_files/eclipsoid_2.csv
timestamp,L_hip_joint,L_hip2_joint,L_thigh_joint,L_calf_joint,L_toe_joint
0.000000,0.008520,0.020543,-0.297864,-0.211131,0.508704
0.002000,0.008535,0.020555,-0.299549,-0.208620,0.507878
0.004000,0.008550,0.020567,-0.301230,-0.206108,0.507046
0.006000,0.008564,0.020580,-0.302906,-0.203592,0.506206
0.008000,0.008579,0.020592,-0.304578,-0.201073,0.505359
0.010000,0.008593,0.020605,-0.306244,-0.198553,0.504505
0.012000,0.008608,0.020618,-0.307906,-0.196030,0.503643
0.014000,0.008622,0.020631,-0.309563,-0.193505,0.502775
0.016000,0.008637,0.020644,-0.311215,-0.190977,0.501899
0.018000,0.008651,0.020657,-0.312862,-0.188448,0.501017
0.020000,0.008665,0.020670,-0.314503,-0.185917,0.500127
0.022000,0.008665,0.020688,-0.316144,-0.183375,0.499214
0.024000,0.008693,0.020696,-0.317772,-0.180848,0.498327
0.026000,0.008707,0.020710,-0.319398,-0.178312,0.497416
0.028000,0.008720,0.020724,-0.321019,-0.175773,0.496498
0.030000,0.008734,0.020737,-0.322634,-0.173232,0.495573
0.032000,0.008748,0.020751,-0.324244,-0.170691,0.494641
0.034000,0.008761,0.020765,-0.325849,-0.168147,0.493701
0.036000,0.008774,0.020779,-0.327447,-0.165603,0.492755
0.038000,0.008788,0.020793,-0.329041,-0.163057,0.491802
0.040000,0.008801,0.020807,-0.330627,-0.160510,0.490842
0.042000,0.008814,0.020821,-0.332209,-0.157962,0.489875
0.044000,0.008827,0.020836,-0.333784,-0.155413,0.488901
0.046000,0.008840,0.020850,-0.335353,-0.152862,0.487920
0.048000,0.008853,0.020865,-0.336917,-0.150311,0.486932
0.050000,0.008865,0.020880,-0.338474,-0.147759,0.485938
0.052000,0.008878,0.020895,-0.340026,-0.145206,0.484935
0.054000,0.008890,0.020910,-0.341571,-0.142652,0.483926
0.056000,0.008903,0.020924,-0.343109,-0.140099,0.482911
0.058000,0.008915,0.020940,-0.344641,-0.137544,0.481888
0.060000,0.008927,0.020955,-0.346167,-0.134989,0.480859
0.062000,0.008939,0.020970,-0.347686,-0.132433,0.479822
0.064000,0.008951,0.020986,-0.349199,-0.129878,0.478779
0.066000,0.008963,0.021001,-0.350704,-0.127322,0.477729
0.068000,0.008974,0.021017,-0.352203,-0.124766,0.476671
0.070000,0.008986,0.021033,-0.353696,-0.122210,0.475608
0.072000,0.008998,0.021048,-0.355181,-0.119654,0.474537
0.074000,0.009009,0.021064,-0.356660,-0.117098,0.473459
0.076000,0.009020,0.021080,-0.358131,-0.114542,0.472375
0.078000,0.009031,0.021097,-0.359595,-0.111987,0.471283
0.080000,0.009042,0.021113,-0.361053,-0.109431,0.470185
0.082000,0.009053,0.021129,-0.362503,-0.106876,0.469080
0.084000,0.009064,0.021146,-0.363945,-0.104323,0.467968
0.086000,0.009060,0.021167,-0.365384,-0.101762,0.466833
0.088000,0.009085,0.021179,-0.366809,-0.099215,0.465725
0.090000,0.009095,0.021196,-0.368229,-0.096663,0.464592
0.092000,0.009106,0.021213,-0.369642,-0.094112,0.463453
0.094000,0.009102,0.021234,-0.371050,-0.091554,0.462291
0.096000,0.009126,0.021247,-0.372445,-0.089011,0.461156
0.098000,0.009121,0.021269,-0.373837,-0.086456,0.459979
0.100000,0.009145,0.021281,-0.375217,-0.083915,0.458831
0.102000,0.009155,0.021299,-0.376591,-0.081369,0.457658
0.104000,0.009165,0.021316,-0.377957,-0.078824,0.456479
0.106000,0.009174,0.021334,-0.379315,-0.076280,0.455293
0.108000,0.009183,0.021351,-0.380665,-0.073737,0.454100
0.110000,0.009192,0.021369,-0.382006,-0.071197,0.452901
0.112000,0.009201,0.021387,-0.383340,-0.068658,0.451695
0.114000,0.009210,0.021405,-0.384665,-0.066120,0.450482
0.116000,0.009219,0.021423,-0.385981,-0.063584,0.449263
0.118000,0.009227,0.021442,-0.387290,-0.061050,0.448037
0.120000,0.009222,0.021464,-0.388592,-0.058511,0.446787
0.122000,0.009244,0.021478,-0.389881,-0.055988,0.445566
0.124000,0.009252,0.021497,-0.391164,-0.053459,0.444320
0.126000,0.009260,0.021515,-0.392438,-0.050933,0.443068
0.128000,0.009268,0.021534,-0.393702,-0.048410,0.441809
0.130000,0.009262,0.021557,-0.394961,-0.045882,0.440526
0.132000,0.009283,0.021572,-0.396206,-0.043369,0.439271
0.134000,0.009290,0.021591,-0.397444,-0.040853,0.437993
0.136000,0.009297,0.021610,-0.398674,-0.038338,0.436708
0.138000,0.009291,0.021633,-0.399896,-0.035820,0.435398
0.140000,0.009311,0.021649,-0.401105,-0.033317,0.434118
0.142000,0.009318,0.021668,-0.402307,-0.030811,0.432813
0.144000,0.009325,0.021688,-0.403499,-0.028308,0.431502
0.146000,0.009331,0.021707,-0.404683,-0.025807,0.430184
0.148000,0.009325,0.021730,-0.405859,-0.023302,0.428842
0.150000,0.009343,0.021747,-0.407020,-0.020815,0.427530
0.152000,0.009349,0.021767,-0.408175,-0.018324,0.426193
0.154000,0.009343,0.021790,-0.409323,-0.015828,0.424831
0.156000,0.009361,0.021807,-0.410455,-0.013351,0.423500
0.158000,0.009366,0.021827,-0.411581,-0.010869,0.422143
0.160000,0.009359,0.021850,-0.412699,-0.008384,0.420762
0.162000,0.009377,0.021868,-0.413802,-0.005917,0.419412
0.164000,0.009381,0.021888,-0.414898,-0.003446,0.418037
0.166000,0.009386,0.021909,-0.415983,-0.000979,0.416655
0.168000,0.009391,0.021930,-0.417059,0.001485,0.415267
0.170000,0.009384,0.021953,-0.418127,0.003951,0.413854
0.172000,0.009399,0.021971,-0.419180,0.006400,0.412472
0.174000,0.009403,0.021992,-0.420225,0.008852,0.411065
0.176000,0.009407,0.022013,-0.421259,0.011300,0.409652
0.178000,0.009411,0.022035,-0.422284,0.013743,0.408233
0.180000,0.009415,0.022056,-0.423297,0.016182,0.406808
0.182000,0.009418,0.022077,-0.424300,0.018617,0.405376
0.184000,0.009411,0.022100,-0.425296,0.021055,0.403918
0.186000,0.009424,0.022120,-0.426275,0.023474,0.402493
0.188000,0.009427,0.022142,-0.427246,0.025895,0.401043
0.190000,0.009428,0.022164,-0.428207,0.028314,0.399583
0.192000,0.009432,0.022185,-0.429156,0.030724,0.398124
0.194000,0.009434,0.022207,-0.430095,0.033132,0.396655
0.196000,0.009436,0.022229,-0.431023,0.035534,0.395180
0.198000,0.009438,0.022251,-0.431939,0.037931,0.393699
0.200000,0.009440,0.022273,-0.432845,0.040324,0.392212
0.202000,0.009441,0.022296,-0.433739,0.042711,0.390719
0.204000,0.009443,0.022318,-0.434623,0.045094,0.389220
0.206000,0.009444,0.022340,-0.435495,0.047471,0.387715
0.208000,0.009444,0.022363,-0.436356,0.049843,0.386204
0.210000,0.009445,0.022385,-0.437205,0.052209,0.384687
0.212000,0.009446,0.022408,-0.438043,0.054570,0.383164
0.214000,0.009446,0.022431,-0.438869,0.056925,0.381635
0.216000,0.009446,0.022454,-0.439684,0.059274,0.380100
0.218000,0.009446,0.022476,-0.440487,0.061618,0.378559
0.220000,0.009445,0.022499,-0.441279,0.063956,0.377013
0.222000,0.009445,0.022522,-0.442058,0.066288,0.375460
0.224000,0.009444,0.022546,-0.442826,0.068614,0.373902
0.226000,0.009436,0.022568,-0.443585,0.070942,0.372317
0.228000,0.009442,0.022592,-0.444326,0.073248,0.370769
0.230000,0.009441,0.022615,-0.445059,0.075555,0.369193
0.232000,0.009439,0.022639,-0.445779,0.077857,0.367612
0.234000,0.009437,0.022662,-0.446487,0.080152,0.366025
0.236000,0.009435,0.022686,-0.447184,0.082441,0.364432
0.238000,0.009433,0.022709,-0.447867,0.084723,0.362834
0.240000,0.009430,0.022733,-0.448539,0.086998,0.361230
0.242000,0.009428,0.022757,-0.449199,0.089267,0.359621
0.244000,0.009425,0.022781,-0.449846,0.091529,0.358006
0.246000,0.009421,0.022805,-0.450481,0.093784,0.356385
0.248000,0.009418,0.022829,-0.451103,0.096032,0.354760
0.250000,0.009410,0.022850,-0.451715,0.098282,0.353106
0.252000,0.009411,0.022877,-0.452309,0.100507,0.351491
0.254000,0.009406,0.022901,-0.452894,0.102734,0.349849
0.256000,0.009402,0.022925,-0.453466,0.104954,0.348201
0.258000,0.009398,0.022950,-0.454026,0.107166,0.346548
0.260000,0.009393,0.022974,-0.454572,0.109371,0.344890
0.262000,0.009388,0.022998,-0.455106,0.111568,0.343226
0.264000,0.009383,0.023023,-0.455627,0.113759,0.341557
0.266000,0.009377,0.023047,-0.456135,0.115941,0.339882
0.268000,0.009371,0.023072,-0.456630,0.118115,0.338203
0.270000,0.009366,0.023096,-0.457112,0.120282,0.336519
0.272000,0.009359,0.023121,-0.457582,0.122441,0.334829
0.274000,0.009353,0.023146,-0.458038,0.124592,0.333134
0.276000,0.009346,0.023171,-0.458481,0.126734,0.331434
0.278000,0.009339,0.023195,-0.458910,0.128869,0.329729
0.280000,0.009332,0.023220,-0.459327,0.130995,0.328020
0.282000,0.009325,0.023245,-0.459730,0.133114,0.326305
0.284000,0.009317,0.023270,-0.460120,0.135224,0.324585
0.286000,0.009309,0.023295,-0.460497,0.137325,0.322860
0.288000,0.009301,0.023320,-0.460861,0.139418,0.321131
0.290000,0.009293,0.023345,-0.461211,0.141502,0.319397
0.292000,0.009284,0.023370,-0.461547,0.143577,0.317658
0.294000,0.009275,0.023395,-0.461871,0.145645,0.315914
0.296000,0.009266,0.023421,-0.462180,0.147703,0.314165
0.298000,0.009257,0.023446,-0.462476,0.149751,0.312412
0.300000,0.009247,0.023471,-0.462758,0.151792,0.310655
0.302000,0.009237,0.023496,-0.463027,0.153823,0.308892
0.304000,0.009227,0.023522,-0.463282,0.155844,0.307126
0.306000,0.009217,0.023547,-0.463524,0.157858,0.305354
0.308000,0.009206,0.023572,-0.463751,0.159860,0.303579
0.310000,0.009195,0.023598,-0.463965,0.161855,0.301799
0.312000,0.009184,0.023623,-0.464165,0.163839,0.300014
0.314000,0.009172,0.023649,-0.464352,0.165814,0.298226
0.316000,0.009161,0.023674,-0.464524,0.167779,0.296433
0.318000,0.009149,0.023700,-0.464682,0.169735,0.294636
0.320000,0.009137,0.023725,-0.464827,0.171680,0.292835
0.322000,0.009124,0.023751,-0.464958,0.173616,0.291029
0.324000,0.009111,0.023776,-0.465074,0.175542,0.289220
0.326000,0.009098,0.023802,-0.465177,0.177458,0.287407
0.328000,0.009085,0.023827,-0.465265,0.179364,0.285589
0.330000,0.009072,0.023853,-0.465340,0.181260,0.283768
0.332000,0.009058,0.023878,-0.465400,0.183145,0.281943
0.334000,0.009044,0.023904,-0.465446,0.185020,0.280114
0.336000,0.009029,0.023929,-0.465479,0.186885,0.278282
0.338000,0.009015,0.023955,-0.465496,0.188739,0.276446
0.340000,0.009000,0.023980,-0.465500,0.190583,0.274606
0.342000,0.008985,0.024006,-0.465490,0.192416,0.272762
0.344000,0.008969,0.024031,-0.465465,0.194238,0.270915
0.346000,0.008954,0.024057,-0.465426,0.196050,0.269065
0.348000,0.008938,0.024082,-0.465373,0.197851,0.267211
0.350000,0.008922,0.024108,-0.465306,0.199641,0.265354
0.352000,0.008905,0.024133,-0.465224,0.201419,0.263494
0.354000,0.008888,0.024159,-0.465128,0.203188,0.261630
0.356000,0.008871,0.024184,-0.465018,0.204944,0.259763
0.358000,0.008854,0.024210,-0.464893,0.206689,0.257894
0.360000,0.008836,0.024235,-0.464755,0.208423,0.256021
0.362000,0.008819,0.024260,-0.464601,0.210146,0.254145
0.364000,0.008801,0.024286,-0.464433,0.211857,0.252266
0.366000,0.008782,0.024311,-0.464252,0.213556,0.250385
0.368000,0.008764,0.024336,-0.464055,0.215245,0.248500
0.370000,0.008745,0.024362,-0.463844,0.216921,0.246613
0.372000,0.008732,0.024379,-0.463620,0.218595,0.244701
0.374000,0.008706,0.024412,-0.463380,0.220238,0.242832
0.376000,0.008693,0.024429,-0.463126,0.221889,0.240914
0.378000,0.008666,0.024462,-0.462857,0.223508,0.239040
0.380000,0.008646,0.024487,-0.462574,0.225125,0.237140
0.382000,0.008625,0.024512,-0.462277,0.226730,0.235238
0.384000,0.008605,0.024537,-0.461965,0.228322,0.233334
0.386000,0.008584,0.024562,-0.461639,0.229903,0.231428
0.388000,0.008562,0.024587,-0.461299,0.231470,0.229520
0.390000,0.008541,0.024612,-0.460944,0.233026,0.227609
0.392000,0.008526,0.024628,-0.460576,0.234578,0.225676
0.394000,0.008497,0.024662,-0.460191,0.236099,0.223784
0.396000,0.008474,0.024686,-0.459793,0.237617,0.221868
0.398000,0.008451,0.024711,-0.459381,0.239123,0.219950
0.400000,0.008428,0.024735,-0.458954,0.240615,0.218031
0.402000,0.008405,0.024760,-0.458513,0.242095,0.216111
0.404000,0.008382,0.024784,-0.458058,0.243562,0.214189
0.406000,0.008358,0.024808,-0.457588,0.245016,0.212265
0.408000,0.008334,0.024833,-0.457104,0.246457,0.210340
0.410000,0.008310,0.024857,-0.456605,0.247884,0.208415
0.412000,0.008285,0.024881,-0.456093,0.249299,0.206487
0.414000,0.008260,0.024905,-0.455566,0.250701,0.204559
0.416000,0.008235,0.024929,-0.455025,0.252088,0.202630
0.418000,0.008210,0.024953,-0.454470,0.253464,0.200700
0.420000,0.008184,0.024976,-0.453900,0.254825,0.198770
0.422000,0.008158,0.025000,-0.453316,0.256172,0.196838
0.424000,0.008132,0.025023,-0.452718,0.257507,0.194906
0.426000,0.008106,0.025047,-0.452106,0.258828,0.192973
0.428000,0.008079,0.025070,-0.451480,0.260135,0.191040
0.430000,0.008052,0.025094,-0.450840,0.261428,0.189107
0.432000,0.008025,0.025117,-0.450185,0.262708,0.187173
0.434000,0.007998,0.025140,-0.449517,0.263974,0.185239
0.436000,0.007970,0.025163,-0.448834,0.265225,0.183306
0.438000,0.007942,0.025186,-0.448139,0.266463,0.181372
0.440000,0.007914,0.025208,-0.447428,0.267687,0.179438
0.442000,0.007894,0.025223,-0.446704,0.268904,0.177486
0.444000,0.007857,0.025253,-0.445966,0.270092,0.175571
0.446000,0.007828,0.025276,-0.445214,0.271273,0.173638
0.448000,0.007799,0.025298,-0.444449,0.272441,0.171706
0.450000,0.007770,0.025320,-0.443669,0.273593,0.169774
0.452000,0.007740,0.025342,-0.442876,0.274732,0.167843
0.454000,0.007710,0.025364,-0.442069,0.275856,0.165912
0.456000,0.007680,0.025386,-0.441249,0.276965,0.163983
0.458000,0.007656,0.025404,-0.440415,0.278065,0.162040
0.460000,0.007624,0.025426,-0.439568,0.279145,0.160115
0.462000,0.007588,0.025450,-0.438707,0.280206,0.158200
0.464000,0.007557,0.025471,-0.437832,0.281258,0.156275
0.466000,0.007526,0.025492,-0.436945,0.282294,0.154351
0.468000,0.007497,0.025512,-0.436043,0.283317,0.152424
0.470000,0.007463,0.025534,-0.435129,0.284322,0.150508
0.472000,0.007431,0.025555,-0.434201,0.285313,0.148590
0.474000,0.007399,0.025575,-0.433261,0.286290,0.146672
0.476000,0.007366,0.025595,-0.432306,0.287252,0.144757
0.478000,0.007334,0.025616,-0.431340,0.288199,0.142844
0.480000,0.007301,0.025636,-0.430359,0.289130,0.140932
0.482000,0.007268,0.025655,-0.429366,0.290046,0.139023
0.484000,0.007235,0.025675,-0.428360,0.290948,0.137116
0.486000,0.007201,0.025694,-0.427342,0.291834,0.135212
0.488000,0.007167,0.025714,-0.426311,0.292704,0.133310
0.490000,0.007134,0.025733,-0.425266,0.293560,0.131411
0.492000,0.007100,0.025752,-0.424210,0.294400,0.129515
0.494000,0.007065,0.025771,-0.423140,0.295224,0.127621
0.496000,0.007031,0.025790,-0.422058,0.296034,0.125730
0.498000,0.006996,0.025808,-0.420964,0.296827,0.123843
0.500000,0.006961,0.025826,-0.419857,0.297605,0.121958
0.502000,0.006926,0.025844,-0.418738,0.298368,0.120077
0.504000,0.006891,0.025862,-0.417607,0.299115,0.118199
0.506000,0.006856,0.025880,-0.416463,0.299846,0.116324
0.508000,0.006820,0.025898,-0.415307,0.300561,0.114454
0.510000,0.006790,0.025910,-0.414140,0.301266,0.112574
0.512000,0.006748,0.025932,-0.412960,0.301945,0.110724
0.514000,0.006718,0.025944,-0.411769,0.302618,0.108852
0.516000,0.006676,0.025966,-0.410566,0.303266,0.107009
0.518000,0.006639,0.025983,-0.409351,0.303902,0.105159
0.520000,0.006603,0.025999,-0.408124,0.304523,0.103312
0.522000,0.006571,0.026013,-0.406886,0.305131,0.101459
0.524000,0.006529,0.026031,-0.405637,0.305717,0.099632
0.526000,0.006492,0.026047,-0.404376,0.306289,0.097798
0.528000,0.006455,0.026063,-0.403103,0.306846,0.095970
0.530000,0.006417,0.026078,-0.401820,0.307387,0.094146
0.532000,0.006380,0.026093,-0.400526,0.307912,0.092327
0.534000,0.006342,0.026108,-0.399220,0.308420,0.090513
0.536000,0.006304,0.026123,-0.397904,0.308913,0.088705
0.538000,0.006266,0.026137,-0.396576,0.309389,0.086902
0.540000,0.006228,0.026152,-0.395238,0.309849,0.085104
0.542000,0.006190,0.026166,-0.393889,0.310293,0.083311
0.544000,0.006151,0.026180,-0.392530,0.310721,0.081525
0.546000,0.006113,0.026193,-0.391160,0.311132,0.079744
0.548000,0.006074,0.026207,-0.389780,0.311527,0.077969
0.550000,0.006036,0.026220,-0.388389,0.311906,0.076200
0.552000,0.005997,0.026233,-0.386988,0.312269,0.074437
0.554000,0.005958,0.026246,-0.385577,0.312615,0.072680
0.556000,0.005919,0.026258,-0.384156,0.312945,0.070930
0.558000,0.005882,0.026268,-0.382725,0.313261,0.069177
0.560000,0.005840,0.026283,-0.381284,0.313556,0.067448
0.562000,0.005801,0.026294,-0.379834,0.313836,0.065717
0.564000,0.005761,0.026306,-0.378374,0.314101,0.063993
0.566000,0.005722,0.026318,-0.376904,0.314349,0.062276
0.568000,0.005682,0.026329,-0.375425,0.314581,0.060566
0.570000,0.005642,0.026340,-0.373937,0.314796,0.058863
0.572000,0.005603,0.026350,-0.372439,0.314995,0.057163
0.574000,0.005563,0.026361,-0.370932,0.315177,0.055478
0.576000,0.005523,0.026371,-0.369416,0.315343,0.053797
0.578000,0.005483,0.026379,-0.367892,0.315494,0.052116
0.580000,0.005442,0.026391,-0.366358,0.315625,0.050458
0.582000,0.005402,0.026400,-0.364816,0.315742,0.048800
0.584000,0.005362,0.026409,-0.363265,0.315842,0.047149
0.586000,0.005322,0.026418,-0.361706,0.315925,0.045506
0.588000,0.005281,0.026427,-0.360139,0.315992,0.043873
0.590000,0.005241,0.026436,-0.358562,0.316042,0.042247
0.592000,0.005200,0.026444,-0.356978,0.316076,0.040629
0.594000,0.005160,0.026452,-0.355386,0.316094,0.039020
0.596000,0.005119,0.026460,-0.353786,0.316095,0.037419
0.598000,0.005079,0.026467,-0.352178,0.316080,0.035827
0.600000,0.005038,0.026474,-0.350562,0.316048,0.034244
0.602000,0.004998,0.026481,-0.348939,0.316000,0.032669
0.604000,0.004957,0.026488,-0.347308,0.315935,0.031104
0.606000,0.004916,0.026495,-0.345670,0.315854,0.029547
0.608000,0.004876,0.026501,-0.344024,0.315756,0.028000
0.610000,0.004835,0.026507,-0.342371,0.315642,0.026462
0.612000,0.004794,0.026513,-0.340712,0.315511,0.024933
0.614000,0.004753,0.026518,-0.339045,0.315364,0.023414
0.616000,0.004713,0.026524,-0.337371,0.315201,0.021904
0.618000,0.004672,0.026529,-0.335691,0.315021,0.020405
0.620000,0.004631,0.026533,-0.334004,0.314824,0.018914
0.622000,0.004590,0.026538,-0.332310,0.314612,0.017434
0.624000,0.004550,0.026542,-0.330611,0.314383,0.015963
0.626000,0.004509,0.026546,-0.328904,0.314138,0.014503
0.628000,0.004468,0.026550,-0.327192,0.313876,0.013053
0.630000,0.004428,0.026553,-0.325474,0.313598,0.011613
0.632000,0.004387,0.026557,-0.323750,0.313304,0.010184
0.634000,0.004347,0.026560,-0.322020,0.312993,0.008765
0.636000,0.004306,0.026562,-0.320284,0.312666,0.007357
0.638000,0.004266,0.026565,-0.318542,0.312323,0.005959
0.640000,0.004225,0.026567,-0.316795,0.311964,0.004572
0.642000,0.004184,0.026569,-0.315043,0.311589,0.003195
0.644000,0.004144,0.026571,-0.313285,0.311197,0.001830
0.646000,0.004104,0.026572,-0.311523,0.310789,0.000476
0.648000,0.004064,0.026573,-0.309756,0.310365,-0.000868
0.650000,0.004023,0.026574,-0.307983,0.309925,-0.002200
0.652000,0.003983,0.026575,-0.306205,0.309469,-0.003520
0.654000,0.003943,0.026576,-0.304423,0.308997,-0.004830
0.656000,0.003903,0.026576,-0.302636,0.308509,-0.006128
0.658000,0.003863,0.026576,-0.300845,0.308005,-0.007414
0.660000,0.003823,0.026576,-0.299050,0.307485,-0.008689
0.662000,0.003783,0.026575,-0.297250,0.306949,-0.009952
0.664000,0.003744,0.026574,-0.295446,0.306397,-0.011203
0.666000,0.003704,0.026573,-0.293639,0.305829,-0.012443
0.668000,0.003665,0.026572,-0.291827,0.305246,-0.013670
0.670000,0.003625,0.026571,-0.290012,0.304646,-0.014886
0.672000,0.003586,0.026569,-0.288192,0.304031,-0.016090
0.674000,0.003547,0.026567,-0.286370,0.303400,-0.017281
0.676000,0.003507,0.026565,-0.284544,0.302753,-0.018460
0.678000,0.003468,0.026562,-0.282714,0.302091,-0.019627
0.680000,0.003429,0.026559,-0.280881,0.301413,-0.020781
0.682000,0.003391,0.026556,-0.279046,0.300720,-0.021923
0.684000,0.003352,0.026553,-0.277207,0.300011,-0.023052
0.686000,0.003313,0.026550,-0.275365,0.299286,-0.024169
0.688000,0.003275,0.026546,-0.273520,0.298546,-0.025273
0.690000,0.003236,0.026542,-0.271674,0.297792,-0.026364
0.692000,0.003198,0.026538,-0.269824,0.297021,-0.027443
0.694000,0.003160,0.026534,-0.267971,0.296234,-0.028509
0.696000,0.003117,0.026530,-0.266117,0.295434,-0.029563
0.698000,0.003084,0.026524,-0.264260,0.294617,-0.030601
0.700000,0.003047,0.026519,-0.262401,0.293785,-0.031628
0.702000,0.003009,0.026514,-0.260540,0.292939,-0.032642
0.704000,0.002972,0.026508,-0.258677,0.292076,-0.033642
0.706000,0.002934,0.026503,-0.256813,0.291199,-0.034629
0.708000,0.002897,0.026497,-0.254946,0.290307,-0.035603
0.710000,0.002860,0.026491,-0.253078,0.289400,-0.036564
0.712000,0.002823,0.026484,-0.251208,0.288478,-0.037511
0.714000,0.002787,0.026477,-0.249338,0.287542,-0.038445
0.716000,0.002750,0.026471,-0.247466,0.286591,-0.039365
0.718000,0.002714,0.026463,-0.245592,0.285624,-0.040271
0.720000,0.002678,0.026456,-0.243717,0.284643,-0.041165
0.722000,0.002642,0.026449,-0.241842,0.283647,-0.042044
0.724000,0.002606,0.026441,-0.239965,0.282637,-0.042909
0.726000,0.002570,0.026433,-0.238088,0.281612,-0.043762
0.728000,0.002530,0.026425,-0.236210,0.280574,-0.044600
0.730000,0.002500,0.026416,-0.234332,0.279519,-0.045424
0.732000,0.002464,0.026408,-0.232452,0.278450,-0.046235
0.734000,0.002429,0.026399,-0.230573,0.277369,-0.047031
0.736000,0.002395,0.026390,-0.228693,0.276272,-0.047814
0.738000,0.002360,0.026381,-0.226813,0.275161,-0.048582
0.740000,0.002326,0.026371,-0.224933,0.274036,-0.049337
0.742000,0.002292,0.026362,-0.223053,0.272897,-0.050077
0.744000,0.002258,0.026352,-0.221172,0.271743,-0.050804
0.746000,0.002224,0.026342,-0.219293,0.270576,-0.051516
0.748000,0.002190,0.026332,-0.217413,0.269395,-0.052214
0.750000,0.002156,0.026321,-0.215534,0.268200,-0.052898
0.752000,0.002123,0.026311,-0.213655,0.266992,-0.053568
0.754000,0.002090,0.026300,-0.211776,0.265769,-0.054223
0.756000,0.002058,0.026289,-0.209899,0.264533,-0.054864
0.758000,0.002022,0.026278,-0.208023,0.263284,-0.055491
0.760000,0.001993,0.026267,-0.206146,0.262020,-0.056104
0.762000,0.001961,0.026255,-0.204270,0.260742,-0.056702
0.764000,0.001929,0.026243,-0.202396,0.259452,-0.057286
0.766000,0.001897,0.026231,-0.200522,0.258149,-0.057855
0.768000,0.001865,0.026219,-0.198650,0.256832,-0.058410
0.770000,0.001834,0.026207,-0.196779,0.255502,-0.058950
0.772000,0.001803,0.026195,-0.194909,0.254158,-0.059476
0.774000,0.001772,0.026182,-0.193041,0.252802,-0.059988
0.776000,0.001741,0.026169,-0.191175,0.251433,-0.060485
0.778000,0.001711,0.026156,-0.189309,0.250050,-0.060967
0.780000,0.001681,0.026143,-0.187445,0.248655,-0.061435
0.782000,0.001651,0.026130,-0.185583,0.247247,-0.061889
0.784000,0.001621,0.026117,-0.183723,0.245826,-0.062328
0.786000,0.001590,0.026103,-0.181865,0.244393,-0.062750
0.788000,0.001562,0.026089,-0.180008,0.242946,-0.063161
0.790000,0.001533,0.026075,-0.178154,0.241487,-0.063557
0.792000,0.001504,0.026061,-0.176302,0.240016,-0.063937
0.794000,0.001475,0.026047,-0.174451,0.238531,-0.064303
0.796000,0.001447,0.026033,-0.172604,0.237036,-0.064655
0.798000,0.001419,0.026018,-0.170758,0.235528,-0.064992
0.800000,0.001391,0.026003,-0.168916,0.234008,-0.065312
0.802000,0.001363,0.025989,-0.167074,0.232474,-0.065622
0.804000,0.001336,0.025974,-0.165236,0.230929,-0.065914
0.806000,0.001309,0.025958,-0.163400,0.229372,-0.066193
0.808000,0.001282,0.025943,-0.161568,0.227804,-0.066457
0.810000,0.001255,0.025928,-0.159737,0.226223,-0.066706
0.812000,0.001228,0.025912,-0.157910,0.224631,-0.066941
0.814000,0.001202,0.025897,-0.156085,0.223027,-0.067160
0.816000,0.001176,0.025881,-0.154263,0.221411,-0.067366
0.818000,0.001150,0.025865,-0.152445,0.219783,-0.067557
0.820000,0.001126,0.025848,-0.150631,0.218146,-0.067730
0.822000,0.001100,0.025833,-0.148817,0.216494,-0.067895
0.824000,0.001075,0.025816,-0.147008,0.214832,-0.068042
0.826000,0.001050,0.025800,-0.145202,0.213160,-0.068175
0.828000,0.001026,0.025783,-0.143399,0.211476,-0.068293
0.830000,0.001001,0.025767,-0.141600,0.209780,-0.068397
0.832000,0.000977,0.025750,-0.139804,0.208074,-0.068486
0.834000,0.000953,0.025733,-0.138012,0.206357,-0.068561
0.836000,0.000930,0.025716,-0.136223,0.204628,-0.068621
0.838000,0.000906,0.025699,-0.134437,0.202889,-0.068667
0.840000,0.000883,0.025682,-0.132656,0.201139,-0.068698
0.842000,0.000861,0.025664,-0.130878,0.199379,-0.068715
0.844000,0.000838,0.025647,-0.129104,0.197608,-0.068718
0.846000,0.000816,0.025629,-0.127334,0.195826,-0.068706
0.848000,0.000794,0.025612,-0.125567,0.194034,-0.068680
0.850000,0.000772,0.025594,-0.123805,0.192231,-0.068639
0.852000,0.000750,0.025576,-0.122047,0.190418,-0.068584
0.854000,0.000729,0.025558,-0.120292,0.188595,-0.068516
0.856000,0.000713,0.025539,-0.118544,0.186763,-0.068429
0.858000,0.000687,0.025522,-0.116796,0.184918,-0.068335
0.860000,0.000667,0.025503,-0.115054,0.183065,-0.068223
0.862000,0.000647,0.025485,-0.113316,0.181201,-0.068097
0.864000,0.000626,0.025467,-0.111583,0.179329,-0.067957
0.866000,0.000607,0.025448,-0.109854,0.177445,-0.067803
0.868000,0.000587,0.025430,-0.108129,0.175553,-0.067634
0.870000,0.000568,0.025411,-0.106409,0.173650,-0.067452
0.872000,0.000549,0.025392,-0.104693,0.171738,-0.067256
0.874000,0.000530,0.025373,-0.102982,0.169817,-0.067046
0.876000,0.000511,0.025354,-0.101275,0.167886,-0.066821
0.878000,0.000493,0.025335,-0.099573,0.165946,-0.066583
0.880000,0.000475,0.025316,-0.097875,0.163997,-0.066331
0.882000,0.000457,0.025297,-0.096183,0.162039,-0.066065
0.884000,0.000440,0.025278,-0.094495,0.160071,-0.065785
0.886000,0.000422,0.025259,-0.092811,0.158094,-0.065492
0.888000,0.000406,0.025239,-0.091133,0.156109,-0.065184
0.890000,0.000389,0.025220,-0.089459,0.154114,-0.064863
0.892000,0.000373,0.025201,-0.087791,0.152111,-0.064528
0.894000,0.000356,0.025181,-0.086126,0.150099,-0.064180
0.896000,0.000340,0.025161,-0.084468,0.148078,-0.063818
0.898000,0.000324,0.025142,-0.082814,0.146049,-0.063443
0.900000,0.000308,0.025122,-0.081165,0.144011,-0.063054
0.902000,0.000302,0.025101,-0.079523,0.141968,-0.062648
0.904000,0.000287,0.025082,-0.077884,0.139913,-0.062232
0.906000,0.000263,0.025063,-0.076249,0.137848,-0.061806
0.908000,0.000249,0.025043,-0.074620,0.135778,-0.061364
0.910000,0.000234,0.025023,-0.072997,0.133699,-0.060908
0.912000,0.000230,0.025002,-0.071382,0.131614,-0.060436
0.914000,0.000206,0.024983,-0.069767,0.129516,-0.059956
0.916000,0.000193,0.024963,-0.068159,0.127414,-0.059460
0.918000,0.000179,0.024942,-0.066557,0.125303,-0.058952
0.920000,0.000166,0.024922,-0.064961,0.123185,-0.058430
0.922000,0.000153,0.024902,-0.063369,0.121059,-0.057895
0.924000,0.000141,0.024882,-0.061783,0.118926,-0.057347
0.926000,0.000128,0.024862,-0.060203,0.116785,-0.056787
0.928000,0.000116,0.024841,-0.058628,0.114636,-0.056213
0.930000,0.000104,0.024821,-0.057059,0.112481,-0.055627
0.932000,0.000092,0.024800,-0.055494,0.110317,-0.055027
0.934000,0.000081,0.024780,-0.053936,0.108147,-0.054415
0.936000,0.000070,0.024760,-0.052383,0.105970,-0.053791
0.938000,0.000070,0.024738,-0.050839,0.103790,-0.053151
0.940000,0.000059,0.024718,-0.049297,0.101598,-0.052502
0.942000,0.000038,0.024698,-0.047759,0.099396,-0.051841
0.944000,0.000027,0.024677,-0.046229,0.097192,-0.051167
0.946000,0.000017,0.024657,-0.044704,0.094980,-0.050479
0.948000,0.000007,0.024636,-0.043185,0.092761,-0.049780
0.950000,0.000010,0.024614,-0.041675,0.090541,-0.049066
0.952000,-0.000012,0.024595,-0.040165,0.088305,-0.048344
0.954000,-0.000021,0.024574,-0.038664,0.086068,-0.047607
0.956000,-0.000030,0.024554,-0.037168,0.083823,-0.046858
0.958000,-0.000038,0.024533,-0.035678,0.081573,-0.046098
0.960000,-0.000047,0.024512,-0.034194,0.079317,-0.045325
0.962000,-0.000042,0.024490,-0.032719,0.077059,-0.044540
0.964000,-0.000063,0.024471,-0.031244,0.074785,-0.043744
0.966000,-0.000071,0.024450,-0.029778,0.072510,-0.042936
0.968000,-0.000078,0.024429,-0.028317,0.070230,-0.042115
0.970000,-0.000086,0.024409,-0.026863,0.067944,-0.041283
0.972000,-0.000093,0.024388,-0.025415,0.065652,-0.040439
0.974000,-0.000100,0.024367,-0.023972,0.063354,-0.039584
0.976000,-0.000106,0.024346,-0.022536,0.061051,-0.038717
0.978000,-0.000113,0.024326,-0.021105,0.058742,-0.037839
0.980000,-0.000119,0.024305,-0.019681,0.056427,-0.036948
0.982000,-0.000125,0.024284,-0.018263,0.054108,-0.036047
0.984000,-0.000131,0.024263,-0.016851,0.051783,-0.035134
0.986000,-0.000137,0.024243,-0.015445,0.049453,-0.034210
0.988000,-0.000142,0.024222,-0.014044,0.047118,-0.033275
0.990000,-0.000147,0.024201,-0.012651,0.044778,-0.032329
0.992000,-0.000139,0.024179,-0.011266,0.042439,-0.031372
0.994000,-0.000157,0.024160,-0.009881,0.040082,-0.030402
0.996000,-0.000162,0.024139,-0.008506,0.037727,-0.029423
0.998000,-0.000166,0.024118,-0.007137,0.035367,-0.028432
1.000000,-0.000170,0.024097,-0.005773,0.033003,-0.027431
1.002000,-0.000174,0.024077,-0.004417,0.030634,-0.026418
1.004000,-0.000178,0.024056,-0.003066,0.028261,-0.025396
1.006000,-0.000182,0.024035,-0.001722,0.025883,-0.024362
1.008000,-0.000185,0.024015,-0.000383,0.023500,-0.023318
1.010000,-0.000188,0.023994,0.000949,0.021113,-0.022263
1.012000,-0.000191,0.023973,0.002274,0.018722,-0.021198
1.014000,-0.000180,0.023951,0.003589,0.016336,-0.020125
1.016000,-0.000196,0.023932,0.004907,0.013928,-0.019036
1.018000,-0.000199,0.023911,0.006213,0.011525,-0.017939
1.020000,-0.000201,0.023891,0.007514,0.009118,-0.016833
1.022000,-0.000203,0.023870,0.008808,0.006707,-0.015716
1.024000,-0.000205,0.023850,0.010096,0.004292,-0.014589
1.026000,-0.000206,0.023829,0.011377,0.001874,-0.013452
1.028000,-0.000208,0.023809,0.012652,-0.000548,-0.012305
1.030000,-0.000209,0.023788,0.013921,-0.002974,-0.011148
1.032000,-0.000210,0.023768,0.015183,-0.005403,-0.009981
1.034000,-0.000211,0.023747,0.016440,-0.007835,-0.008805
1.036000,-0.000211,0.023727,0.017689,-0.010272,-0.007619
1.038000,-0.000212,0.023707,0.018933,-0.012711,-0.006423
1.040000,-0.000212,0.023686,0.020169,-0.015153,-0.005217
1.042000,-0.000212,0.023666,0.021400,-0.017599,-0.004002
1.044000,-0.000212,0.023646,0.022624,-0.020047,-0.002777
1.046000,-0.000212,0.023625,0.023841,-0.022499,-0.001543
1.048000,-0.000211,0.023605,0.025053,-0.024954,-0.000300
1.050000,-0.000211,0.023585,0.026257,-0.027411,0.000953
1.052000,-0.000210,0.023565,0.027456,-0.029871,0.002214
1.054000,-0.000209,0.023545,0.028647,-0.032334,0.003485
1.056000,-0.000208,0.023524,0.029833,-0.034799,0.004765
1.058000,-0.000206,0.023504,0.031012,-0.037267,0.006054
1.060000,-0.000205,0.023484,0.032184,-0.039737,0.007352
1.062000,-0.000203,0.023464,0.033350,-0.042210,0.008659
1.064000,-0.000201,0.023444,0.034510,-0.044686,0.009975
1.066000,-0.000199,0.023424,0.035662,-0.047162,0.011299
1.068000,-0.000197,0.023404,0.036809,-0.049642,0.012632
1.070000,-0.000195,0.023385,0.037949,-0.052124,0.013974
1.072000,-0.000192,0.023365,0.039082,-0.054608,0.015324
1.074000,-0.000190,0.023345,0.040209,-0.057093,0.016683
1.076000,-0.000187,0.023325,0.041329,-0.059580,0.018050
1.078000,-0.000184,0.023305,0.042443,-0.062070,0.019426
1.080000,-0.000181,0.023286,0.043550,-0.064561,0.020810
1.082000,-0.000177,0.023266,0.044650,-0.067053,0.022201
1.084000,-0.000174,0.023246,0.045745,-0.069548,0.023602
1.086000,-0.000170,0.023227,0.046832,-0.072044,0.025010
1.088000,-0.000166,0.023207,0.047913,-0.074541,0.026426
1.090000,-0.000163,0.023188,0.048988,-0.077040,0.027850
1.092000,-0.000158,0.023168,0.050056,-0.079540,0.029282
1.094000,-0.000154,0.023149,0.051117,-0.082041,0.030722
1.096000,-0.000150,0.023130,0.052172,-0.084543,0.032170
1.098000,-0.000145,0.023110,0.053220,-0.087047,0.033625
1.100000,-0.000140,0.023091,0.054261,-0.089551,0.035088
1.102000,-0.000136,0.023072,0.055296,-0.092057,0.036559
1.104000,-0.000130,0.023053,0.056325,-0.094563,0.038037
1.106000,-0.000125,0.023034,0.057346,-0.097070,0.039522
1.108000,-0.000120,0.023014,0.058361,-0.099578,0.041015
1.110000,-0.000115,0.022995,0.059370,-0.102087,0.042515
1.112000,-0.000109,0.022976,0.060371,-0.104596,0.044022
1.114000,-0.000103,0.022957,0.061367,-0.107105,0.045536
1.116000,-0.000097,0.022939,0.062356,-0.109615,0.047058
1.118000,-0.000091,0.022920,0.063337,-0.112126,0.048586
1.120000,-0.000085,0.022901,0.064313,-0.114636,0.050121
1.122000,-0.000079,0.022882,0.065281,-0.117147,0.051664
1.124000,-0.000072,0.022863,0.066243,-0.119659,0.053212
1.126000,-0.000066,0.022845,0.067199,-0.122169,0.054768
1.128000,-0.000059,0.022826,0.068148,-0.124681,0.056331
1.130000,-0.000052,0.022807,0.069090,-0.127192,0.057900
1.132000,-0.000045,0.022789,0.070025,-0.129703,0.059475
1.134000,-0.000038,0.022770,0.070954,-0.132214,0.061057
1.136000,-0.000031,0.022752,0.071876,-0.134725,0.062646
1.138000,-0.000023,0.022734,0.072791,-0.137234,0.064240
1.140000,-0.000016,0.022715,0.073699,-0.139744,0.065841
1.142000,-0.000008,0.022697,0.074602,-0.142253,0.067448
1.144000,-0.000000,0.022679,0.075497,-0.144762,0.069062
1.146000,0.000008,0.022661,0.076385,-0.147270,0.070681
1.148000,0.000016,0.022643,0.077267,-0.149777,0.072306
1.150000,0.000024,0.022624,0.078143,-0.152284,0.073938
1.152000,0.000032,0.022606,0.079011,-0.154790,0.075575
1.154000,0.000041,0.022589,0.079873,-0.157294,0.077218
1.156000,0.000049,0.022571,0.080728,-0.159797,0.078866
1.158000,0.000058,0.022553,0.081576,-0.162300,0.080520
1.160000,0.000067,0.022535,0.082418,-0.164803,0.082180
1.162000,0.000076,0.022517,0.083252,-0.167302,0.083845
1.164000,0.000085,0.022499,0.084081,-0.169801,0.085516
1.166000,0.000094,0.022482,0.084902,-0.172299,0.087192
1.168000,0.000103,0.022464,0.085717,-0.174795,0.088874
1.170000,0.000112,0.022447,0.086525,-0.177290,0.090561
1.172000,0.000122,0.022429,0.087326,-0.179783,0.092252
1.174000,0.000132,0.022412,0.088120,-0.182275,0.093950
1.176000,0.000141,0.022394,0.088907,-0.184764,0.095651
1.178000,0.000151,0.022377,0.089688,-0.187252,0.097359
1.180000,0.000161,0.022360,0.090462,-0.189738,0.099071
1.182000,0.000171,0.022343,0.091230,-0.192222,0.100787
1.184000,0.000181,0.022325,0.091990,-0.194705,0.102509
1.186000,0.000192,0.022308,0.092744,-0.197184,0.104235
1.188000,0.000202,0.022291,0.093491,-0.199663,0.105966
1.190000,0.000212,0.022274,0.094231,-0.202138,0.107701
1.192000,0.000223,0.022257,0.094964,-0.204611,0.109441
1.194000,0.000234,0.022241,0.095691,-0.207082,0.111185
1.196000,0.000245,0.022224,0.096410,-0.209550,0.112934
1.198000,0.000256,0.022207,0.097123,-0.212016,0.114687
1.200000,0.000267,0.022190,0.097829,-0.214480,0.116444
1.202000,0.000278,0.022174,0.098529,-0.216941,0.118206
1.204000,0.000289,0.022157,0.099221,-0.219399,0.119971
1.206000,0.000300,0.022140,0.099906,-0.221854,0.121741
1.208000,0.000312,0.022124,0.100585,-0.224305,0.123514
1.210000,0.000323,0.022108,0.101257,-0.226755,0.125291
1.212000,0.000335,0.022091,0.101922,-0.229201,0.127072
1.214000,0.000347,0.022075,0.102580,-0.231644,0.128857
1.216000,0.000358,0.022059,0.103231,-0.234084,0.130646
1.218000,0.000371,0.022042,0.103875,-0.236521,0.132438
1.220000,0.000382,0.022026,0.104513,-0.238954,0.134234
1.222000,0.000395,0.022010,0.105143,-0.241384,0.136033
1.224000,0.000407,0.021994,0.105766,-0.243809,0.137835
1.226000,0.000419,0.021978,0.106384,-0.246233,0.139641
1.228000,0.000432,0.021962,0.106993,-0.248652,0.141450
1.230000,0.000444,0.021946,0.107596,-0.251068,0.143263
1.232000,0.000457,0.021931,0.108192,-0.253479,0.145078
1.234000,0.000469,0.021915,0.108781,-0.255886,0.146896
1.236000,0.000482,0.021899,0.109363,-0.258290,0.148718
1.238000,0.000495,0.021884,0.109939,-0.260690,0.150543
1.240000,0.000508,0.021868,0.110507,-0.263086,0.152370
1.242000,0.000521,0.021852,0.111068,-0.265478,0.154200
1.244000,0.000534,0.021837,0.111622,-0.267865,0.156034
1.246000,0.000547,0.021822,0.112169,-0.270248,0.157869
1.248000,0.000560,0.021806,0.112710,-0.272626,0.159707
1.250000,0.000574,0.021791,0.113243,-0.275001,0.161548
1.252000,0.000587,0.021776,0.113769,-0.277370,0.163391
1.254000,0.000601,0.021761,0.114288,-0.279735,0.165236
1.256000,0.000614,0.021746,0.114801,-0.282096,0.167085
1.258000,0.000628,0.021730,0.115306,-0.284451,0.168934
1.260000,0.000642,0.021715,0.115804,-0.286802,0.170787
1.262000,0.000656,0.021701,0.116296,-0.289148,0.172641
1.264000,0.000670,0.021686,0.116780,-0.291488,0.174498
1.266000,0.000684,0.021671,0.117257,-0.293824,0.176356
1.268000,0.000698,0.021656,0.117726,-0.296154,0.178216
1.270000,0.000712,0.021641,0.118189,-0.298480,0.180079
1.272000,0.000726,0.021627,0.118645,-0.300800,0.181943
1.274000,0.000740,0.021612,0.119093,-0.303113,0.183808
1.276000,0.000755,0.021598,0.119535,-0.305423,0.185676
1.278000,0.000769,0.021583,0.119970,-0.307726,0.187545
1.280000,0.000784,0.021569,0.120397,-0.310024,0.189415
1.282000,0.000798,0.021554,0.120818,-0.312317,0.191287
1.284000,0.000813,0.021540,0.121231,-0.314603,0.193160
1.286000,0.000828,0.021526,0.121637,-0.316884,0.195035
1.288000,0.000843,0.021512,0.122035,-0.319158,0.196911
1.290000,0.000857,0.021497,0.122427,-0.321428,0.198788
1.292000,0.000873,0.021483,0.122811,-0.323690,0.200666
1.294000,0.000888,0.021469,0.123189,-0.325947,0.202545
1.296000,0.000903,0.021455,0.123559,-0.328198,0.204425
1.298000,0.000918,0.021442,0.123922,-0.330441,0.206306
1.300000,0.000933,0.021428,0.124277,-0.332679,0.208188
1.302000,0.000949,0.021414,0.124626,-0.334909,0.210070
1.304000,0.000964,0.021400,0.124966,-0.337134,0.211953
1.306000,0.000979,0.021387,0.125300,-0.339352,0.213837
1.308000,0.000995,0.021373,0.125627,-0.341563,0.215722
1.310000,0.001010,0.021359,0.125946,-0.343767,0.217606
1.312000,0.001026,0.021346,0.126258,-0.345965,0.219492
1.314000,0.001042,0.021333,0.126563,-0.348155,0.221378
1.316000,0.001058,0.021319,0.126860,-0.350339,0.223264
1.318000,0.001073,0.021306,0.127150,-0.352516,0.225150
1.320000,0.001089,0.021293,0.127433,-0.354685,0.227037
1.322000,0.001105,0.021279,0.127709,-0.356847,0.228923
1.324000,0.001121,0.021266,0.127977,-0.359002,0.230809
1.326000,0.001137,0.021253,0.128237,-0.361149,0.232696
1.328000,0.001153,0.021240,0.128491,-0.363289,0.234582
1.330000,0.001170,0.021227,0.128736,-0.365421,0.236468
1.332000,0.001186,0.021214,0.128975,-0.367545,0.238354
1.334000,0.001202,0.021201,0.129206,-0.369663,0.240240
1.336000,0.001219,0.021188,0.129430,-0.371772,0.242125
1.338000,0.001235,0.021176,0.129646,-0.373872,0.244010
1.340000,0.001251,0.021163,0.129854,-0.375965,0.245894
1.342000,0.001268,0.021150,0.130056,-0.378050,0.247777
1.344000,0.001285,0.021138,0.130250,-0.380127,0.249660
1.346000,0.001301,0.021125,0.130436,-0.382196,0.251543
1.348000,0.001318,0.021113,0.130615,-0.384257,0.253425
1.350000,0.001335,0.021100,0.130786,-0.386308,0.255305
1.352000,0.001352,0.021088,0.130950,-0.388353,0.257185
1.354000,0.001368,0.021076,0.131106,-0.390387,0.259063
1.356000,0.001385,0.021064,0.131255,-0.392414,0.260941
1.358000,0.001402,0.021051,0.131395,-0.394430,0.262817
1.360000,0.001419,0.021039,0.131529,-0.396439,0.264692
1.362000,0.001436,0.021027,0.131655,-0.398440,0.266566
1.364000,0.001453,0.021015,0.131773,-0.400431,0.268439
1.366000,0.001471,0.021003,0.131884,-0.402413,0.270310
1.368000,0.001488,0.020991,0.131987,-0.404386,0.272181
1.370000,0.001505,0.020979,0.132081,-0.406349,0.274048
1.372000,0.001522,0.020968,0.132169,-0.408304,0.275915
1.374000,0.001540,0.020956,0.132249,-0.410249,0.277780
1.376000,0.001557,0.020944,0.132321,-0.412184,0.279643
1.378000,0.001575,0.020933,0.132386,-0.414111,0.281505
1.380000,0.001592,0.020921,0.132443,-0.416028,0.283365
1.382000,0.001609,0.020909,0.132491,-0.417933,0.285222
1.384000,0.001627,0.020898,0.132533,-0.419832,0.287078
1.386000,0.001645,0.020887,0.132566,-0.421719,0.288931
1.388000,0.001663,0.020875,0.132592,-0.423597,0.290783
1.390000,0.001680,0.020864,0.132610,-0.425463,0.292632
1.392000,0.001698,0.020853,0.132620,-0.427321,0.294480
1.394000,0.001716,0.020842,0.132623,-0.429169,0.296325
1.396000,0.001734,0.020830,0.132617,-0.431006,0.298167
1.398000,0.001752,0.020819,0.132604,-0.432832,0.300007
1.400000,0.001770,0.020808,0.132583,-0.434649,0.301844
1.402000,0.001788,0.020797,0.132554,-0.436455,0.303679
1.404000,0.001806,0.020787,0.132517,-0.438250,0.305511
1.406000,0.001824,0.020776,0.132472,-0.440034,0.307341
1.408000,0.001842,0.020765,0.132419,-0.441808,0.309167
1.410000,0.001860,0.020754,0.132357,-0.443571,0.310990
1.412000,0.001878,0.020743,0.132289,-0.445323,0.312811
1.414000,0.001897,0.020733,0.132212,-0.447064,0.314629
1.416000,0.001915,0.020722,0.132128,-0.448795,0.316444
1.418000,0.001933,0.020712,0.132034,-0.450513,0.318255
1.420000,0.001952,0.020701,0.131934,-0.452222,0.320064
1.422000,0.001970,0.020691,0.131825,-0.453918,0.321869
1.424000,0.001988,0.020681,0.131708,-0.455604,0.323671
1.426000,0.002007,0.020670,0.131583,-0.457276,0.325469
1.428000,0.002025,0.020660,0.131450,-0.458939,0.327265
1.430000,0.002044,0.020650,0.131309,-0.460589,0.329055
1.432000,0.002062,0.020640,0.131160,-0.462229,0.330844
1.434000,0.002081,0.020630,0.131002,-0.463855,0.332628
1.436000,0.002100,0.020620,0.130837,-0.465471,0.334409
1.438000,0.002118,0.020609,0.130663,-0.467073,0.336185
1.440000,0.002137,0.020600,0.130482,-0.468666,0.337959
1.442000,0.002156,0.020590,0.130292,-0.470245,0.339728
1.444000,0.002175,0.020580,0.130094,-0.471812,0.341493
1.446000,0.002193,0.020570,0.129887,-0.473368,0.343254
1.448000,0.002212,0.020561,0.129673,-0.474911,0.345012
1.450000,0.002231,0.020551,0.129450,-0.476441,0.346764
1.452000,0.002250,0.020541,0.129219,-0.477959,0.348513
1.454000,0.002269,0.020532,0.128980,-0.479464,0.350257
1.456000,0.002288,0.020522,0.128732,-0.480957,0.351998
1.458000,0.002307,0.020513,0.128476,-0.482437,0.353733
1.460000,0.002326,0.020503,0.128212,-0.483905,0.355465
1.462000,0.002345,0.020494,0.127940,-0.485359,0.357192
1.464000,0.002364,0.020485,0.127658,-0.486799,0.358913
1.466000,0.002383,0.020476,0.127370,-0.488229,0.360631
1.468000,0.002403,0.020466,0.127072,-0.489644,0.362344
1.470000,0.002421,0.020457,0.126766,-0.491046,0.364051
1.472000,0.002441,0.020448,0.126452,-0.492436,0.365755
1.474000,0.002460,0.020439,0.126129,-0.493811,0.367453
1.476000,0.002480,0.020430,0.125799,-0.495175,0.369147
1.478000,0.002499,0.020421,0.125459,-0.496524,0.370836
1.480000,0.002518,0.020413,0.125111,-0.497859,0.372519
1.482000,0.002538,0.020404,0.124755,-0.499182,0.374197
1.484000,0.002557,0.020395,0.124390,-0.500490,0.375870
1.486000,0.002576,0.020386,0.124016,-0.501783,0.377537
1.488000,0.002596,0.020378,0.123635,-0.503066,0.379200
1.490000,0.002615,0.020369,0.123244,-0.504331,0.380856
1.492000,0.002635,0.020361,0.122847,-0.505586,0.382509
1.494000,0.002654,0.020352,0.122440,-0.506825,0.384155
1.496000,0.002674,0.020344,0.122024,-0.508051,0.385796
1.498000,0.002693,0.020335,0.121600,-0.509261,0.387431
1.500000,0.002713,0.020327,0.121167,-0.510458,0.389060
1.502000,0.002733,0.020319,0.120725,-0.511641,0.390684
1.504000,0.002752,0.020311,0.120275,-0.512809,0.392302
1.506000,0.002772,0.020302,0.119817,-0.513963,0.393914
1.508000,0.002792,0.020294,0.119349,-0.515101,0.395520
1.510000,0.002811,0.020286,0.118874,-0.516227,0.397120
1.512000,0.002831,0.020278,0.118389,-0.517336,0.398714
1.514000,0.002851,0.020270,0.117897,-0.518432,0.400303
1.516000,0.002871,0.020262,0.117396,-0.519514,0.401885
1.518000,0.002891,0.020255,0.116885,-0.520579,0.403461
1.520000,0.002910,0.020247,0.116367,-0.521631,0.405031
1.522000,0.002930,0.020239,0.115839,-0.522666,0.406594
1.524000,0.002950,0.020231,0.115303,-0.523687,0.408150
1.526000,0.002970,0.020224,0.114759,-0.524694,0.409701
1.528000,0.002990,0.020216,0.114206,-0.525686,0.411247
1.530000,0.003010,0.020209,0.113644,-0.526662,0.412784
1.532000,0.003030,0.020201,0.113073,-0.527622,0.414315
1.534000,0.003050,0.020194,0.112494,-0.528568,0.415840
1.536000,0.003070,0.020187,0.111905,-0.529498,0.417358
1.538000,0.003089,0.020179,0.111309,-0.530413,0.418869
1.540000,0.003110,0.020172,0.110703,-0.531312,0.420374
1.542000,0.003130,0.020165,0.110090,-0.532197,0.421872
1.544000,0.003150,0.020158,0.109467,-0.533066,0.423364
1.546000,0.003170,0.020150,0.108835,-0.533917,0.424847
1.548000,0.003190,0.020143,0.108195,-0.534755,0.426324
1.550000,0.003210,0.020136,0.107546,-0.535577,0.427795
1.552000,0.003231,0.020130,0.106888,-0.536383,0.429258
1.554000,0.003251,0.020123,0.106222,-0.537173,0.430714
1.556000,0.003271,0.020116,0.105547,-0.537947,0.432163
1.558000,0.003291,0.020109,0.104864,-0.538705,0.433605
1.560000,0.003311,0.020102,0.104170,-0.539446,0.435039
1.562000,0.003332,0.020096,0.103470,-0.540174,0.436467
1.564000,0.003352,0.020089,0.102760,-0.540884,0.437887
1.566000,0.003372,0.020083,0.102041,-0.541578,0.439300
1.568000,0.003392,0.020076,0.101314,-0.542256,0.440705
1.570000,0.003413,0.020070,0.100577,-0.542918,0.442103
1.572000,0.003433,0.020063,0.099832,-0.543562,0.443492
1.574000,0.003453,0.020057,0.099078,-0.544192,0.444875
1.576000,0.003474,0.020051,0.098316,-0.544806,0.446251
1.578000,0.003494,0.020044,0.097546,-0.545403,0.447619
1.580000,0.003514,0.020038,0.096766,-0.545983,0.448978
1.582000,0.003535,0.020032,0.095977,-0.546547,0.450330
1.584000,0.003555,0.020026,0.095180,-0.547094,0.451675
1.586000,0.003576,0.020020,0.094375,-0.547626,0.453012
1.588000,0.003596,0.020014,0.093560,-0.548140,0.454340
1.590000,0.003616,0.020008,0.092737,-0.548638,0.455661
1.592000,0.003637,0.020002,0.091905,-0.549119,0.456974
1.594000,0.003657,0.019996,0.091064,-0.549584,0.458279
1.596000,0.003678,0.019990,0.090214,-0.550031,0.459576
1.598000,0.003698,0.019985,0.089357,-0.550462,0.460865
1.600000,0.003719,0.019979,0.088490,-0.550877,0.462147
1.602000,0.003739,0.019973,0.087614,-0.551274,0.463418
1.604000,0.003760,0.019968,0.086731,-0.551656,0.464684
1.606000,0.003780,0.019962,0.085839,-0.552021,0.465941
1.608000,0.003801,0.019957,0.084937,-0.552367,0.467189
1.610000,0.003821,0.019952,0.084027,-0.552698,0.468429
1.612000,0.003842,0.019946,0.083108,-0.553011,0.469660
1.614000,0.003863,0.019941,0.082182,-0.553309,0.470885
1.616000,0.003883,0.019936,0.081246,-0.553588,0.472099
1.618000,0.003904,0.019931,0.080302,-0.553851,0.473306
1.620000,0.003924,0.019926,0.079350,-0.554098,0.474505
1.622000,0.003945,0.019920,0.078388,-0.554326,0.475695
1.624000,0.003966,0.019915,0.077418,-0.554538,0.476876
1.626000,0.003986,0.019911,0.076440,-0.554732,0.478049
1.628000,0.004007,0.019906,0.075454,-0.554912,0.479214
1.630000,0.004028,0.019901,0.074458,-0.555072,0.480370
1.632000,0.004048,0.019896,0.073454,-0.555216,0.481517
1.634000,0.004069,0.019891,0.072442,-0.555343,0.482656
1.636000,0.004090,0.019887,0.071422,-0.555452,0.483786
1.638000,0.004110,0.019882,0.070392,-0.555544,0.484907
1.640000,0.004131,0.019877,0.069355,-0.555620,0.486020
1.642000,0.004151,0.019873,0.068308,-0.555677,0.487123
1.644000,0.004172,0.019868,0.067255,-0.555720,0.488220
1.646000,0.004193,0.019864,0.066193,-0.555744,0.489306
1.648000,0.004214,0.019860,0.065122,-0.555751,0.490384
1.650000,0.004235,0.019855,0.064042,-0.555740,0.491453
1.652000,0.004255,0.019851,0.062955,-0.555713,0.492513
1.654000,0.004276,0.019847,0.061858,-0.555668,0.493564
1.656000,0.004297,0.019843,0.060755,-0.555608,0.494606
1.658000,0.004317,0.019839,0.059642,-0.555528,0.495639
1.660000,0.004338,0.019835,0.058522,-0.555432,0.496664
1.662000,0.004359,0.019831,0.057393,-0.555320,0.497680
1.664000,0.004380,0.019827,0.056257,-0.555189,0.498686
1.666000,0.004401,0.019823,0.055112,-0.555043,0.499684
1.668000,0.004421,0.019819,0.053959,-0.554878,0.500672
1.670000,0.004442,0.019815,0.052798,-0.554697,0.501652
1.672000,0.004463,0.019812,0.051628,-0.554498,0.502622
1.674000,0.004484,0.019808,0.050451,-0.554283,0.503584
1.676000,0.004504,0.019804,0.049267,-0.554051,0.504536
1.678000,0.004525,0.019801,0.048073,-0.553801,0.505479
1.680000,0.004546,0.019797,0.046872,-0.553534,0.506413
1.682000,0.004567,0.019794,0.045664,-0.553251,0.507339
1.684000,0.004588,0.019791,0.044446,-0.552949,0.508254
1.686000,0.004608,0.019787,0.043222,-0.552631,0.509161
1.688000,0.004629,0.019784,0.041990,-0.552297,0.510058
1.690000,0.004650,0.019781,0.040749,-0.551945,0.510946
1.692000,0.004671,0.019778,0.039501,-0.551576,0.511825
1.694000,0.004692,0.019775,0.038245,-0.551191,0.512696
1.696000,0.004713,0.019772,0.036982,-0.550788,0.513556
1.698000,0.004733,0.019769,0.035711,-0.550369,0.514408
1.700000,0.004754,0.019766,0.034432,-0.549932,0.515250
1.702000,0.004775,0.019763,0.033146,-0.549479,0.516083
1.704000,0.004796,0.019760,0.031852,-0.549009,0.516907
1.706000,0.004817,0.019758,0.030550,-0.548523,0.517721
1.708000,0.004837,0.019755,0.029242,-0.548019,0.518526
1.710000,0.004858,0.019752,0.027925,-0.547499,0.519322
1.712000,0.004879,0.019750,0.026601,-0.546962,0.520108
1.714000,0.004900,0.019747,0.025270,-0.546408,0.520886
1.716000,0.004920,0.019745,0.023932,-0.545838,0.521654
1.718000,0.004942,0.019743,0.022587,-0.545253,0.522413
1.720000,0.004962,0.019740,0.021233,-0.544648,0.523162
1.722000,0.004983,0.019738,0.019873,-0.544028,0.523902
1.724000,0.005004,0.019736,0.018506,-0.543392,0.524633
1.726000,0.005025,0.019734,0.017131,-0.542739,0.525355
1.728000,0.005046,0.019732,0.015749,-0.542069,0.526066
1.730000,0.005066,0.019730,0.014361,-0.541384,0.526769
1.732000,0.005087,0.019728,0.012965,-0.540682,0.527463
1.734000,0.005108,0.019726,0.011563,-0.539965,0.528147
1.736000,0.005129,0.019724,0.010153,-0.539229,0.528822
1.738000,0.005150,0.019722,0.008737,-0.538479,0.529487
1.740000,0.005170,0.019720,0.007314,-0.537711,0.530143
1.742000,0.005191,0.019719,0.005884,-0.536928,0.530790
1.744000,0.005212,0.019717,0.004447,-0.536129,0.531427
1.746000,0.005233,0.019715,0.003004,-0.535314,0.532055
1.748000,0.005253,0.019714,0.001553,-0.534483,0.532674
1.750000,0.005274,0.019713,0.000097,-0.533635,0.533283
1.752000,0.005295,0.019711,-0.001366,-0.532773,0.533883
1.754000,0.005316,0.019710,-0.002836,-0.531893,0.534474
1.756000,0.005337,0.019709,-0.004313,-0.530999,0.535055
1.758000,0.005357,0.019708,-0.005796,-0.530087,0.535627
1.760000,0.005378,0.019706,-0.007285,-0.529162,0.536190
1.762000,0.005399,0.019705,-0.008780,-0.528220,0.536743
1.764000,0.005419,0.019704,-0.010281,-0.527263,0.537287
1.766000,0.005440,0.019703,-0.011790,-0.526289,0.537821
1.768000,0.005461,0.019703,-0.013303,-0.525302,0.538347
1.770000,0.005481,0.019702,-0.014824,-0.524297,0.538863
1.772000,0.005502,0.019701,-0.016350,-0.523277,0.539370
1.774000,0.005523,0.019700,-0.017882,-0.522244,0.539868
1.776000,0.005544,0.019700,-0.019420,-0.521194,0.540356
1.778000,0.005565,0.019699,-0.020964,-0.520129,0.540835
1.780000,0.005585,0.019699,-0.022515,-0.519048,0.541304
1.782000,0.005606,0.019698,-0.024071,-0.517952,0.541764
1.784000,0.005627,0.019698,-0.025632,-0.516843,0.542216
1.786000,0.005647,0.019698,-0.027200,-0.515717,0.542658
1.788000,0.005668,0.019697,-0.028773,-0.514576,0.543090
1.790000,0.005689,0.019697,-0.030351,-0.513422,0.543514
1.792000,0.005709,0.019697,-0.031935,-0.512252,0.543928
1.794000,0.005730,0.019697,-0.033525,-0.511068,0.544333
1.796000,0.005750,0.019697,-0.035120,-0.509868,0.544728
1.798000,0.005771,0.019697,-0.036720,-0.508655,0.545115
1.800000,0.005792,0.019697,-0.038327,-0.507426,0.545492
1.802000,0.005812,0.019697,-0.039937,-0.506184,0.545860
1.804000,0.005833,0.019698,-0.041554,-0.504925,0.546218
1.806000,0.005853,0.019698,-0.043175,-0.503654,0.546568
1.808000,0.005874,0.019698,-0.044802,-0.502368,0.546909
1.810000,0.005894,0.019699,-0.046433,-0.501069,0.547240
1.812000,0.005915,0.019699,-0.048070,-0.499755,0.547563
1.814000,0.005935,0.019700,-0.049711,-0.498427,0.547876
1.816000,0.005956,0.019701,-0.051358,-0.497084,0.548180
1.818000,0.005976,0.019702,-0.053009,-0.495729,0.548475
1.820000,0.005997,0.019702,-0.054665,-0.494359,0.548761
1.822000,0.006017,0.019703,-0.056325,-0.492975,0.549038
1.824000,0.006038,0.019704,-0.057991,-0.491578,0.549305
1.826000,0.006058,0.019705,-0.059661,-0.490167,0.549564
1.828000,0.006079,0.019706,-0.061335,-0.488742,0.549814
1.830000,0.006099,0.019707,-0.063014,-0.487304,0.550054
1.832000,0.006119,0.019709,-0.064697,-0.485853,0.550286
1.834000,0.006140,0.019710,-0.066384,-0.484389,0.550509
1.836000,0.006160,0.019711,-0.068076,-0.482911,0.550723
1.838000,0.006180,0.019713,-0.069773,-0.481419,0.550927
1.840000,0.006201,0.019714,-0.071472,-0.479916,0.551123
1.842000,0.006221,0.019716,-0.073177,-0.478398,0.551310
1.844000,0.006241,0.019717,-0.074885,-0.476867,0.551488
1.846000,0.006262,0.019719,-0.076598,-0.475324,0.551656
1.848000,0.006282,0.019721,-0.078313,-0.473769,0.551817
1.850000,0.006302,0.019723,-0.080033,-0.472200,0.551968
1.852000,0.006322,0.019724,-0.081757,-0.470619,0.552110
1.854000,0.006343,0.019726,-0.083485,-0.469025,0.552243
1.856000,0.006363,0.019728,-0.085216,-0.467419,0.552368
1.858000,0.006383,0.019731,-0.086951,-0.465799,0.552484
1.860000,0.006403,0.019733,-0.088689,-0.464169,0.552591
1.862000,0.006423,0.019735,-0.090431,-0.462525,0.552689
1.864000,0.006443,0.019737,-0.092176,-0.460869,0.552778
1.866000,0.006464,0.019740,-0.093924,-0.459202,0.552859
1.868000,0.006483,0.019742,-0.095677,-0.457522,0.552931
1.870000,0.006504,0.019745,-0.097431,-0.455831,0.552994
1.872000,0.006524,0.019747,-0.099189,-0.454128,0.553049
1.874000,0.006544,0.019750,-0.100950,-0.452412,0.553094
1.876000,0.006564,0.019753,-0.102715,-0.450685,0.553131
1.878000,0.006584,0.019756,-0.104482,-0.448946,0.553159
1.880000,0.006604,0.019759,-0.106253,-0.447195,0.553179
1.882000,0.006624,0.019762,-0.108025,-0.445435,0.553190
1.884000,0.006643,0.019765,-0.109801,-0.443661,0.553192
1.886000,0.006663,0.019768,-0.111579,-0.441877,0.553187
1.888000,0.006683,0.019771,-0.113360,-0.440082,0.553172
1.890000,0.006703,0.019774,-0.115143,-0.438275,0.553149
1.892000,0.006723,0.019778,-0.116929,-0.436457,0.553117
1.894000,0.006743,0.019781,-0.118718,-0.434629,0.553076
1.896000,0.006762,0.019784,-0.120509,-0.432789,0.553027
1.898000,0.006782,0.019788,-0.122302,-0.430938,0.552970
1.900000,0.006802,0.019792,-0.124097,-0.429077,0.552904
1.902000,0.006822,0.019795,-0.125895,-0.427206,0.552830
1.904000,0.006841,0.019799,-0.127695,-0.425323,0.552746
1.906000,0.006861,0.019803,-0.129496,-0.423431,0.552655
1.908000,0.006880,0.019807,-0.131300,-0.421527,0.552555
1.910000,0.006900,0.019811,-0.133105,-0.419613,0.552447
1.912000,0.006919,0.019815,-0.134913,-0.417689,0.552330
1.914000,0.006939,0.019819,-0.136721,-0.415757,0.552206
1.916000,0.006959,0.019824,-0.138533,-0.413812,0.552072
1.918000,0.006978,0.019828,-0.140345,-0.411858,0.551930
1.920000,0.006997,0.019832,-0.142159,-0.409895,0.551780
1.922000,0.007017,0.019837,-0.143974,-0.407921,0.551622
1.924000,0.007036,0.019841,-0.145791,-0.405938,0.551456
1.926000,0.007056,0.019846,-0.147609,-0.403945,0.551281
1.928000,0.007075,0.019851,-0.149430,-0.401941,0.551097
1.930000,0.007094,0.019856,-0.151250,-0.399929,0.550906
1.932000,0.007113,0.019861,-0.153072,-0.397908,0.550706
1.934000,0.007133,0.019866,-0.154895,-0.395878,0.550499
1.936000,0.007152,0.019871,-0.156720,-0.393837,0.550282
1.938000,0.007171,0.019876,-0.158545,-0.391787,0.550057
1.940000,0.007190,0.019881,-0.160371,-0.389729,0.549825
1.942000,0.007209,0.019886,-0.162197,-0.387663,0.549585
1.944000,0.007228,0.019892,-0.164025,-0.385586,0.549336
1.946000,0.007247,0.019897,-0.165853,-0.383502,0.549079
1.948000,0.007266,0.019903,-0.167682,-0.381408,0.548814
1.950000,0.007285,0.019908,-0.169511,-0.379305,0.548541
1.952000,0.007304,0.019914,-0.171341,-0.377195,0.548260
1.954000,0.007323,0.019920,-0.173172,-0.375075,0.547970
1.956000,0.007342,0.019926,-0.175003,-0.372947,0.547673
1.958000,0.007361,0.019932,-0.176834,-0.370811,0.547368
1.960000,0.007380,0.019938,-0.178665,-0.368667,0.547054
1.962000,0.007398,0.019944,-0.180496,-0.366514,0.546733
1.964000,0.007417,0.019950,-0.182328,-0.364353,0.546403
1.966000,0.007436,0.019956,-0.184159,-0.362185,0.546066
1.968000,0.007454,0.019963,-0.185990,-0.360009,0.545721
1.970000,0.007473,0.019969,-0.187821,-0.357825,0.545368
1.972000,0.007491,0.019976,-0.189653,-0.355632,0.545007
1.974000,0.007510,0.019982,-0.191483,-0.353433,0.544637
1.976000,0.007528,0.019989,-0.193314,-0.351226,0.544261
1.978000,0.007547,0.019996,-0.195144,-0.349011,0.543875
1.980000,0.007565,0.020003,-0.196973,-0.346789,0.543483
1.982000,0.007584,0.020010,-0.198802,-0.344560,0.543082
1.984000,0.007602,0.020017,-0.200631,-0.342323,0.542674
1.986000,0.007620,0.020024,-0.202458,-0.340080,0.542258
1.988000,0.007638,0.020031,-0.204285,-0.337829,0.541834
1.990000,0.007656,0.020038,-0.206112,-0.335571,0.541402
1.992000,0.007675,0.020046,-0.207937,-0.333306,0.540962
1.994000,0.007693,0.020053,-0.209761,-0.331034,0.540515
1.996000,0.007711,0.020061,-0.211585,-0.328756,0.540059
1.998000,0.007729,0.020068,-0.213406,-0.326472,0.539597
2.000000,0.007746,0.020076,-0.215228,-0.324180,0.539126
2.002000,0.007764,0.020084,-0.217048,-0.321882,0.538648
2.004000,0.007782,0.020092,-0.218866,-0.319578,0.538162
2.006000,0.007800,0.020100,-0.220683,-0.317267,0.537668
2.008000,0.007818,0.020108,-0.222499,-0.314950,0.537167
2.010000,0.007835,0.020116,-0.224313,-0.312627,0.536657
2.012000,0.007853,0.020125,-0.226126,-0.310297,0.536141
2.014000,0.007871,0.020133,-0.227937,-0.307962,0.535616
2.016000,0.007888,0.020141,-0.229746,-0.305621,0.535084
2.018000,0.007906,0.020150,-0.231554,-0.303275,0.534545
2.020000,0.007923,0.020159,-0.233360,-0.300922,0.533997
2.022000,0.007940,0.020167,-0.235163,-0.298564,0.533443
2.024000,0.007958,0.020176,-0.236965,-0.296200,0.532881
2.026000,0.007975,0.020185,-0.238764,-0.293831,0.532311
2.028000,0.007992,0.020194,-0.240562,-0.291455,0.531733
2.030000,0.008009,0.020203,-0.242358,-0.289075,0.531148
2.032000,0.008026,0.020213,-0.244151,-0.286690,0.530556
2.034000,0.008043,0.020222,-0.245941,-0.284300,0.529956
2.036000,0.008060,0.020231,-0.247730,-0.281904,0.529349
2.038000,0.008077,0.020241,-0.249516,-0.279503,0.528733
2.040000,0.008094,0.020250,-0.251299,-0.277097,0.528111
2.042000,0.008111,0.020260,-0.253080,-0.274687,0.527481
2.044000,0.008127,0.020270,-0.254858,-0.272272,0.526844
2.046000,0.008144,0.020280,-0.256633,-0.269852,0.526199
2.048000,0.008161,0.020290,-0.258406,-0.267428,0.525547
2.050000,0.008177,0.020300,-0.260175,-0.264998,0.524887
2.052000,0.008194,0.020310,-0.261942,-0.262564,0.524220
2.054000,0.008210,0.020320,-0.263705,-0.260127,0.523546
2.056000,0.008226,0.020330,-0.265466,-0.257685,0.522864
2.058000,0.008243,0.020341,-0.267224,-0.255239,0.522175
2.060000,0.008247,0.020355,-0.268984,-0.252776,0.521461
2.062000,0.008275,0.020362,-0.270729,-0.250334,0.520774
2.064000,0.008279,0.020376,-0.272482,-0.247863,0.520046
2.066000,0.008307,0.020384,-0.274220,-0.245413,0.519345
2.068000,0.008323,0.020394,-0.275961,-0.242946,0.518619
2.070000,0.008339,0.020405,-0.277698,-0.240477,0.517886
2.072000,0.008355,0.020417,-0.279431,-0.238003,0.517145
2.074000,0.008370,0.020428,-0.281161,-0.235525,0.516397
2.076000,0.008386,0.020439,-0.282887,-0.233045,0.515642
2.078000,0.008401,0.020450,-0.284609,-0.230561,0.514880
2.080000,0.008417,0.020462,-0.286327,-0.228074,0.514111
2.082000,0.008432,0.020474,-0.288041,-0.225583,0.513334
2.084000,0.008448,0.020485,-0.289751,-0.223089,0.512550
2.086000,0.008463,0.020497,-0.291457,-0.220592,0.511759
2.088000,0.008478,0.020509,-0.293158,-0.218093,0.510960
2.090000,0.008493,0.020521,-0.294856,-0.215590,0.510155
2.092000,0.008508,0.020533,-0.296549,-0.213084,0.509342
2.094000,0.008523,0.020545,-0.298237,-0.210576,0.508522
2.096000,0.008538,0.020558,-0.299921,-0.208065,0.507695
2.098000,0.008553,0.020570,-0.301601,-0.205551,0.506860
2.100000,0.008568,0.020582,-0.303276,-0.203035,0.506019
2.102000,0.008582,0.020595,-0.304947,-0.200516,0.505170
2.104000,0.008597,0.020608,-0.306612,-0.197995,0.504314
2.106000,0.008611,0.020621,-0.308273,-0.195471,0.503451
2.108000,0.008625,0.020633,-0.309929,-0.192946,0.502582
2.110000,0.008640,0.020646,-0.311579,-0.190418,0.501705
2.112000,0.008654,0.020660,-0.313225,-0.187888,0.500821
2.114000,0.008668,0.020673,-0.314866,-0.185356,0.499929
2.116000,0.008682,0.020686,-0.316502,-0.182823,0.499031
2.118000,0.008696,0.020699,-0.318132,-0.180287,0.498125
2.120000,0.008710,0.020713,-0.319757,-0.177750,0.497213
2.122000,0.008723,0.020727,-0.321377,-0.175211,0.496293
2.124000,0.008737,0.020740,-0.322991,-0.172670,0.495367
2.126000,0.008751,0.020754,-0.324600,-0.170128,0.494433
2.128000,0.008764,0.020768,-0.326203,-0.167585,0.493493
2.130000,0.008777,0.020782,-0.327800,-0.165040,0.492545
2.132000,0.008791,0.020796,-0.329392,-0.162493,0.491590
2.134000,0.008804,0.020810,-0.330978,-0.159946,0.490629
2.136000,0.008817,0.020825,-0.332558,-0.157398,0.489660
2.138000,0.008830,0.020839,-0.334132,-0.154848,0.488685
2.140000,0.008843,0.020854,-0.335701,-0.152297,0.487702
2.142000,0.008855,0.020868,-0.337262,-0.149747,0.486713
2.144000,0.008868,0.020883,-0.338818,-0.147194,0.485716
2.146000,0.008881,0.020898,-0.340368,-0.144641,0.484713
2.148000,0.008893,0.020913,-0.341912,-0.142087,0.483702
2.150000,0.008905,0.020928,-0.343449,-0.139533,0.482685
2.152000,0.008918,0.020943,-0.344980,-0.136979,0.481661
2.154000,0.008926,0.020960,-0.346504,-0.134421,0.480625
2.156000,0.008942,0.020974,-0.348021,-0.131868,0.479592
2.158000,0.008954,0.020989,-0.349532,-0.129313,0.478547
2.160000,0.008965,0.021005,-0.351037,-0.126757,0.477495
2.162000,0.008977,0.021020,-0.352535,-0.124200,0.476436
2.164000,0.008989,0.021036,-0.354025,-0.121644,0.475371
2.166000,0.009000,0.021052,-0.355509,-0.119088,0.474298
2.168000,0.009011,0.021068,-0.356986,-0.116532,0.473219
2.170000,0.009023,0.021084,-0.358456,-0.113976,0.472134
2.172000,0.009034,0.021100,-0.359919,-0.111421,0.471041
2.174000,0.009045,0.021116,-0.361374,-0.108866,0.469941
2.176000,0.009055,0.021133,-0.362823,-0.106311,0.468835
2.178000,0.009066,0.021149,-0.364264,-0.103757,0.467721
2.180000,0.009077,0.021166,-0.365697,-0.101204,0.466601
2.182000,0.009087,0.021183,-0.367124,-0.098651,0.465474
2.184000,0.009098,0.021199,-0.368543,-0.096098,0.464341
2.186000,0.009108,0.021216,-0.369954,-0.093547,0.463200
2.188000,0.009118,0.021233,-0.371357,-0.090997,0.462054
2.190000,0.009128,0.021251,-0.372753,-0.088447,0.460899
2.192000,0.009138,0.021268,-0.374141,-0.085899,0.459739
2.194000,0.009147,0.021285,-0.375521,-0.083351,0.458570
2.196000,0.009157,0.021302,-0.376894,-0.080805,0.457398
2.198000,0.009167,0.021320,-0.378258,-0.078261,0.456217
2.200000,0.009176,0.021338,-0.379614,-0.075717,0.455029
2.202000,0.009185,0.021355,-0.380962,-0.073175,0.453836
2.204000,0.009194,0.021373,-0.382302,-0.070635,0.452634
2.206000,0.009203,0.021391,-0.383634,-0.068096,0.451427
2.208000,0.009212,0.021409,-0.384957,-0.065559,0.450213
2.210000,0.009220,0.021427,-0.386272,-0.063023,0.448993
2.212000,0.009229,0.021446,-0.387578,-0.060490,0.447765
2.214000,0.009237,0.021464,-0.388876,-0.057958,0.446531
2.216000,0.009246,0.021482,-0.390166,-0.055428,0.445291
2.218000,0.009254,0.021501,-0.391446,-0.052900,0.444043
2.220000,0.009262,0.021520,-0.392719,-0.050374,0.442790
2.222000,0.009269,0.021538,-0.393982,-0.047851,0.441529
2.224000,0.009277,0.021557,-0.395236,-0.045330,0.440262
2.226000,0.009284,0.021576,-0.396481,-0.042812,0.438989
2.228000,0.009292,0.021595,-0.397717,-0.040296,0.437709
2.230000,0.009299,0.021614,-0.398945,-0.037782,0.436423
2.232000,0.009306,0.021634,-0.400163,-0.035271,0.435129
2.234000,0.009313,0.021653,-0.401372,-0.032763,0.433830
2.236000,0.009307,0.021676,-0.402574,-0.030250,0.432505
2.238000,0.009326,0.021692,-0.403762,-0.027754,0.431211
2.240000,0.009332,0.021712,-0.404943,-0.025254,0.429892
2.242000,0.009339,0.021731,-0.406115,-0.022757,0.428567
2.244000,0.009345,0.021751,-0.407276,-0.020264,0.427235
2.246000,0.009351,0.021771,-0.408429,-0.017773,0.425896
2.248000,0.009356,0.021791,-0.409572,-0.015285,0.424551
2.250000,0.009362,0.021811,-0.410705,-0.012801,0.423200
2.252000,0.009367,0.021832,-0.411828,-0.010321,0.421843
2.254000,0.009373,0.021852,-0.412942,-0.007844,0.420479
2.256000,0.009378,0.021872,-0.414045,-0.005370,0.419108
2.258000,0.009383,0.021893,-0.415138,-0.002900,0.417732
2.260000,0.009387,0.021914,-0.416222,-0.000433,0.416349
2.262000,0.009391,0.021935,-0.417296,0.002030,0.414958
2.264000,0.009395,0.021956,-0.418359,0.004490,0.413560
2.266000,0.009400,0.021976,-0.419412,0.006943,0.412162
2.268000,0.009404,0.021997,-0.420454,0.009394,0.410753
2.270000,0.009408,0.022018,-0.421487,0.011841,0.409339
2.272000,0.009412,0.022039,-0.422509,0.014283,0.407918
2.274000,0.009415,0.022061,-0.423520,0.016722,0.406491
2.276000,0.009419,0.022082,-0.424521,0.019155,0.405058
2.278000,0.009422,0.022103,-0.425511,0.021585,0.403619
2.280000,0.009425,0.022125,-0.426491,0.024010,0.402173
2.282000,0.009428,0.022147,-0.427460,0.026431,0.400721
2.284000,0.009430,0.022168,-0.428418,0.028846,0.399263
2.286000,0.009433,0.022190,-0.429365,0.031258,0.397799
2.288000,0.009435,0.022212,-0.430301,0.033664,0.396329
2.290000,0.009437,0.022234,-0.431226,0.036065,0.394853
2.292000,0.009429,0.022257,-0.432144,0.038470,0.393350
2.294000,0.009440,0.022278,-0.433044,0.040853,0.391882
2.296000,0.009442,0.022301,-0.433936,0.043239,0.390388
2.298000,0.009443,0.022323,-0.434817,0.045620,0.388887
2.300000,0.009444,0.022345,-0.435686,0.047996,0.387381
2.302000,0.009445,0.022368,-0.436545,0.050367,0.385868
2.304000,0.009445,0.022390,-0.437391,0.052732,0.384350
2.306000,0.009446,0.022413,-0.438227,0.055091,0.382826
2.308000,0.009446,0.022436,-0.439050,0.057445,0.381296
2.310000,0.009438,0.022459,-0.439865,0.059802,0.379739
2.312000,0.009446,0.022482,-0.440663,0.062136,0.378218
2.314000,0.009445,0.022504,-0.441452,0.064472,0.376670
2.316000,0.009445,0.022528,-0.442229,0.066803,0.375116
2.318000,0.009444,0.022551,-0.442995,0.069128,0.373557
2.320000,0.009443,0.022574,-0.443748,0.071447,0.371991
2.322000,0.009442,0.022597,-0.444490,0.073759,0.370420
2.324000,0.009440,0.022621,-0.445219,0.076066,0.368843
2.326000,0.009439,0.022644,-0.445937,0.078365,0.367261
2.328000,0.009437,0.022668,-0.446643,0.080659,0.365673
2.330000,0.009435,0.022691,-0.447336,0.082946,0.364079
2.332000,0.009432,0.022715,-0.448018,0.085227,0.362479
2.334000,0.009430,0.022738,-0.448686,0.087501,0.360874
2.336000,0.009427,0.022762,-0.449343,0.089768,0.359264
2.338000,0.009424,0.022786,-0.449987,0.092028,0.357648
2.340000,0.009421,0.022810,-0.450619,0.094282,0.356026
2.342000,0.009417,0.022834,-0.451239,0.096529,0.354399
2.344000,0.009414,0.022858,-0.451846,0.098768,0.352766
2.346000,0.009410,0.022882,-0.452440,0.101001,0.351128
2.348000,0.009406,0.022906,-0.453022,0.103226,0.349484
2.350000,0.009401,0.022931,-0.453591,0.105445,0.347836
2.352000,0.009397,0.022955,-0.454148,0.107655,0.346181
2.354000,0.009392,0.022979,-0.454692,0.109859,0.344522
2.356000,0.009387,0.023004,-0.455223,0.112054,0.342857
2.358000,0.009381,0.023028,-0.455741,0.114242,0.341187
2.360000,0.009376,0.023053,-0.456246,0.116423,0.339511
2.362000,0.009370,0.023077,-0.456738,0.118596,0.337830
2.364000,0.009364,0.023102,-0.457217,0.120761,0.336145
2.366000,0.009358,0.023127,-0.457683,0.122917,0.334454
2.368000,0.009351,0.023151,-0.458137,0.125067,0.332758
2.370000,0.009345,0.023176,-0.458577,0.127208,0.331055
2.372000,0.009338,0.023201,-0.459004,0.129341,0.329351
2.374000,0.009331,0.023226,-0.459417,0.131465,0.327641
2.376000,0.009323,0.023251,-0.459818,0.133582,0.325924
2.378000,0.009315,0.023276,-0.460205,0.135689,0.324204
2.380000,0.009308,0.023301,-0.460579,0.137789,0.322478
2.382000,0.009299,0.023326,-0.460939,0.139880,0.320748
2.384000,0.009291,0.023351,-0.461286,0.141962,0.319012
2.386000,0.009282,0.023376,-0.461620,0.144036,0.317272
2.388000,0.009273,0.023396,-0.461942,0.146111,0.315504
2.390000,0.009264,0.023426,-0.462247,0.148157,0.313778
2.392000,0.009255,0.023451,-0.462539,0.150204,0.312023
2.394000,0.009245,0.023477,-0.462819,0.152242,0.310265
2.396000,0.009235,0.023502,-0.463085,0.154271,0.308502
2.398000,0.009225,0.023527,-0.463337,0.156291,0.306734
2.400000,0.009214,0.023553,-0.463575,0.158301,0.304962
2.402000,0.009204,0.023578,-0.463800,0.160302,0.303185
2.404000,0.009193,0.023603,-0.464011,0.162294,0.301404
2.406000,0.009181,0.023629,-0.464207,0.164276,0.299619
2.408000,0.009170,0.023654,-0.464391,0.166250,0.297829
2.410000,0.009158,0.023680,-0.464560,0.168213,0.296036
2.412000,0.009146,0.023705,-0.464715,0.170166,0.294238
2.414000,0.009134,0.023731,-0.464857,0.172110,0.292435
2.416000,0.009121,0.023756,-0.464984,0.174043,0.290629
2.418000,0.009109,0.023782,-0.465098,0.175967,0.288819
2.420000,0.009095,0.023807,-0.465197,0.177881,0.287005
2.422000,0.009082,0.023833,-0.465283,0.179785,0.285187
2.424000,0.009072,0.023851,-0.465356,0.181688,0.283341
2.426000,0.009055,0.023884,-0.465411,0.183561,0.281539
2.428000,0.009041,0.023909,-0.465454,0.185434,0.279709
2.430000,0.009026,0.023935,-0.465484,0.187297,0.277876
2.432000,0.009012,0.023960,-0.465499,0.189149,0.276039
2.434000,0.008997,0.023986,-0.465499,0.190990,0.274198
2.436000,0.008981,0.024011,-0.465486,0.192821,0.272354
2.438000,0.008966,0.024037,-0.465458,0.194640,0.270506
2.440000,0.008950,0.024062,-0.465416,0.196450,0.268655
2.442000,0.008934,0.024088,-0.465360,0.198248,0.266800
2.444000,0.008918,0.024113,-0.465289,0.200035,0.264943
2.446000,0.008901,0.024139,-0.465204,0.201812,0.263082
2.448000,0.008885,0.024164,-0.465105,0.203577,0.261217
2.450000,0.008868,0.024190,-0.464992,0.205331,0.259350
2.452000,0.008850,0.024215,-0.464864,0.207074,0.257479
2.454000,0.008833,0.024241,-0.464722,0.208806,0.255606
2.456000,0.008815,0.024266,-0.464565,0.210525,0.253730
2.458000,0.008797,0.024291,-0.464394,0.212234,0.251850
2.460000,0.008778,0.024317,-0.464209,0.213931,0.249968
2.462000,0.008759,0.024342,-0.464010,0.215617,0.248083
2.464000,0.008740,0.024367,-0.463796,0.217290,0.246195
2.466000,0.008728,0.024384,-0.463568,0.218962,0.244283
2.468000,0.008702,0.024418,-0.463325,0.220602,0.242412
2.470000,0.008682,0.024443,-0.463067,0.222241,0.240517
2.472000,0.008662,0.024468,-0.462796,0.223867,0.238620
2.474000,0.008641,0.024493,-0.462509,0.225481,0.236719
2.476000,0.008621,0.024518,-0.462209,0.227083,0.234817
2.478000,0.008600,0.024543,-0.461894,0.228673,0.232912
2.480000,0.008586,0.024560,-0.461566,0.230259,0.230984
2.482000,0.008559,0.024592,-0.461222,0.231817,0.229093
2.484000,0.008536,0.024618,-0.460864,0.233368,0.227187
2.486000,0.008514,0.024642,-0.460491,0.234909,0.225274
2.488000,0.008492,0.024667,-0.460105,0.236437,0.223360
2.490000,0.008469,0.024692,-0.459703,0.237952,0.221444
2.492000,0.008446,0.024716,-0.459288,0.239454,0.219526
2.494000,0.008423,0.024741,-0.458858,0.240943,0.217606
2.496000,0.008400,0.024765,-0.458414,0.242421,0.215685
2.498000,0.008376,0.024789,-0.457955,0.243885,0.213763
2.500000,0.008353,0.024814,-0.457482,0.245336,0.211839
2.502000,0.008329,0.024838,-0.456994,0.246773,0.209914
2.504000,0.008304,0.024862,-0.456493,0.248199,0.207988
2.506000,0.008280,0.024886,-0.455977,0.249610,0.206061
2.508000,0.008255,0.024910,-0.455447,0.251009,0.204132
2.510000,0.008230,0.024934,-0.454903,0.252394,0.202203
2.512000,0.008204,0.024958,-0.454345,0.253766,0.200273
2.514000,0.008179,0.024982,-0.453772,0.255124,0.198342
2.516000,0.008153,0.025005,-0.453185,0.256469,0.196411
2.518000,0.008126,0.025029,-0.452583,0.257800,0.194478
2.520000,0.008100,0.025052,-0.451969,0.259118,0.192546
2.522000,0.008073,0.025075,-0.451339,0.260422,0.190612
2.524000,0.008055,0.025091,-0.450696,0.261720,0.188660
2.526000,0.008019,0.025122,-0.450039,0.262989,0.186745
2.528000,0.007992,0.025145,-0.449367,0.264252,0.184811
2.530000,0.007964,0.025168,-0.448682,0.265500,0.182878
2.532000,0.007936,0.025191,-0.447982,0.266735,0.180944
2.534000,0.007908,0.025213,-0.447269,0.267956,0.179010
2.536000,0.007879,0.025236,-0.446542,0.269163,0.177076
2.538000,0.007851,0.025258,-0.445801,0.270355,0.175143
2.540000,0.007822,0.025281,-0.445046,0.271533,0.173210
2.542000,0.007792,0.025303,-0.444277,0.272697,0.171278
2.544000,0.007763,0.025325,-0.443495,0.273847,0.169346
2.546000,0.007733,0.025347,-0.442699,0.274982,0.167415
2.548000,0.007703,0.025369,-0.441889,0.276103,0.165485
2.550000,0.007673,0.025390,-0.441066,0.277209,0.163556
2.552000,0.007643,0.025412,-0.440229,0.278301,0.161627
2.554000,0.007612,0.025433,-0.439378,0.279378,0.159700
2.556000,0.007581,0.025455,-0.438514,0.280440,0.157774
2.558000,0.007550,0.025476,-0.437637,0.281488,0.155849
2.560000,0.007519,0.025497,-0.436746,0.282521,0.153926
2.562000,0.007487,0.025518,-0.435842,0.283539,0.152004
2.564000,0.007456,0.025539,-0.434925,0.284543,0.150083
2.566000,0.007424,0.025559,-0.433994,0.285531,0.148165
2.568000,0.007392,0.025580,-0.433050,0.286505,0.146248
2.570000,0.007359,0.025600,-0.432094,0.287462,0.144333
2.572000,0.007326,0.025620,-0.431124,0.288406,0.142420
2.574000,0.007294,0.025640,-0.430141,0.289334,0.140510
2.576000,0.007260,0.025660,-0.429145,0.290248,0.138601
2.578000,0.007227,0.025679,-0.428136,0.291145,0.136695
2.580000,0.007199,0.025696,-0.427115,0.292032,0.134779
2.582000,0.007160,0.025718,-0.426080,0.292895,0.132890
2.584000,0.007126,0.025737,-0.425033,0.293747,0.130991
2.586000,0.007092,0.025756,-0.423974,0.294583,0.129095
2.588000,0.007058,0.025775,-0.422902,0.295405,0.127202
2.590000,0.007030,0.025788,-0.421817,0.296215,0.125298
2.592000,0.006988,0.025812,-0.420720,0.297001,0.123425
2.594000,0.006960,0.025825,-0.419610,0.297780,0.121528
2.596000,0.006918,0.025848,-0.418488,0.298534,0.119661
2.598000,0.006885,0.025866,-0.417354,0.299279,0.117780
2.600000,0.006848,0.025884,-0.416208,0.300006,0.115911
2.602000,0.006812,0.025902,-0.415050,0.300718,0.114040
2.604000,0.006776,0.025919,-0.413880,0.301414,0.112174
2.606000,0.006743,0.025935,-0.412698,0.302097,0.110306
2.608000,0.006704,0.025953,-0.411504,0.302760,0.108454
2.610000,0.006668,0.025970,-0.410298,0.303408,0.106599
2.612000,0.006631,0.025986,-0.409080,0.304041,0.104749
2.614000,0.006595,0.026003,-0.407851,0.304659,0.102903
2.616000,0.006558,0.026019,-0.406611,0.305260,0.101062
2.618000,0.006523,0.026034,-0.405359,0.305846,0.099220
2.620000,0.006484,0.026050,-0.404095,0.306414,0.097393
2.622000,0.006446,0.026066,-0.402821,0.306968,0.095565
2.624000,0.006409,0.026081,-0.401535,0.307505,0.093743
2.626000,0.006371,0.026096,-0.400238,0.308026,0.091925
2.628000,0.006334,0.026111,-0.398930,0.308531,0.090113
2.630000,0.006297,0.026126,-0.397611,0.309021,0.088302
2.632000,0.006258,0.026141,-0.396281,0.309492,0.086504
2.634000,0.006220,0.026155,-0.394941,0.309949,0.084706
2.636000,0.006181,0.026169,-0.393589,0.310389,0.082916
2.638000,0.006143,0.026183,-0.392228,0.310814,0.081130
2.640000,0.006108,0.026193,-0.390855,0.311224,0.079341
2.642000,0.006066,0.026210,-0.389473,0.311613,0.077577
2.644000,0.006027,0.026223,-0.388080,0.311988,0.075810
2.646000,0.005988,0.026236,-0.386676,0.312347,0.074048
2.648000,0.005949,0.026249,-0.385264,0.312690,0.072292
2.650000,0.005910,0.026261,-0.383840,0.313016,0.070543
2.652000,0.005871,0.026273,-0.382407,0.313326,0.068801
2.654000,0.005831,0.026285,-0.380964,0.313619,0.067065
2.656000,0.005794,0.026295,-0.379512,0.313899,0.065327
2.658000,0.005753,0.026309,-0.378049,0.314157,0.063612
2.660000,0.005714,0.026318,-0.376578,0.314404,0.061889
2.662000,0.005673,0.026331,-0.375096,0.314630,0.060188
2.664000,0.005633,0.026342,-0.373606,0.314841,0.058487
2.666000,0.005594,0.026353,-0.372106,0.315036,0.056793
2.668000,0.005554,0.026363,-0.370598,0.315215,0.055106
2.670000,0.005514,0.026373,-0.369080,0.315378,0.053426
2.672000,0.005474,0.026383,-0.367553,0.315523,0.051755
2.674000,0.005434,0.026391,-0.366018,0.315654,0.050083
2.676000,0.005393,0.026402,-0.364474,0.315765,0.048434
2.678000,0.005353,0.026411,-0.362921,0.315861,0.046785
2.680000,0.005313,0.026420,-0.361360,0.315941,0.045145
2.682000,0.005272,0.026429,-0.359791,0.316005,0.043512
2.684000,0.005232,0.026437,-0.358212,0.316051,0.041888
2.686000,0.005191,0.026446,-0.356626,0.316082,0.040272
2.688000,0.005151,0.026454,-0.355032,0.316096,0.038665
2.690000,0.005110,0.026461,-0.353431,0.316093,0.037066
2.692000,0.005070,0.026469,-0.351821,0.316074,0.035476
2.694000,0.005029,0.026476,-0.350203,0.316039,0.033895
2.696000,0.004989,0.026483,-0.348578,0.315987,0.032322
2.698000,0.004948,0.026490,-0.346946,0.315918,0.030758
2.700000,0.004907,0.026496,-0.345306,0.315834,0.029204
2.702000,0.004867,0.026502,-0.343659,0.315732,0.027659
2.704000,0.004826,0.026508,-0.342005,0.315614,0.026123
2.706000,0.004783,0.026513,-0.340343,0.315481,0.024590
2.708000,0.004744,0.026519,-0.338675,0.315330,0.023079
2.710000,0.004704,0.026525,-0.337000,0.315162,0.021572
2.712000,0.004663,0.026530,-0.335318,0.314979,0.020074
2.714000,0.004622,0.026534,-0.333630,0.314779,0.018586
2.716000,0.004581,0.026539,-0.331934,0.314563,0.017108
2.718000,0.004541,0.026543,-0.330233,0.314330,0.015639
2.720000,0.004497,0.026547,-0.328526,0.314082,0.014176
2.722000,0.004459,0.026551,-0.326812,0.313816,0.012734
2.724000,0.004419,0.026554,-0.325092,0.313534,0.011296
2.726000,0.004378,0.026557,-0.323367,0.313237,0.009869
2.728000,0.004338,0.026560,-0.321636,0.312923,0.008452
2.730000,0.004297,0.026563,-0.319899,0.312592,0.007046
2.732000,0.004257,0.026565,-0.318156,0.312245,0.005651
2.734000,0.004216,0.026567,-0.316408,0.311883,0.004266
2.736000,0.004176,0.026569,-0.314655,0.311503,0.002892
2.738000,0.004135,0.026571,-0.312896,0.311108,0.001530
2.740000,0.004095,0.026573,-0.311132,0.310697,0.000178
2.742000,0.004055,0.026574,-0.309363,0.310269,-0.001163
2.744000,0.004014,0.026575,-0.307590,0.309826,-0.002493
2.746000,0.003970,0.026576,-0.305811,0.309366,-0.003815
2.748000,0.003934,0.026576,-0.304028,0.308890,-0.005118
2.750000,0.003894,0.026576,-0.302240,0.308399,-0.006413
2.752000,0.003854,0.026576,-0.300448,0.307891,-0.007697
2.754000,0.003814,0.026576,-0.298652,0.307368,-0.008970
2.756000,0.003775,0.026575,-0.296852,0.306828,-0.010230
2.758000,0.003735,0.026574,-0.295047,0.306273,-0.011479
2.760000,0.003695,0.026573,-0.293238,0.305701,-0.012716
2.762000,0.003656,0.026572,-0.291425,0.305113,-0.013940
2.764000,0.003616,0.026570,-0.289609,0.304511,-0.015154
2.766000,0.003572,0.026569,-0.287789,0.303893,-0.016357
2.768000,0.003538,0.026566,-0.285966,0.303258,-0.017543
2.770000,0.003499,0.026564,-0.284139,0.302608,-0.018719
2.772000,0.003460,0.026562,-0.282309,0.301943,-0.019883
2.774000,0.003421,0.026559,-0.280475,0.301261,-0.021035
2.776000,0.003382,0.026556,-0.278639,0.300564,-0.022174
2.778000,0.003343,0.026553,-0.276799,0.299852,-0.023301
2.780000,0.003305,0.026549,-0.274957,0.299125,-0.024415
2.782000,0.003266,0.026545,-0.273112,0.298381,-0.025516
2.784000,0.003228,0.026541,-0.271264,0.297622,-0.026604
2.786000,0.003190,0.026537,-0.269414,0.296848,-0.027680
2.788000,0.003152,0.026533,-0.267561,0.296059,-0.028743
2.790000,0.003114,0.026528,-0.265706,0.295254,-0.029793
2.792000,0.003076,0.026523,-0.263849,0.294434,-0.030830
2.794000,0.003033,0.026519,-0.261990,0.293600,-0.031855
2.796000,0.003001,0.026513,-0.260128,0.292749,-0.032864
2.798000,0.002963,0.026507,-0.258265,0.291884,-0.033862
2.800000,0.002926,0.026501,-0.256400,0.291003,-0.034846
2.802000,0.002889,0.026495,-0.254533,0.290108,-0.035817
2.804000,0.002852,0.026489,-0.252665,0.289198,-0.036774
2.806000,0.002810,0.026483,-0.250795,0.288273,-0.037720
2.808000,0.002779,0.026476,-0.248923,0.287332,-0.038649
2.810000,0.002742,0.026469,-0.247051,0.286378,-0.039567
2.812000,0.002706,0.026462,-0.245177,0.285408,-0.040470
2.814000,0.002670,0.026455,-0.243302,0.284423,-0.041360
2.816000,0.002634,0.026447,-0.241427,0.283425,-0.042237
2.818000,0.002598,0.026439,-0.239550,0.282411,-0.043099
2.820000,0.002562,0.026431,-0.237672,0.281383,-0.043948
2.822000,0.002527,0.026423,-0.235794,0.280341,-0.044783
2.824000,0.002492,0.026415,-0.233916,0.279284,-0.045605
2.826000,0.002457,0.026406,-0.232036,0.278212,-0.046412
2.828000,0.002422,0.026397,-0.230157,0.277127,-0.047206
2.830000,0.002387,0.026388,-0.228277,0.276027,-0.047985
2.832000,0.002352,0.026379,-0.226397,0.274913,-0.048751
2.834000,0.002318,0.026369,-0.224517,0.273785,-0.049502
2.836000,0.002284,0.026360,-0.222637,0.272643,-0.050240
2.838000,0.002250,0.026350,-0.220756,0.271486,-0.050963
2.840000,0.002216,0.026340,-0.218877,0.270316,-0.051672
2.842000,0.002183,0.026329,-0.216997,0.269132,-0.052367
2.844000,0.002149,0.026319,-0.215118,0.267934,-0.053047
2.846000,0.002116,0.026308,-0.213239,0.266722,-0.053714
2.848000,0.002083,0.026298,-0.211361,0.265496,-0.054367
2.850000,0.002050,0.026287,-0.209483,0.264257,-0.055004
2.852000,0.002014,0.026275,-0.207607,0.263005,-0.055627
2.854000,0.001986,0.026264,-0.205730,0.261738,-0.056237
2.856000,0.001953,0.026252,-0.203855,0.260458,-0.056832
2.858000,0.001921,0.026241,-0.201981,0.259165,-0.057413
2.860000,0.001890,0.026229,-0.200108,0.257859,-0.057979
2.862000,0.001858,0.026217,-0.198236,0.256539,-0.058531
2.864000,0.001827,0.026204,-0.196365,0.255206,-0.059068
2.866000,0.001796,0.026192,-0.194496,0.253859,-0.059591
2.868000,0.001765,0.026179,-0.192628,0.252500,-0.060099
2.870000,0.001734,0.026166,-0.190761,0.251128,-0.060593
2.872000,0.001704,0.026153,-0.188896,0.249743,-0.061072
2.874000,0.001674,0.026140,-0.187033,0.248344,-0.061537
2.876000,0.001644,0.026127,-0.185171,0.246933,-0.061987
2.878000,0.001614,0.026114,-0.183312,0.245510,-0.062423
2.880000,0.001585,0.026100,-0.181454,0.244073,-0.062844
2.882000,0.001556,0.026086,-0.179598,0.242624,-0.063250
2.884000,0.001525,0.026072,-0.177745,0.241163,-0.063640
2.886000,0.001498,0.026058,-0.175892,0.239688,-0.064020
2.888000,0.001469,0.026044,-0.174042,0.238202,-0.064382
2.890000,0.001441,0.026029,-0.172195,0.236703,-0.064731
2.892000,0.001413,0.026015,-0.170350,0.235192,-0.065064
2.894000,0.001385,0.026000,-0.168507,0.233669,-0.065383
2.896000,0.001357,0.025985,-0.166667,0.232133,-0.065688
2.898000,0.001330,0.025970,-0.164829,0.230586,-0.065977
2.900000,0.001303,0.025955,-0.162994,0.229027,-0.066253
2.902000,0.001276,0.025940,-0.161162,0.227455,-0.066513
2.904000,0.001249,0.025924,-0.159332,0.225872,-0.066759
2.906000,0.001223,0.025909,-0.157505,0.224276,-0.066990
2.908000,0.001196,0.025893,-0.155682,0.222670,-0.067207
2.910000,0.001170,0.025877,-0.153861,0.221052,-0.067410
2.912000,0.001145,0.025861,-0.152043,0.219422,-0.067597
2.914000,0.001119,0.025845,-0.150228,0.217780,-0.067770
2.916000,0.001094,0.025829,-0.148416,0.216127,-0.067929
2.918000,0.001069,0.025813,-0.146608,0.214464,-0.068073
2.920000,0.001044,0.025796,-0.144802,0.212788,-0.068202
2.922000,0.001020,0.025780,-0.143000,0.211101,-0.068317
2.924000,0.000996,0.025763,-0.141202,0.209403,-0.068418
2.926000,0.000972,0.025746,-0.139407,0.207695,-0.068504
2.928000,0.000948,0.025729,-0.137615,0.205975,-0.068575
2.930000,0.000925,0.025712,-0.135827,0.204244,-0.068633
2.932000,0.000901,0.025695,-0.134043,0.202503,-0.068675
2.934000,0.000878,0.025678,-0.132262,0.200750,-0.068703
2.936000,0.000856,0.025660,-0.130485,0.198987,-0.068717
2.938000,0.000833,0.025643,-0.128712,0.197214,-0.068716
2.940000,0.000811,0.025625,-0.126943,0.195430,-0.068701
2.942000,0.000789,0.025608,-0.125177,0.193636,-0.068672
2.944000,0.000767,0.025590,-0.123416,0.191831,-0.068629
2.946000,0.000746,0.025572,-0.121658,0.190016,-0.068570
2.948000,0.000729,0.025553,-0.119906,0.188192,-0.068495
2.950000,0.000703,0.025536,-0.118155,0.186354,-0.068412
2.952000,0.000683,0.025518,-0.116410,0.184509,-0.068311
2.954000,0.000662,0.025499,-0.114669,0.182653,-0.068196
2.956000,0.000642,0.025481,-0.112932,0.180787,-0.068067
2.958000,0.000622,0.025463,-0.111199,0.178912,-0.067924
2.960000,0.000602,0.025444,-0.109472,0.177027,-0.067767
2.962000,0.000583,0.025425,-0.107748,0.175132,-0.067595
2.964000,0.000569,0.025406,-0.106030,0.173230,-0.067407
2.966000,0.000545,0.025388,-0.104314,0.171314,-0.067211
2.968000,0.000526,0.025369,-0.102604,0.169391,-0.066997
2.970000,0.000507,0.025350,-0.100898,0.167458,-0.066770
2.972000,0.000489,0.025331,-0.099197,0.165515,-0.066528
2.974000,0.000471,0.025312,-0.097500,0.163564,-0.066273
2.976000,0.000453,0.025293,-0.095809,0.161604,-0.066004
2.978000,0.000436,0.025274,-0.094122,0.159634,-0.065721
2.980000,0.000419,0.025255,-0.092439,0.157655,-0.065425
2.982000,0.000402,0.025235,-0.090762,0.155668,-0.065114
2.984000,0.000385,0.025216,-0.089089,0.153672,-0.064791
2.986000,0.000368,0.025196,-0.087422,0.151666,-0.064453
2.988000,0.000352,0.025177,-0.085759,0.149652,-0.064101
2.990000,0.000336,0.025157,-0.084101,0.147630,-0.063736
2.992000,0.000320,0.025137,-0.082448,0.145599,-0.063358
2.994000,0.000305,0.025118,-0.080801,0.143559,-0.062966
2.996000,0.000290,0.025098,-0.079158,0.141511,-0.062560
2.998000,0.000275,0.025078,-0.077520,0.139455,-0.062141
3.000000,0.000260,0.025058,-0.075888,0.137390,-0.061709
3.002000,0.000245,0.025038,-0.074261,0.135318,-0.061264
3.004000,0.000231,0.025018,-0.072639,0.133237,-0.060805
3.006000,0.000217,0.024998,-0.071022,0.131148,-0.060333
3.008000,0.000213,0.024977,-0.069413,0.129055,-0.059845
3.010000,0.000190,0.024958,-0.067804,0.126947,-0.059349
3.012000,0.000176,0.024938,-0.066204,0.124835,-0.058837
3.014000,0.000163,0.024918,-0.064608,0.122715,-0.058313
3.016000,0.000151,0.024898,-0.063018,0.120588,-0.057775
3.018000,0.000138,0.024877,-0.061433,0.118452,-0.057224
3.020000,0.000126,0.024857,-0.059854,0.116310,-0.056661
3.022000,0.000114,0.024837,-0.058280,0.114159,-0.056084
3.024000,0.000102,0.024816,-0.056712,0.112002,-0.055495
3.026000,0.000098,0.024796,-0.055151,0.109840,-0.054892
3.028000,0.000079,0.024775,-0.053592,0.107666,-0.054278
3.030000,0.000067,0.024755,-0.052040,0.105487,-0.053651
3.032000,0.000056,0.024735,-0.050494,0.103301,-0.053011
3.034000,0.000046,0.024714,-0.048954,0.101108,-0.052358
3.036000,0.000035,0.024693,-0.047419,0.098908,-0.051693
3.038000,0.000025,0.024673,-0.045891,0.096703,-0.051016
3.040000,0.000026,0.024652,-0.044370,0.094493,-0.050324
3.042000,0.000005,0.024632,-0.042850,0.092270,-0.049623
3.044000,-0.000004,0.024611,-0.041338,0.090043,-0.048908
3.046000,-0.000014,0.024590,-0.039832,0.087810,-0.048182
3.048000,-0.000023,0.024570,-0.038332,0.085571,-0.047443
3.050000,-0.000032,0.024549,-0.036838,0.083326,-0.046691
3.052000,-0.000040,0.024528,-0.035349,0.081075,-0.045928
3.054000,-0.000049,0.024508,-0.033866,0.078816,-0.045153
3.056000,-0.000057,0.024487,-0.032390,0.076553,-0.044366
3.058000,-0.000065,0.024466,-0.030919,0.074282,-0.043566
3.060000,-0.000073,0.024446,-0.029454,0.072007,-0.042755
3.062000,-0.000080,0.024425,-0.027995,0.069725,-0.041932
3.064000,-0.000087,0.024404,-0.026542,0.067437,-0.041097
3.066000,-0.000094,0.024383,-0.025095,0.065144,-0.040251
3.068000,-0.000101,0.024363,-0.023653,0.062844,-0.039393
3.070000,-0.000108,0.024342,-0.022219,0.060540,-0.038523
3.072000,-0.000114,0.024321,-0.020789,0.058230,-0.037642
3.074000,-0.000107,0.024299,-0.019370,0.055921,-0.036750
3.076000,-0.000127,0.024279,-0.017950,0.053594,-0.035846
3.078000,-0.000132,0.024259,-0.016539,0.051268,-0.034931
3.080000,-0.000138,0.024238,-0.015134,0.048937,-0.034004
3.082000,-0.000143,0.024217,-0.013735,0.046600,-0.033066
3.084000,-0.000149,0.024196,-0.012343,0.044259,-0.032117
3.086000,-0.000152,0.024176,-0.010957,0.041913,-0.031158
3.088000,-0.000158,0.024155,-0.009577,0.039562,-0.030187
3.090000,-0.000163,0.024134,-0.008202,0.037205,-0.029204
3.092000,-0.000167,0.024113,-0.006834,0.034844,-0.028211
3.094000,-0.000157,0.024091,-0.005477,0.032487,-0.027210
3.096000,-0.000175,0.024072,-0.004117,0.030109,-0.026193
3.098000,-0.000179,0.024051,-0.002768,0.027735,-0.025168
3.100000,-0.000182,0.024031,-0.001425,0.025356,-0.024132
3.102000,-0.000186,0.024010,-0.000088,0.022972,-0.023085
3.104000,-0.000189,0.023989,0.001243,0.020584,-0.022028
3.106000,-0.000192,0.023969,0.002567,0.018193,-0.020960
3.108000,-0.000194,0.023948,0.003885,0.015796,-0.019882
3.110000,-0.000197,0.023927,0.005196,0.013396,-0.018794
3.112000,-0.000185,0.023905,0.006497,0.011002,-0.017699
3.114000,-0.000201,0.023886,0.007801,0.008585,-0.016587
3.116000,-0.000203,0.023866,0.009093,0.006173,-0.015468
3.118000,-0.000205,0.023845,0.010380,0.003757,-0.014338
3.120000,-0.000207,0.023825,0.011660,0.001338,-0.013199
3.122000,-0.000208,0.023804,0.012934,-0.001085,-0.012050
3.124000,-0.000209,0.023784,0.014201,-0.003512,-0.010891
3.126000,-0.000210,0.023763,0.015462,-0.005941,-0.009722
3.128000,-0.000211,0.023743,0.016717,-0.008375,-0.008543
3.130000,-0.000197,0.023720,0.017960,-0.010800,-0.007361
3.132000,-0.000212,0.023702,0.019207,-0.013252,-0.006156
3.134000,-0.000198,0.023680,0.020437,-0.015683,-0.004955
3.136000,-0.000212,0.023661,0.021671,-0.018140,-0.003732
3.138000,-0.000212,0.023641,0.022894,-0.020590,-0.002505
3.140000,-0.000212,0.023621,0.024110,-0.023042,-0.001269
3.142000,-0.000211,0.023601,0.025320,-0.025498,-0.000023
3.144000,-0.000211,0.023580,0.026523,-0.027955,0.001231
3.146000,-0.000210,0.023560,0.027720,-0.030416,0.002495
3.148000,-0.000209,0.023540,0.028911,-0.032880,0.003768
3.150000,-0.000208,0.023520,0.030094,-0.035345,0.005050
3.152000,-0.000206,0.023500,0.031272,-0.037814,0.006341
3.154000,-0.000205,0.023480,0.032443,-0.040284,0.007641
3.156000,-0.000203,0.023460,0.033607,-0.042758,0.008950
3.158000,-0.000201,0.023440,0.034765,-0.045234,0.010267
3.160000,-0.000199,0.023420,0.035917,-0.047712,0.011594
3.162000,-0.000197,0.023400,0.037062,-0.050192,0.012929
3.164000,-0.000194,0.023380,0.038200,-0.052673,0.014272
3.166000,-0.000192,0.023360,0.039332,-0.055157,0.015624
3.168000,-0.000189,0.023341,0.040457,-0.057644,0.016985
3.170000,-0.000186,0.023321,0.041576,-0.060131,0.018354
3.172000,-0.000183,0.023301,0.042688,-0.062621,0.019731
3.174000,-0.000180,0.023281,0.043794,-0.065113,0.021117
3.176000,-0.000177,0.023262,0.044894,-0.067606,0.022511
3.178000,-0.000173,0.023242,0.045986,-0.070101,0.023913
3.180000,-0.000169,0.023223,0.047072,-0.072597,0.025323
3.182000,-0.000166,0.023203,0.048152,-0.075094,0.026741
3.184000,-0.000162,0.023184,0.049225,-0.077593,0.028167
3.186000,-0.000157,0.023164,0.050291,-0.080093,0.029601
3.188000,-0.000153,0.023145,0.051351,-0.082595,0.031042
3.190000,-0.000149,0.023125,0.052404,-0.085097,0.032492
3.192000,-0.000144,0.023106,0.053451,-0.087601,0.033948
3.194000,-0.000139,0.023087,0.054491,-0.090106,0.035413
3.196000,-0.000134,0.023068,0.055525,-0.092612,0.036885
3.198000,-0.000129,0.023048,0.056551,-0.095118,0.038365
3.200000,-0.000124,0.023029,0.057571,-0.097625,0.039852
3.202000,-0.000119,0.023010,0.058585,-0.100134,0.041346
3.204000,-0.000113,0.022991,0.059592,-0.102642,0.042847
3.206000,-0.000108,0.022972,0.060592,-0.105151,0.044356
3.208000,-0.000102,0.022953,0.061586,-0.107661,0.045872
3.210000,-0.000096,0.022934,0.062573,-0.110171,0.047395
3.212000,-0.000090,0.022915,0.063554,-0.112682,0.048925
3.214000,-0.000084,0.022897,0.064528,-0.115192,0.050462
3.216000,-0.000077,0.022878,0.065495,-0.117704,0.052006
3.218000,-0.000071,0.022859,0.066455,-0.120214,0.053556
3.220000,-0.000064,0.022841,0.067409,-0.122726,0.055113
3.222000,-0.000057,0.022822,0.068357,-0.125236,0.056677
3.224000,-0.000051,0.022803,0.069297,-0.127748,0.058248
3.226000,-0.000043,0.022785,0.070231,-0.130259,0.059825
3.228000,-0.000036,0.022766,0.071158,-0.132770,0.061408
3.230000,-0.000029,0.022748,0.072079,-0.135280,0.062998
3.232000,-0.000022,0.022730,0.072993,-0.137790,0.064594
3.234000,-0.000014,0.022711,0.073900,-0.140299,0.066196
3.236000,-0.000006,0.022693,0.074800,-0.142809,0.067805
3.238000,0.000002,0.022675,0.075694,-0.145317,0.069420
3.240000,0.000009,0.022657,0.076581,-0.147825,0.071040
3.242000,0.000018,0.022639,0.077461,-0.150332,0.072667
3.244000,0.000026,0.022620,0.078335,-0.152839,0.074300
3.246000,0.000034,0.022602,0.079202,-0.155344,0.075938
3.248000,0.000043,0.022585,0.080063,-0.157849,0.077582
3.250000,0.000051,0.022567,0.080916,-0.160352,0.079232
3.252000,0.000060,0.022549,0.081763,-0.162855,0.080887
3.254000,0.000069,0.022531,0.082603,-0.165356,0.082548
3.256000,0.000078,0.022513,0.083436,-0.167856,0.084215
3.258000,0.000087,0.022496,0.084263,-0.170354,0.085887
3.260000,0.000096,0.022478,0.085083,-0.172852,0.087564
3.262000,0.000105,0.022460,0.085896,-0.175348,0.089247
3.264000,0.000114,0.022443,0.086703,-0.177842,0.090935
3.266000,0.000124,0.022425,0.087502,-0.180335,0.092628
3.268000,0.000134,0.022408,0.088295,-0.182826,0.094326
3.270000,0.000143,0.022391,0.089081,-0.185315,0.096029
3.272000,0.000153,0.022373,0.089860,-0.187802,0.097737
3.274000,0.000163,0.022356,0.090633,-0.190289,0.099450
3.276000,0.000173,0.022339,0.091399,-0.192772,0.101168
3.278000,0.000184,0.022322,0.092157,-0.195253,0.102890
3.280000,0.000194,0.022305,0.092910,-0.197733,0.104618
3.282000,0.000204,0.022288,0.093655,-0.200210,0.106350
3.284000,0.000215,0.022271,0.094394,-0.202686,0.108086
3.286000,0.000225,0.022254,0.095126,-0.205158,0.109827
3.288000,0.000236,0.022237,0.095851,-0.207629,0.111572
3.290000,0.000247,0.022220,0.096568,-0.210096,0.113322
3.292000,0.000258,0.022203,0.097280,-0.212562,0.115075
3.294000,0.000269,0.022187,0.097985,-0.215025,0.116834
3.296000,0.000280,0.022170,0.098682,-0.217485,0.118596
3.298000,0.000292,0.022153,0.099373,-0.219942,0.120362
3.300000,0.000303,0.022137,0.100057,-0.222397,0.122133
3.302000,0.000314,0.022120,0.100734,-0.224848,0.123907
3.304000,0.000326,0.022104,0.101405,-0.227297,0.125685
3.306000,0.000337,0.022088,0.102068,-0.229742,0.127467
3.308000,0.000349,0.022071,0.102725,-0.232185,0.129253
3.310000,0.000361,0.022055,0.103374,-0.234624,0.131042
3.312000,0.000373,0.022039,0.104017,-0.237059,0.132835
3.314000,0.000385,0.022023,0.104653,-0.239492,0.134631
3.316000,0.000397,0.022007,0.105282,-0.241922,0.136432
3.318000,0.000410,0.021991,0.105904,-0.244346,0.138234
3.320000,0.000422,0.021975,0.106519,-0.246768,0.140041
3.322000,0.000434,0.021959,0.107127,-0.249186,0.141851
3.324000,0.000447,0.021943,0.107729,-0.251602,0.143664
3.326000,0.000459,0.021927,0.108323,-0.254012,0.145480
3.328000,0.000472,0.021911,0.108911,-0.256419,0.147300
3.330000,0.000485,0.021896,0.109491,-0.258821,0.149122
3.332000,0.000498,0.021880,0.110065,-0.261221,0.150947
3.334000,0.000511,0.021865,0.110632,-0.263616,0.152775
3.336000,0.000524,0.021849,0.111191,-0.266006,0.154606
3.338000,0.000537,0.021834,0.111744,-0.268393,0.156440
3.340000,0.000550,0.021818,0.112290,-0.270775,0.158276
3.342000,0.000563,0.021803,0.112828,-0.273152,0.160114
3.344000,0.000577,0.021788,0.113360,-0.275526,0.161956
3.346000,0.000590,0.021772,0.113885,-0.277894,0.163799
3.348000,0.000604,0.021757,0.114403,-0.280259,0.165646
3.350000,0.000617,0.021742,0.114913,-0.282617,0.167494
3.352000,0.000631,0.021727,0.115417,-0.284971,0.169344
3.354000,0.000645,0.021712,0.115914,-0.287321,0.171197
3.356000,0.000659,0.021697,0.116403,-0.289666,0.173052
3.358000,0.000673,0.021682,0.116886,-0.292006,0.174909
3.360000,0.000687,0.021668,0.117361,-0.294341,0.176768
3.362000,0.000701,0.021653,0.117829,-0.296669,0.178629
3.364000,0.000715,0.021638,0.118291,-0.298993,0.180491
3.366000,0.000729,0.021623,0.118745,-0.301312,0.182356
3.368000,0.000743,0.021609,0.119192,-0.303625,0.184222
3.370000,0.000758,0.021594,0.119633,-0.305934,0.186090
3.372000,0.000773,0.021580,0.120065,-0.308236,0.187959
3.374000,0.000787,0.021566,0.120491,-0.310533,0.189830
3.376000,0.000802,0.021551,0.120910,-0.312823,0.191701
3.378000,0.000816,0.021537,0.121321,-0.315109,0.193575
3.380000,0.000831,0.021523,0.121726,-0.317388,0.195450
3.382000,0.000846,0.021509,0.122123,-0.319662,0.197326
3.384000,0.000861,0.021494,0.122513,-0.321929,0.199203
3.386000,0.000876,0.021480,0.122896,-0.324190,0.201082
3.388000,0.000891,0.021466,0.123271,-0.326445,0.202961
3.390000,0.000906,0.021452,0.123640,-0.328694,0.204841
3.392000,0.000921,0.021439,0.124001,-0.330937,0.206722
3.394000,0.000937,0.021425,0.124355,-0.333173,0.208605
3.396000,0.000952,0.021411,0.124702,-0.335402,0.210487
3.398000,0.000967,0.021397,0.125041,-0.337626,0.212371
3.400000,0.000983,0.021384,0.125373,-0.339842,0.214255
3.402000,0.000998,0.021370,0.125698,-0.342052,0.216139
3.404000,0.001014,0.021356,0.126016,-0.344254,0.218024
3.406000,0.001030,0.021343,0.126326,-0.346450,0.219909
3.408000,0.001045,0.021330,0.126630,-0.348640,0.221795
3.410000,0.001061,0.021316,0.126925,-0.350822,0.223681
3.412000,0.001077,0.021303,0.127213,-0.352996,0.225567
3.414000,0.001093,0.021290,0.127495,-0.355164,0.227454
3.416000,0.001109,0.021276,0.127769,-0.357325,0.229341
3.418000,0.001125,0.021263,0.128035,-0.359477,0.231227
3.420000,0.001141,0.021250,0.128294,-0.361623,0.233113
3.422000,0.001157,0.021237,0.128546,-0.363762,0.235000
3.424000,0.001173,0.021224,0.128790,-0.365891,0.236886
3.426000,0.001190,0.021211,0.129027,-0.368015,0.238772
3.428000,0.001206,0.021198,0.129256,-0.370130,0.240657
3.430000,0.001222,0.021186,0.129478,-0.372237,0.242542
3.432000,0.001239,0.021173,0.129693,-0.374336,0.244427
3.434000,0.001255,0.021160,0.129900,-0.376427,0.246311
3.436000,0.001272,0.021148,0.130100,-0.378511,0.248194
3.438000,0.001288,0.021135,0.130291,-0.380585,0.250077
3.440000,0.001305,0.021123,0.130476,-0.382653,0.251959
3.442000,0.001322,0.021110,0.130653,-0.384712,0.253841
3.444000,0.001338,0.021098,0.130823,-0.386761,0.255721
3.446000,0.001355,0.021085,0.130985,-0.388803,0.257600
3.448000,0.001372,0.021073,0.131139,-0.390836,0.259479
3.450000,0.001389,0.021061,0.131286,-0.392861,0.261356
3.452000,0.001406,0.021049,0.131426,-0.394876,0.263232
3.454000,0.001423,0.021037,0.131557,-0.396883,0.265107
3.456000,0.001440,0.021024,0.131682,-0.398881,0.266981
3.458000,0.001457,0.021012,0.131798,-0.400871,0.268854
3.460000,0.001474,0.021001,0.131907,-0.402850,0.270724
3.462000,0.001492,0.020989,0.132008,-0.404821,0.272594
3.464000,0.001509,0.020977,0.132102,-0.406783,0.274462
3.466000,0.001526,0.020965,0.132187,-0.408735,0.276328
3.468000,0.001544,0.020953,0.132266,-0.410679,0.278193
3.470000,0.001561,0.020942,0.132336,-0.412612,0.280056
3.472000,0.001579,0.020930,0.132399,-0.414536,0.281917
3.474000,0.001596,0.020918,0.132454,-0.416450,0.283776
3.476000,0.001614,0.020907,0.132501,-0.418355,0.285633
3.478000,0.001631,0.020896,0.132541,-0.420250,0.287489
3.480000,0.001649,0.020884,0.132573,-0.422136,0.289342
3.482000,0.001667,0.020873,0.132597,-0.424010,0.291193
3.484000,0.001684,0.020862,0.132613,-0.425876,0.293042
3.486000,0.001702,0.020850,0.132622,-0.427731,0.294888
3.488000,0.001720,0.020839,0.132622,-0.429576,0.296732
3.490000,0.001738,0.020828,0.132615,-0.431411,0.298574
3.492000,0.001756,0.020817,0.132600,-0.433235,0.300414
3.494000,0.001774,0.020806,0.132577,-0.435049,0.302250
3.496000,0.001792,0.020795,0.132546,-0.436853,0.304085
3.498000,0.001810,0.020784,0.132507,-0.438645,0.305916
3.500000,0.001828,0.020773,0.132461,-0.440428,0.307745
3.502000,0.001846,0.020763,0.132405,-0.442198,0.309570
3.504000,0.001864,0.020752,0.132343,-0.443960,0.311394
3.506000,0.001882,0.020741,0.132272,-0.445709,0.313214
3.508000,0.001901,0.020731,0.132194,-0.447448,0.315031
3.510000,0.001919,0.020720,0.132107,-0.449176,0.316845
3.512000,0.001937,0.020709,0.132012,-0.450891,0.318655
3.514000,0.001956,0.020699,0.131910,-0.452598,0.320464
3.516000,0.001974,0.020689,0.131800,-0.454292,0.322268
3.518000,0.001992,0.020678,0.131681,-0.455975,0.324069
3.520000,0.002011,0.020668,0.131554,-0.457646,0.325867
3.522000,0.002029,0.020658,0.131420,-0.459306,0.327662
3.524000,0.002048,0.020648,0.131276,-0.460953,0.329452
3.526000,0.002067,0.020637,0.131126,-0.462590,0.331239
3.528000,0.002085,0.020627,0.130966,-0.464214,0.333022
3.530000,0.002104,0.020617,0.130799,-0.465826,0.334802
3.532000,0.002123,0.020607,0.130624,-0.467428,0.336579
3.534000,0.002141,0.020597,0.130441,-0.469017,0.338351
3.536000,0.002160,0.020588,0.130249,-0.470595,0.340120
3.538000,0.002179,0.020578,0.130048,-0.472157,0.341883
3.540000,0.002198,0.020568,0.129840,-0.473710,0.343643
3.542000,0.002217,0.020558,0.129624,-0.475250,0.345400
3.544000,0.002235,0.020549,0.129399,-0.476777,0.347152
3.546000,0.002254,0.020539,0.129166,-0.478292,0.348899
3.548000,0.002273,0.020530,0.128925,-0.479795,0.350643
3.550000,0.002292,0.020520,0.128676,-0.481285,0.352382
3.552000,0.002311,0.020511,0.128418,-0.482762,0.354116
3.554000,0.002330,0.020501,0.128152,-0.484226,0.355847
3.556000,0.002349,0.020492,0.127878,-0.485679,0.357573
3.558000,0.002369,0.020483,0.127596,-0.487118,0.359294
3.560000,0.002388,0.020474,0.127305,-0.488543,0.361011
3.562000,0.002407,0.020464,0.127005,-0.489955,0.362722
3.564000,0.002426,0.020455,0.126697,-0.491355,0.364429
3.566000,0.002445,0.020446,0.126382,-0.492742,0.366132
3.568000,0.002464,0.020437,0.126057,-0.494114,0.367828
3.570000,0.002484,0.020428,0.125724,-0.495475,0.369521
3.572000,0.002503,0.020419,0.125383,-0.496821,0.371209
3.574000,0.002522,0.020411,0.125033,-0.498152,0.372890
3.576000,0.002542,0.020402,0.124675,-0.499472,0.374568
3.578000,0.002561,0.020393,0.124308,-0.500778,0.376240
3.580000,0.002581,0.020384,0.123933,-0.502069,0.377906
3.582000,0.002600,0.020376,0.123550,-0.503347,0.379568
3.584000,0.002620,0.020367,0.123158,-0.504611,0.381223
3.586000,0.002639,0.020359,0.122757,-0.505862,0.382874
3.588000,0.002659,0.020350,0.122348,-0.507097,0.384519
3.590000,0.002678,0.020342,0.121931,-0.508320,0.386158
3.592000,0.002698,0.020334,0.121504,-0.509527,0.387792
3.594000,0.002717,0.020325,0.121070,-0.510721,0.389420
3.596000,0.002737,0.020317,0.120627,-0.511901,0.391043
3.598000,0.002756,0.020309,0.120174,-0.513064,0.392658
