DanielTruong99/gene_pkgs/ros2_pkgs_gene/joint_planner/motion_files/eclipsoid_1.csv
timestamp,L_hip_joint,L_hip2_joint,L_thigh_joint,L_calf_joint,L_toe_joint
0.000000,-0.015367,-0.051529,-0.095004,-0.402695,0.497100
0.002000,-0.015367,-0.051526,-0.095007,-0.402698,0.497105
0.004000,-0.015365,-0.051517,-0.095015,-0.402703,0.497120
0.006000,-0.015361,-0.051502,-0.095029,-0.402715,0.497145
0.008000,-0.015357,-0.051482,-0.095049,-0.402730,0.497180
0.010000,-0.015351,-0.051455,-0.095073,-0.402750,0.497225
0.012000,-0.015343,-0.051423,-0.095103,-0.402774,0.497280
0.014000,-0.015335,-0.051384,-0.095140,-0.402802,0.497344
0.016000,-0.015324,-0.051340,-0.095181,-0.402835,0.497419
0.018000,-0.015313,-0.051290,-0.095227,-0.402873,0.497504
0.020000,-0.015300,-0.051234,-0.095280,-0.402914,0.497599
0.022000,-0.015286,-0.051171,-0.095338,-0.402960,0.497703
0.024000,-0.015270,-0.051103,-0.095401,-0.403010,0.497818
0.026000,-0.015254,-0.051029,-0.095470,-0.403065,0.497942
0.028000,-0.015235,-0.050949,-0.095544,-0.403123,0.498076
0.030000,-0.015215,-0.050863,-0.095623,-0.403187,0.498220
0.032000,-0.015194,-0.050770,-0.095708,-0.403253,0.498373
0.034000,-0.015171,-0.050672,-0.095798,-0.403326,0.498536
0.036000,-0.015147,-0.050568,-0.095894,-0.403402,0.498709
0.038000,-0.015122,-0.050457,-0.095995,-0.403481,0.498891
0.040000,-0.015095,-0.050340,-0.096101,-0.403565,0.499083
0.042000,-0.015066,-0.050218,-0.096213,-0.403654,0.499285
0.044000,-0.015036,-0.050088,-0.096329,-0.403746,0.499496
0.046000,-0.015005,-0.049953,-0.096451,-0.403843,0.499716
0.048000,-0.014972,-0.049812,-0.096578,-0.403944,0.499946
0.050000,-0.014937,-0.049664,-0.096710,-0.404049,0.500185
0.052000,-0.014901,-0.049510,-0.096848,-0.404157,0.500433
0.054000,-0.014863,-0.049350,-0.096990,-0.404271,0.500690
0.056000,-0.014823,-0.049183,-0.097138,-0.404387,0.500957
0.058000,-0.014782,-0.049010,-0.097290,-0.404509,0.501233
0.060000,-0.014739,-0.048830,-0.097447,-0.404633,0.501517
0.062000,-0.014695,-0.048644,-0.097609,-0.404762,0.501811
0.064000,-0.014649,-0.048451,-0.097777,-0.404894,0.502113
0.066000,-0.014601,-0.048252,-0.097948,-0.405030,0.502423
0.068000,-0.014551,-0.048046,-0.098125,-0.405171,0.502743
0.070000,-0.014500,-0.047834,-0.098306,-0.405315,0.503071
0.072000,-0.014447,-0.047615,-0.098493,-0.405462,0.503408
0.074000,-0.014392,-0.047389,-0.098683,-0.405614,0.503753
0.076000,-0.014335,-0.047156,-0.098879,-0.405769,0.504106
0.078000,-0.014276,-0.046917,-0.099079,-0.405926,0.504467
0.080000,-0.014215,-0.046671,-0.099284,-0.406089,0.504837
0.082000,-0.014152,-0.046418,-0.099492,-0.406254,0.505215
0.084000,-0.014088,-0.046158,-0.099706,-0.406423,0.505600
0.086000,-0.014021,-0.045890,-0.099923,-0.406595,0.505993
0.088000,-0.013952,-0.045616,-0.100145,-0.406770,0.506394
0.090000,-0.013882,-0.045335,-0.100371,-0.406949,0.506802
0.092000,-0.013809,-0.045047,-0.100601,-0.407131,0.507218
0.094000,-0.013734,-0.044751,-0.100836,-0.407316,0.507641
0.096000,-0.013657,-0.044448,-0.101074,-0.407504,0.508071
0.098000,-0.013577,-0.044138,-0.101316,-0.407696,0.508509
0.100000,-0.013496,-0.043821,-0.101562,-0.407890,0.508953
0.102000,-0.013412,-0.043496,-0.101812,-0.408087,0.509404
0.104000,-0.013326,-0.043164,-0.102065,-0.408288,0.509862
0.106000,-0.013237,-0.042824,-0.102323,-0.408489,0.510325
0.108000,-0.013146,-0.042477,-0.102583,-0.408695,0.510796
0.110000,-0.013053,-0.042122,-0.102847,-0.408903,0.511273
0.112000,-0.012957,-0.041759,-0.103115,-0.409114,0.511755
0.114000,-0.012859,-0.041389,-0.103387,-0.409327,0.512244
0.116000,-0.012758,-0.041011,-0.103661,-0.409542,0.512738
0.118000,-0.012655,-0.040625,-0.103938,-0.409760,0.513238
0.120000,-0.012549,-0.040231,-0.104219,-0.409980,0.513743
0.122000,-0.012441,-0.039829,-0.104502,-0.410203,0.514253
0.124000,-0.012330,-0.039419,-0.104789,-0.410426,0.514769
0.126000,-0.012216,-0.039002,-0.105078,-0.410652,0.515289
0.128000,-0.012099,-0.038576,-0.105370,-0.410880,0.515814
0.130000,-0.011980,-0.038141,-0.105665,-0.411110,0.516343
0.132000,-0.011857,-0.037699,-0.105962,-0.411341,0.516877
0.134000,-0.011732,-0.037248,-0.106262,-0.411575,0.517415
0.136000,-0.011604,-0.036789,-0.106564,-0.411810,0.517957
0.138000,-0.011473,-0.036322,-0.106868,-0.412046,0.518502
0.140000,-0.011339,-0.035846,-0.107174,-0.412283,0.519051
0.142000,-0.011202,-0.035362,-0.107483,-0.412522,0.519603
0.144000,-0.011062,-0.034869,-0.107793,-0.412762,0.520159
0.146000,-0.010919,-0.034367,-0.108106,-0.413002,0.520716
0.148000,-0.010773,-0.033857,-0.108420,-0.413244,0.521278
0.150000,-0.010623,-0.033338,-0.108736,-0.413486,0.521841
0.152000,-0.010471,-0.032810,-0.109053,-0.413728,0.522406
0.154000,-0.010315,-0.032274,-0.109372,-0.413971,0.522973
0.156000,-0.010155,-0.031728,-0.109692,-0.414215,0.523542
0.158000,-0.009993,-0.031174,-0.110013,-0.414459,0.524112
0.160000,-0.009827,-0.030610,-0.110335,-0.414703,0.524684
0.162000,-0.009658,-0.030038,-0.110658,-0.414947,0.525257
0.164000,-0.009485,-0.029457,-0.110982,-0.415191,0.525830
0.166000,-0.009308,-0.028866,-0.111307,-0.415434,0.526403
0.168000,-0.009129,-0.028266,-0.111632,-0.415678,0.526978
0.170000,-0.008945,-0.027657,-0.111958,-0.415920,0.527551
0.172000,-0.008758,-0.027038,-0.112284,-0.416162,0.528124
0.174000,-0.008568,-0.026411,-0.112610,-0.416403,0.528697
0.176000,-0.008373,-0.025774,-0.112937,-0.416643,0.529269
0.178000,-0.008175,-0.025127,-0.113263,-0.416882,0.529839
0.180000,-0.007974,-0.024471,-0.113590,-0.417119,0.530408
0.182000,-0.007768,-0.023806,-0.113915,-0.417356,0.530976
0.184000,-0.007559,-0.023131,-0.114241,-0.417591,0.531541
0.186000,-0.007346,-0.022446,-0.114566,-0.417823,0.532103
0.188000,-0.007129,-0.021752,-0.114890,-0.418055,0.532663
0.190000,-0.006909,-0.021048,-0.115213,-0.418283,0.533220
0.192000,-0.006684,-0.020335,-0.115535,-0.418510,0.533774
0.194000,-0.006455,-0.019612,-0.115856,-0.418734,0.534324
0.196000,-0.006223,-0.018879,-0.116177,-0.418955,0.534869
0.198000,-0.005987,-0.018136,-0.116495,-0.419175,0.535411
0.200000,-0.005746,-0.017383,-0.116812,-0.419389,0.535948
0.202000,-0.005502,-0.016621,-0.117127,-0.419602,0.536480
0.204000,-0.005253,-0.015849,-0.117440,-0.419811,0.537007
0.206000,-0.005001,-0.015067,-0.117752,-0.420016,0.537527
0.208000,-0.004744,-0.014275,-0.118061,-0.420218,0.538042
0.210000,-0.004484,-0.013473,-0.118368,-0.420417,0.538551
0.212000,-0.004219,-0.012661,-0.118672,-0.420610,0.539052
0.214000,-0.003950,-0.011840,-0.118974,-0.420800,0.539547
0.216000,-0.003677,-0.011008,-0.119273,-0.420984,0.540034
0.218000,-0.003401,-0.010166,-0.119569,-0.421165,0.540513
0.220000,-0.003120,-0.009315,-0.119862,-0.421340,0.540984
0.222000,-0.002835,-0.008453,-0.120152,-0.421510,0.541446
0.224000,-0.002545,-0.007582,-0.120437,-0.421676,0.541900
0.226000,-0.002252,-0.006700,-0.120720,-0.421835,0.542344
0.228000,-0.001955,-0.005809,-0.120998,-0.421989,0.542778
0.230000,-0.001653,-0.004908,-0.121273,-0.422137,0.543202
0.232000,-0.001348,-0.003997,-0.121544,-0.422278,0.543615
0.234000,-0.001038,-0.003075,-0.121811,-0.422412,0.544018
0.236000,-0.000725,-0.002144,-0.122072,-0.422541,0.544409
0.238000,-0.000407,-0.001203,-0.122330,-0.422662,0.544788
0.240000,-0.000085,-0.000252,-0.122582,-0.422777,0.545156
0.242000,0.000240,0.000708,-0.122830,-0.422884,0.545510
0.244000,0.000570,0.001679,-0.123072,-0.422984,0.545852
0.246000,0.000903,0.002659,-0.123309,-0.423076,0.546180
0.248000,0.001240,0.003649,-0.123541,-0.423159,0.546494
0.250000,0.001582,0.004649,-0.123767,-0.423234,0.546794
0.252000,0.001926,0.005659,-0.123987,-0.423301,0.547079
0.254000,0.002275,0.006678,-0.124201,-0.423360,0.547350
0.256000,0.002628,0.007707,-0.124408,-0.423409,0.547604
0.258000,0.002984,0.008745,-0.124609,-0.423450,0.547843
0.260000,0.003343,0.009793,-0.124805,-0.423479,0.548064
0.262000,0.003707,0.010850,-0.124992,-0.423501,0.548270
0.264000,0.004074,0.011917,-0.125173,-0.423513,0.548458
0.266000,0.004444,0.012993,-0.125347,-0.423513,0.548627
0.268000,0.004817,0.014078,-0.125513,-0.423504,0.548780
0.270000,0.005194,0.015173,-0.125672,-0.423484,0.548913
0.272000,0.005574,0.016276,-0.125823,-0.423452,0.549026
0.274000,0.005958,0.017389,-0.125966,-0.423410,0.549121
0.276000,0.006344,0.018510,-0.126101,-0.423356,0.549195
0.278000,0.006733,0.019640,-0.126227,-0.423291,0.549249
0.280000,0.007126,0.020779,-0.126345,-0.423214,0.549282
0.282000,0.007520,0.021927,-0.126455,-0.423124,0.549293
0.284000,0.007918,0.023083,-0.126555,-0.423023,0.549283
0.286000,0.008318,0.024248,-0.126646,-0.422908,0.549250
0.288000,0.008721,0.025421,-0.126728,-0.422781,0.549195
0.290000,0.009126,0.026602,-0.126800,-0.422642,0.549116
0.292000,0.009534,0.027791,-0.126862,-0.422488,0.549014
0.294000,0.009943,0.028989,-0.126915,-0.422320,0.548887
0.296000,0.010355,0.030194,-0.126957,-0.422139,0.548736
0.298000,0.010768,0.031407,-0.126988,-0.421944,0.548560
0.300000,0.011184,0.032627,-0.127010,-0.421735,0.548358
0.302000,0.011601,0.033855,-0.127020,-0.421511,0.548131
0.304000,0.012019,0.035090,-0.127019,-0.421272,0.547876
0.306000,0.012439,0.036332,-0.127007,-0.421019,0.547596
0.308000,0.012860,0.037581,-0.126983,-0.420751,0.547288
0.310000,0.013282,0.038837,-0.126948,-0.420466,0.546952
0.312000,0.013705,0.040100,-0.126900,-0.420166,0.546588
0.314000,0.014128,0.041369,-0.126841,-0.419850,0.546195
0.316000,0.014552,0.042644,-0.126770,-0.419518,0.545773
0.318000,0.014977,0.043925,-0.126685,-0.419170,0.545322
0.320000,0.015402,0.045213,-0.126588,-0.418804,0.544841
0.322000,0.015827,0.046505,-0.126478,-0.418424,0.544330
0.324000,0.016251,0.047804,-0.126354,-0.418026,0.543787
0.326000,0.016676,0.049107,-0.126217,-0.417611,0.543214
0.328000,0.017099,0.050416,-0.126066,-0.417178,0.542609
0.330000,0.017523,0.051729,-0.125901,-0.416728,0.541972
0.332000,0.017945,0.053047,-0.125722,-0.416261,0.541303
0.334000,0.018366,0.054369,-0.125529,-0.415775,0.540600
0.336000,0.018785,0.055696,-0.125321,-0.415271,0.539865
0.338000,0.019204,0.057026,-0.125098,-0.414750,0.539095
0.340000,0.019620,0.058360,-0.124860,-0.414210,0.538293
0.342000,0.020035,0.059697,-0.124606,-0.413651,0.537455
0.344000,0.020447,0.061037,-0.124338,-0.413074,0.536583
0.346000,0.020857,0.062380,-0.124052,-0.412478,0.535675
0.348000,0.021264,0.063725,-0.123752,-0.411863,0.534733
0.350000,0.021668,0.065073,-0.123434,-0.411229,0.533754
0.352000,0.022069,0.066422,-0.123101,-0.410576,0.532739
0.354000,0.022467,0.067773,-0.122751,-0.409903,0.531688
0.356000,0.022861,0.069125,-0.122384,-0.409212,0.530600
0.358000,0.023252,0.070478,-0.121999,-0.408501,0.529475
0.360000,0.023638,0.071832,-0.121597,-0.407770,0.528313
0.362000,0.024020,0.073186,-0.121177,-0.407021,0.527113
0.364000,0.024397,0.074540,-0.120739,-0.406250,0.525875
0.366000,0.024770,0.075893,-0.120283,-0.405461,0.524599
0.368000,0.025137,0.077246,-0.119809,-0.404652,0.523284
0.370000,0.025500,0.078597,-0.119316,-0.403822,0.521931
0.372000,0.025856,0.079947,-0.118805,-0.402973,0.520538
0.374000,0.026207,0.081295,-0.118275,-0.402103,0.519106
0.376000,0.026551,0.082641,-0.117725,-0.401214,0.517635
0.378000,0.026889,0.083984,-0.117155,-0.400305,0.516124
0.380000,0.027221,0.085323,-0.116566,-0.399376,0.514574
0.382000,0.027546,0.086660,-0.115958,-0.398425,0.512983
0.384000,0.027863,0.087992,-0.115328,-0.397457,0.511352
0.386000,0.028173,0.089320,-0.114679,-0.396467,0.509681
0.388000,0.028476,0.090643,-0.114009,-0.395458,0.507969
0.390000,0.028770,0.091960,-0.113319,-0.394428,0.506217
0.392000,0.029056,0.093272,-0.112608,-0.393380,0.504425
0.394000,0.029334,0.094577,-0.111875,-0.392311,0.502591
0.396000,0.029603,0.095876,-0.111121,-0.391223,0.500717
0.398000,0.029863,0.097168,-0.110345,-0.390115,0.498802
0.400000,0.030114,0.098452,-0.109548,-0.388988,0.496846
0.402000,0.030356,0.099727,-0.108730,-0.387841,0.494848
0.404000,0.030587,0.100994,-0.107888,-0.386675,0.492811
0.406000,0.030809,0.102252,-0.107026,-0.385489,0.490731
0.408000,0.031021,0.103500,-0.106140,-0.384286,0.488612
0.410000,0.031222,0.104738,-0.105232,-0.383064,0.486452
0.412000,0.031413,0.105964,-0.104302,-0.381821,0.484250
0.414000,0.031593,0.107180,-0.103349,-0.380561,0.482007
0.416000,0.031762,0.108383,-0.102373,-0.379282,0.479725
0.418000,0.031919,0.109574,-0.101375,-0.377985,0.477401
0.420000,0.032065,0.110752,-0.100352,-0.376671,0.475038
0.422000,0.032200,0.111916,-0.099307,-0.375339,0.472635
0.424000,0.032322,0.113066,-0.098239,-0.373989,0.470191
0.426000,0.032433,0.114201,-0.097148,-0.372622,0.467708
0.428000,0.032531,0.115320,-0.096033,-0.371238,0.465185
0.430000,0.032617,0.116423,-0.094895,-0.369838,0.462623
0.432000,0.032691,0.117510,-0.093733,-0.368421,0.460022
0.434000,0.032751,0.118579,-0.092548,-0.366987,0.457383
0.436000,0.032799,0.119631,-0.091339,-0.365538,0.454705
0.438000,0.032834,0.120663,-0.090107,-0.364074,0.451989
0.440000,0.032856,0.121677,-0.088852,-0.362594,0.449235
0.442000,0.032865,0.122671,-0.087573,-0.361099,0.446445
0.444000,0.032861,0.123644,-0.086270,-0.359590,0.443618
0.446000,0.032843,0.124596,-0.084945,-0.358067,0.440754
0.448000,0.032812,0.125526,-0.083596,-0.356529,0.437854
0.450000,0.032767,0.126433,-0.082224,-0.354979,0.434919
0.452000,0.032709,0.127317,-0.080829,-0.353414,0.431949
0.454000,0.032637,0.128178,-0.079411,-0.351837,0.428945
0.456000,0.032552,0.129014,-0.077971,-0.350248,0.425907
0.458000,0.032453,0.129824,-0.076508,-0.348646,0.422836
0.460000,0.032341,0.130609,-0.075022,-0.347034,0.419732
0.462000,0.032215,0.131367,-0.073514,-0.345411,0.416597
0.464000,0.032075,0.132098,-0.071985,-0.343776,0.413430
0.466000,0.031922,0.132801,-0.070433,-0.342132,0.410233
0.468000,0.031756,0.133476,-0.068860,-0.340478,0.407006
0.470000,0.031577,0.134121,-0.067266,-0.338814,0.403751
0.472000,0.031384,0.134736,-0.065652,-0.337141,0.400466
0.474000,0.031178,0.135320,-0.064016,-0.335460,0.397155
0.476000,0.030959,0.135873,-0.062361,-0.333771,0.393817
0.478000,0.030727,0.136394,-0.060686,-0.332075,0.390453
0.480000,0.030483,0.136883,-0.058991,-0.330371,0.387064
0.482000,0.030226,0.137338,-0.057277,-0.328662,0.383652
0.484000,0.029957,0.137759,-0.055545,-0.326947,0.380217
0.486000,0.029676,0.138146,-0.053795,-0.325225,0.376759
0.488000,0.029383,0.138497,-0.052027,-0.323500,0.373281
0.490000,0.029079,0.138812,-0.050242,-0.321770,0.369782
0.492000,0.028763,0.139091,-0.048441,-0.320036,0.366265
0.494000,0.028436,0.139333,-0.046624,-0.318298,0.362729
0.496000,0.028098,0.139536,-0.044792,-0.316557,0.359177
0.498000,0.027750,0.139702,-0.042944,-0.314815,0.355610
0.500000,0.027391,0.139828,-0.041083,-0.313071,0.352027
0.502000,0.027023,0.139915,-0.039208,-0.311325,0.348432
0.504000,0.026645,0.139962,-0.037321,-0.309579,0.344824
0.506000,0.026258,0.139968,-0.035421,-0.307833,0.341206
0.508000,0.025863,0.139933,-0.033510,-0.306087,0.337577
0.510000,0.025459,0.139857,-0.031588,-0.304343,0.333941
0.512000,0.025047,0.139738,-0.029657,-0.302600,0.330297
0.514000,0.024628,0.139576,-0.027717,-0.300859,0.326647
0.516000,0.024202,0.139371,-0.025768,-0.299121,0.322994
0.518000,0.023768,0.139123,-0.023813,-0.297386,0.319336
0.520000,0.023329,0.138831,-0.021852,-0.295654,0.315677
0.522000,0.022884,0.138494,-0.019884,-0.293928,0.312018
0.524000,0.022434,0.138112,-0.017912,-0.292206,0.308360
0.526000,0.021979,0.137685,-0.015936,-0.290490,0.304704
0.528000,0.021519,0.137212,-0.013958,-0.288780,0.301053
0.530000,0.021056,0.136694,-0.011978,-0.287077,0.297407
0.532000,0.020589,0.136129,-0.009997,-0.285380,0.293768
0.534000,0.020120,0.135518,-0.008017,-0.283691,0.290137
0.536000,0.019648,0.134860,-0.006038,-0.282011,0.286517
0.538000,0.019174,0.134155,-0.004061,-0.280339,0.282907
0.540000,0.018699,0.133403,-0.002088,-0.278677,0.279311
0.542000,0.018224,0.132603,-0.000120,-0.277025,0.275729
0.544000,0.017748,0.131756,0.001843,-0.275383,0.272164
0.546000,0.017272,0.130862,0.003800,-0.273753,0.268616
0.548000,0.016796,0.129919,0.005748,-0.272133,0.265088
0.550000,0.016322,0.128929,0.007687,-0.270526,0.261581
0.552000,0.015850,0.127891,0.009616,-0.268931,0.258096
0.554000,0.015380,0.126805,0.011533,-0.267350,0.254635
0.556000,0.014912,0.125671,0.013439,-0.265782,0.251201
0.558000,0.014448,0.124490,0.015330,-0.264228,0.247794
0.560000,0.013987,0.123261,0.017206,-0.262689,0.244416
0.562000,0.013530,0.121984,0.019066,-0.261165,0.241068
0.564000,0.013078,0.120659,0.020910,-0.259657,0.237753
0.566000,0.012631,0.119288,0.022734,-0.258165,0.234472
0.568000,0.012189,0.117869,0.024539,-0.256689,0.231227
0.570000,0.011753,0.116404,0.026323,-0.255231,0.228019
0.572000,0.011323,0.114892,0.028085,-0.253790,0.224851
0.574000,0.010900,0.113333,0.029824,-0.252368,0.221722
0.576000,0.010483,0.111729,0.031537,-0.250963,0.218636
0.578000,0.010074,0.110079,0.033226,-0.249579,0.215594
0.580000,0.009672,0.108384,0.034887,-0.248212,0.212598
0.582000,0.009278,0.106644,0.036520,-0.246867,0.209649
0.584000,0.008893,0.104860,0.038123,-0.245541,0.206748
0.586000,0.008515,0.103032,0.039696,-0.244236,0.203898
0.588000,0.008147,0.101160,0.041237,-0.242953,0.201100
0.590000,0.007787,0.099246,0.042745,-0.241691,0.198355
0.592000,0.007436,0.097290,0.044220,-0.240451,0.195666
0.594000,0.007094,0.095292,0.045659,-0.239234,0.193034
0.596000,0.006762,0.093253,0.047061,-0.238039,0.190459
0.598000,0.006439,0.091174,0.048426,-0.236868,0.187945
0.600000,0.006125,0.089055,0.049752,-0.235721,0.185492
0.602000,0.005822,0.086898,0.051038,-0.234597,0.183102
0.604000,0.005527,0.084702,0.052284,-0.233497,0.180776
0.606000,0.005243,0.082469,0.053487,-0.232423,0.178516
0.608000,0.004968,0.080200,0.054647,-0.231373,0.176324
0.610000,0.004703,0.077895,0.055764,-0.230350,0.174200
0.612000,0.004447,0.075555,0.056835,-0.229352,0.172146
0.614000,0.004200,0.073182,0.057859,-0.228380,0.170164
0.616000,0.003963,0.070775,0.058837,-0.227435,0.168255
0.618000,0.003734,0.068337,0.059766,-0.226517,0.166420
0.620000,0.003515,0.065868,0.060647,-0.225627,0.164661
0.622000,0.003304,0.063369,0.061477,-0.224763,0.162978
0.624000,0.003102,0.060840,0.062256,-0.223927,0.161373
0.626000,0.002908,0.058284,0.062983,-0.223120,0.159848
0.628000,0.002722,0.055702,0.063658,-0.222341,0.158404
0.630000,0.002543,0.053093,0.064279,-0.221591,0.157041
0.632000,0.002372,0.050460,0.064846,-0.220870,0.155761
0.634000,0.002208,0.047804,0.065357,-0.220178,0.154565
0.636000,0.002050,0.045126,0.065812,-0.219517,0.153455
0.638000,0.001898,0.042427,0.066211,-0.218885,0.152430
0.640000,0.001752,0.039708,0.066552,-0.218283,0.151493
0.642000,0.001611,0.036970,0.066834,-0.217711,0.150644
0.644000,0.001474,0.034215,0.067059,-0.217171,0.149884
0.646000,0.001342,0.031445,0.067224,-0.216662,0.149214
0.648000,0.001214,0.028660,0.067328,-0.216183,0.148635
0.650000,0.001089,0.025861,0.067372,-0.215737,0.148147
0.652000,0.000966,0.023051,0.067355,-0.215322,0.147753
0.654000,0.000846,0.020230,0.067276,-0.214940,0.147451
0.656000,0.000727,0.017400,0.067135,-0.214589,0.147244
0.658000,0.000609,0.014563,0.066932,-0.214272,0.147132
0.660000,0.000492,0.011719,0.066666,-0.213986,0.147114
0.662000,0.000374,0.008870,0.066335,-0.213733,0.147192
0.664000,0.000255,0.006018,0.065941,-0.213514,0.147368
0.666000,0.000135,0.003165,0.065484,-0.213327,0.147640
0.668000,0.000013,0.000310,0.064962,-0.213175,0.148010
0.670000,-0.000111,-0.002543,0.064375,-0.213056,0.148477
0.672000,-0.000239,-0.005393,0.063724,-0.212971,0.149043
0.674000,-0.000371,-0.008239,0.063007,-0.212919,0.149707
0.676000,-0.000507,-0.011079,0.062226,-0.212903,0.150470
0.678000,-0.000648,-0.013912,0.061380,-0.212920,0.151332
0.680000,-0.000794,-0.016736,0.060468,-0.212972,0.152293
0.682000,-0.000947,-0.019550,0.059492,-0.213059,0.153354
0.684000,-0.001107,-0.022351,0.058450,-0.213180,0.154514
0.686000,-0.001274,-0.025139,0.057343,-0.213336,0.155773
0.688000,-0.001448,-0.027911,0.056172,-0.213528,0.157132
0.690000,-0.001631,-0.030666,0.054936,-0.213754,0.158590
0.692000,-0.001823,-0.033403,0.053635,-0.214016,0.160147
0.694000,-0.002024,-0.036119,0.052270,-0.214313,0.161803
0.696000,-0.002235,-0.038814,0.050841,-0.214645,0.163557
0.698000,-0.002456,-0.041485,0.049349,-0.215013,0.165410
0.700000,-0.002688,-0.044130,0.047794,-0.215416,0.167360
0.702000,-0.002931,-0.046749,0.046175,-0.215854,0.169408
0.704000,-0.003185,-0.049340,0.044495,-0.216329,0.171553
0.706000,-0.003451,-0.051900,0.042753,-0.216840,0.173794
0.708000,-0.003728,-0.054428,0.040950,-0.217384,0.176130
0.710000,-0.004018,-0.056923,0.039087,-0.217966,0.178562
0.712000,-0.004320,-0.059383,0.037164,-0.218582,0.181088
0.714000,-0.004635,-0.061806,0.035182,-0.219234,0.183707
0.716000,-0.004962,-0.064190,0.033143,-0.219923,0.186419
0.718000,-0.005302,-0.066535,0.031045,-0.220645,0.189222
0.720000,-0.005655,-0.068838,0.028892,-0.221404,0.192116
0.722000,-0.006021,-0.071098,0.026683,-0.222197,0.195099
0.724000,-0.006399,-0.073314,0.024420,-0.223026,0.198171
0.726000,-0.006790,-0.075483,0.022103,-0.223889,0.201329
0.728000,-0.007194,-0.077604,0.019734,-0.224787,0.204573
0.730000,-0.007610,-0.079676,0.017314,-0.225720,0.207902
0.732000,-0.008038,-0.081697,0.014844,-0.226687,0.211314
0.734000,-0.008477,-0.083666,0.012326,-0.227688,0.214807
0.736000,-0.008928,-0.085581,0.009760,-0.228723,0.218381
0.738000,-0.009391,-0.087441,0.007149,-0.229792,0.222033
0.740000,-0.009863,-0.089244,0.004492,-0.230893,0.225761
0.742000,-0.010347,-0.090990,0.001793,-0.232028,0.229564
0.744000,-0.010839,-0.092676,-0.000948,-0.233195,0.233441
0.746000,-0.011341,-0.094302,-0.003728,-0.234394,0.237389
0.748000,-0.011851,-0.095866,-0.006548,-0.235626,0.241406
0.750000,-0.012370,-0.097367,-0.009404,-0.236889,0.245491
0.752000,-0.012895,-0.098805,-0.012295,-0.238182,0.249642
0.754000,-0.013426,-0.100177,-0.015220,-0.239506,0.253855
0.756000,-0.013963,-0.101482,-0.018177,-0.240859,0.258129
0.758000,-0.014505,-0.102721,-0.021163,-0.242243,0.262463
0.760000,-0.015051,-0.103891,-0.024178,-0.243656,0.266853
0.762000,-0.015599,-0.104992,-0.027219,-0.245096,0.271298
0.764000,-0.016149,-0.106023,-0.030284,-0.246564,0.275794
0.766000,-0.016701,-0.106983,-0.033372,-0.248058,0.280340
0.768000,-0.017252,-0.107871,-0.036481,-0.249581,0.284933
0.770000,-0.017802,-0.108687,-0.039608,-0.251126,0.289569
0.772000,-0.018350,-0.109430,-0.042753,-0.252698,0.294249
0.774000,-0.018894,-0.110099,-0.045911,-0.254294,0.298967
0.776000,-0.019434,-0.110694,-0.049083,-0.255912,0.303722
0.778000,-0.019969,-0.111214,-0.052266,-0.257552,0.308510
0.780000,-0.020496,-0.111660,-0.055457,-0.259215,0.313330
0.782000,-0.021016,-0.112029,-0.058656,-0.260897,0.318178
0.784000,-0.021527,-0.112324,-0.061859,-0.262599,0.323051
0.786000,-0.022027,-0.112542,-0.065065,-0.264319,0.327947
0.788000,-0.022516,-0.112683,-0.068273,-0.266057,0.332862
0.790000,-0.022991,-0.112749,-0.071478,-0.267812,0.337795
0.792000,-0.023453,-0.112738,-0.074681,-0.269581,0.342742
0.794000,-0.023900,-0.112651,-0.077879,-0.271365,0.347699
0.796000,-0.024330,-0.112488,-0.081070,-0.273161,0.352664
0.798000,-0.024743,-0.112249,-0.084252,-0.274971,0.357635
0.800000,-0.025137,-0.111933,-0.087423,-0.276789,0.362606
0.802000,-0.025511,-0.111542,-0.090581,-0.278618,0.367578
0.804000,-0.025864,-0.111076,-0.093725,-0.280455,0.372544
0.806000,-0.026195,-0.110535,-0.096853,-0.282298,0.377504
0.808000,-0.026503,-0.109919,-0.099963,-0.284147,0.382453
0.810000,-0.026786,-0.109229,-0.103052,-0.286000,0.387389
0.812000,-0.027044,-0.108465,-0.106120,-0.287856,0.392309
0.814000,-0.027276,-0.107628,-0.109165,-0.289713,0.397209
0.816000,-0.027481,-0.106719,-0.112185,-0.291569,0.402087
0.818000,-0.027657,-0.105739,-0.115178,-0.293424,0.406940
0.820000,-0.027805,-0.104687,-0.118143,-0.295276,0.411763
0.822000,-0.027922,-0.103565,-0.121079,-0.297123,0.416556
0.824000,-0.028009,-0.102374,-0.123984,-0.298964,0.421313
0.826000,-0.028065,-0.101114,-0.126857,-0.300797,0.426034
0.828000,-0.028088,-0.099787,-0.129695,-0.302621,0.430713
0.830000,-0.028079,-0.098394,-0.132498,-0.304434,0.435350
0.832000,-0.028037,-0.096934,-0.135266,-0.306234,0.439940
0.834000,-0.027960,-0.095410,-0.137995,-0.308021,0.444480
0.836000,-0.027850,-0.093822,-0.140687,-0.309790,0.448968
0.838000,-0.027704,-0.092172,-0.143338,-0.311543,0.453402
0.840000,-0.027524,-0.090461,-0.145947,-0.313278,0.457778
0.842000,-0.027308,-0.088689,-0.148516,-0.314991,0.462093
0.844000,-0.027057,-0.086859,-0.151041,-0.316682,0.466345
0.846000,-0.026770,-0.084970,-0.153523,-0.318347,0.470531
0.848000,-0.026447,-0.083025,-0.155960,-0.319989,0.474648
0.850000,-0.026089,-0.081024,-0.158352,-0.321601,0.478694
0.852000,-0.025694,-0.078969,-0.160697,-0.323186,0.482666
0.854000,-0.025263,-0.076861,-0.162996,-0.324739,0.486561
0.856000,-0.024797,-0.074702,-0.165247,-0.326261,0.490378
0.858000,-0.024295,-0.072492,-0.167450,-0.327747,0.494113
0.860000,-0.023758,-0.070233,-0.169604,-0.329198,0.497765
0.862000,-0.023186,-0.067926,-0.171708,-0.330613,0.501331
0.864000,-0.022579,-0.065573,-0.173763,-0.331988,0.504808
0.866000,-0.021938,-0.063175,-0.175768,-0.333322,0.508194
0.868000,-0.021263,-0.060733,-0.177721,-0.334616,0.511488
0.870000,-0.020555,-0.058248,-0.179624,-0.335865,0.514687
0.872000,-0.019814,-0.055722,-0.181476,-0.337068,0.517789
0.874000,-0.019041,-0.053157,-0.183275,-0.338226,0.520791
0.876000,-0.018237,-0.050553,-0.185022,-0.339335,0.523693
0.878000,-0.017402,-0.047913,-0.186717,-0.340395,0.526491
0.880000,-0.016538,-0.045236,-0.188359,-0.341404,0.529185
0.882000,-0.015644,-0.042525,-0.189948,-0.342361,0.531773
0.884000,-0.014723,-0.039781,-0.191484,-0.343264,0.534251
0.886000,-0.013774,-0.037005,-0.192967,-0.344112,0.536621
0.888000,-0.012799,-0.034199,-0.194397,-0.344904,0.538878
0.890000,-0.011799,-0.031364,-0.195773,-0.345638,0.541022
0.892000,-0.010775,-0.028501,-0.197095,-0.346314,0.543052
0.894000,-0.009728,-0.025612,-0.198363,-0.346931,0.544965
0.896000,-0.008659,-0.022697,-0.199577,-0.347486,0.546762
0.898000,-0.007569,-0.019759,-0.200737,-0.347981,0.548439
0.900000,-0.006460,-0.016799,-0.201843,-0.348411,0.549997
0.902000,-0.005332,-0.013817,-0.202894,-0.348779,0.551433
0.904000,-0.004188,-0.010815,-0.203891,-0.349083,0.552748
0.906000,-0.003028,-0.007795,-0.204834,-0.349320,0.553939
0.908000,-0.001853,-0.004758,-0.205722,-0.349493,0.555007
0.910000,-0.000666,-0.001705,-0.206555,-0.349599,0.555949
0.912000,0.000534,0.001363,-0.207333,-0.349636,0.556766
0.914000,0.001743,0.004444,-0.208056,-0.349607,0.557456
0.916000,0.002961,0.007538,-0.208725,-0.349509,0.558018
0.918000,0.004187,0.010642,-0.209337,-0.349342,0.558454
0.920000,0.005418,0.013755,-0.209895,-0.349106,0.558760
0.922000,0.006655,0.016877,-0.210398,-0.348799,0.558938
0.924000,0.007894,0.020005,-0.210845,-0.348425,0.558987
0.926000,0.009134,0.023139,-0.211236,-0.347980,0.558906
0.928000,0.010375,0.026277,-0.211571,-0.347465,0.558695
0.930000,0.011615,0.029419,-0.211850,-0.346879,0.558355
0.932000,0.012851,0.032562,-0.212073,-0.346224,0.557884
0.934000,0.014083,0.035705,-0.212240,-0.345498,0.557283
0.936000,0.015309,0.038848,-0.212350,-0.344704,0.556552
0.938000,0.016528,0.041988,-0.212404,-0.343839,0.555691
0.940000,0.017737,0.045125,-0.212400,-0.342905,0.554701
0.942000,0.018936,0.048256,-0.212339,-0.341902,0.553581
0.944000,0.020124,0.051382,-0.212222,-0.340831,0.552331
0.946000,0.021298,0.054500,-0.212046,-0.339692,0.550952
0.948000,0.022457,0.057609,-0.211813,-0.338484,0.549445
0.950000,0.023600,0.060708,-0.211522,-0.337210,0.547810
0.952000,0.024725,0.063795,-0.211172,-0.335870,0.546048
0.954000,0.025831,0.066868,-0.210765,-0.334464,0.544159
0.956000,0.026916,0.069928,-0.210299,-0.332993,0.542144
0.958000,0.027980,0.072972,-0.209774,-0.331458,0.540005
0.960000,0.029020,0.075998,-0.209189,-0.329861,0.537741
0.962000,0.030036,0.079006,-0.208545,-0.328202,0.535354
0.964000,0.031026,0.081993,-0.207842,-0.326481,0.532844
0.966000,0.031988,0.084959,-0.207080,-0.324699,0.530212
0.968000,0.032923,0.087902,-0.206258,-0.322860,0.527462
0.970000,0.033828,0.090820,-0.205375,-0.320962,0.524592
0.972000,0.034703,0.093712,-0.204433,-0.319007,0.521605
0.974000,0.035545,0.096577,-0.203430,-0.316998,0.518502
0.976000,0.036355,0.099412,-0.202367,-0.314935,0.515284
0.978000,0.037131,0.102218,-0.201244,-0.312817,0.511952
0.980000,0.037873,0.104990,-0.200060,-0.310649,0.508509
0.982000,0.038578,0.107730,-0.198815,-0.308431,0.504956
0.984000,0.039247,0.110433,-0.197510,-0.306165,0.501296
0.986000,0.039879,0.113101,-0.196145,-0.303851,0.497528
0.988000,0.040472,0.115729,-0.194720,-0.301492,0.493655
0.990000,0.041027,0.118318,-0.193234,-0.299088,0.489680
0.992000,0.041542,0.120865,-0.191688,-0.296642,0.485604
0.994000,0.042017,0.123369,-0.190082,-0.294155,0.481429
0.996000,0.042451,0.125829,-0.188417,-0.291628,0.477158
0.998000,0.042844,0.128241,-0.186693,-0.289064,0.472792
1.000000,0.043196,0.130606,-0.184909,-0.286463,0.468333
1.002000,0.043506,0.132922,-0.183067,-0.283828,0.463785
1.004000,0.043774,0.135186,-0.181166,-0.281160,0.459148
1.006000,0.043999,0.137397,-0.179209,-0.278460,0.454427
1.008000,0.044182,0.139554,-0.177194,-0.275732,0.449622
1.010000,0.044323,0.141655,-0.175122,-0.272975,0.444738
1.012000,0.044422,0.143699,-0.172996,-0.270192,0.439775
1.014000,0.044478,0.145683,-0.170814,-0.267385,0.434737
1.016000,0.044491,0.147607,-0.168578,-0.264555,0.429627
1.018000,0.044463,0.149469,-0.166288,-0.261704,0.424447
1.020000,0.044394,0.151267,-0.163947,-0.258834,0.419200
1.022000,0.044283,0.153000,-0.161554,-0.255946,0.413889
1.024000,0.044131,0.154666,-0.159112,-0.253041,0.408516
1.026000,0.043939,0.156264,-0.156620,-0.250123,0.403086
1.028000,0.043708,0.157793,-0.154081,-0.247191,0.397599
1.030000,0.043438,0.159250,-0.151495,-0.244249,0.392060
1.032000,0.043129,0.160636,-0.148864,-0.241297,0.386472
1.034000,0.042783,0.161948,-0.146190,-0.238337,0.380838
1.036000,0.042401,0.163185,-0.143473,-0.235371,0.375160
1.038000,0.041983,0.164347,-0.140716,-0.232401,0.369443
1.040000,0.041531,0.165431,-0.137920,-0.229428,0.363689
1.042000,0.041045,0.166437,-0.135088,-0.226452,0.357900
1.044000,0.040528,0.167364,-0.132220,-0.223477,0.352082
1.046000,0.039979,0.168210,-0.129319,-0.220504,0.346236
1.048000,0.039400,0.168975,-0.126386,-0.217532,0.340366
1.050000,0.038793,0.169658,-0.123424,-0.214566,0.334476
1.052000,0.038158,0.170258,-0.120434,-0.211606,0.328569
1.054000,0.037498,0.170774,-0.117419,-0.208653,0.322648
1.056000,0.036813,0.171205,-0.114381,-0.205707,0.316715
1.058000,0.036106,0.171551,-0.111322,-0.202773,0.310776
1.060000,0.035377,0.171812,-0.108244,-0.199849,0.304833
1.062000,0.034629,0.171986,-0.105149,-0.196938,0.298889
1.064000,0.033862,0.172073,-0.102041,-0.194040,0.292948
1.066000,0.033079,0.172073,-0.098920,-0.191158,0.287014
1.068000,0.032280,0.171986,-0.095790,-0.188292,0.281088
1.070000,0.031468,0.171812,-0.092653,-0.185442,0.275175
1.072000,0.030644,0.171549,-0.089513,-0.182611,0.269278
1.074000,0.029810,0.171199,-0.086369,-0.179799,0.263401
1.076000,0.028968,0.170761,-0.083227,-0.177008,0.257546
1.078000,0.028118,0.170235,-0.080087,-0.174239,0.251718
1.080000,0.027263,0.169622,-0.076952,-0.171491,0.245918
1.082000,0.026404,0.168921,-0.073826,-0.168768,0.240151
1.084000,0.025544,0.168134,-0.070710,-0.166067,0.234419
1.086000,0.024682,0.167260,-0.067607,-0.163394,0.228726
1.088000,0.023822,0.166300,-0.064520,-0.160745,0.223074
1.090000,0.022964,0.165255,-0.061451,-0.158124,0.217467
1.092000,0.022110,0.164124,-0.058402,-0.155529,0.211908
1.094000,0.021261,0.162910,-0.055376,-0.152964,0.206400
1.096000,0.020419,0.161612,-0.052376,-0.150427,0.200945
1.098000,0.019585,0.160231,-0.049404,-0.147919,0.195547
1.100000,0.018760,0.158769,-0.046462,-0.145442,0.190208
1.102000,0.017947,0.157226,-0.043552,-0.142996,0.184932
1.104000,0.017144,0.155603,-0.040678,-0.140582,0.179720
1.106000,0.016355,0.153902,-0.037840,-0.138199,0.174576
1.108000,0.015580,0.152123,-0.035042,-0.135850,0.169502
1.110000,0.014821,0.150269,-0.032286,-0.133532,0.164501
1.112000,0.014077,0.148339,-0.029573,-0.131249,0.159574
1.114000,0.013350,0.146336,-0.026907,-0.128999,0.154726
1.116000,0.012641,0.144261,-0.024288,-0.126784,0.149957
1.118000,0.011950,0.142115,-0.021719,-0.124604,0.145271
1.120000,0.011279,0.139900,-0.019202,-0.122459,0.140669
1.122000,0.010627,0.137617,-0.016739,-0.120348,0.136153
1.124000,0.009996,0.135268,-0.014332,-0.118274,0.131727
1.126000,0.009386,0.132854,-0.011981,-0.116236,0.127391
1.128000,0.008797,0.130378,-0.009690,-0.114234,0.123148
1.130000,0.008229,0.127840,-0.007460,-0.112268,0.119000
1.132000,0.007684,0.125243,-0.005291,-0.110339,0.114948
1.134000,0.007161,0.122588,-0.003187,-0.108447,0.110993
1.136000,0.006660,0.119878,-0.001148,-0.106592,0.107139
1.138000,0.006181,0.117113,0.000824,-0.104773,0.103385
1.140000,0.005725,0.114295,0.002729,-0.102993,0.099736
1.142000,0.005290,0.111428,0.004564,-0.101249,0.096189
1.144000,0.004878,0.108511,0.006329,-0.099545,0.092750
1.146000,0.004488,0.105548,0.008022,-0.097876,0.089416
1.148000,0.004120,0.102540,0.009642,-0.096246,0.086191
1.150000,0.003773,0.099489,0.011189,-0.094654,0.083076
1.152000,0.003447,0.096396,0.012660,-0.093099,0.080070
1.154000,0.003141,0.093265,0.014057,-0.091582,0.077176
1.156000,0.002856,0.090097,0.015377,-0.090103,0.074395
1.158000,0.002590,0.086893,0.016620,-0.088662,0.071727
1.160000,0.002343,0.083656,0.017785,-0.087259,0.069173
1.162000,0.002126,0.080386,0.018866,-0.085886,0.066731
1.164000,0.001904,0.077089,0.019880,-0.084566,0.064411
1.166000,0.001710,0.073764,0.020807,-0.083276,0.062203
1.168000,0.001532,0.070412,0.021655,-0.082024,0.060112
1.170000,0.001370,0.067038,0.022422,-0.080810,0.058139
1.172000,0.001223,0.063641,0.023108,-0.079633,0.056283
1.174000,0.001089,0.060225,0.023713,-0.078493,0.054544
1.176000,0.000968,0.056791,0.024237,-0.077391,0.052924
1.178000,0.000859,0.053341,0.024679,-0.076327,0.051423
1.180000,0.000761,0.049876,0.025039,-0.075300,0.050039
1.182000,0.000674,0.046400,0.025317,-0.074310,0.048775
1.184000,0.000595,0.042913,0.025512,-0.073356,0.047628
1.186000,0.000525,0.039419,0.025626,-0.072440,0.046601
1.188000,0.000462,0.035917,0.025657,-0.071560,0.045691
1.190000,0.000406,0.032411,0.025607,-0.070717,0.044901
1.192000,0.000354,0.028902,0.025474,-0.069910,0.044228
1.194000,0.000307,0.025392,0.025260,-0.069141,0.043673
1.196000,0.000263,0.021883,0.024965,-0.068407,0.043236
1.198000,0.000221,0.018376,0.024588,-0.067709,0.042916
1.200000,0.000181,0.014874,0.024130,-0.067047,0.042712
1.202000,0.000141,0.011378,0.023592,-0.066421,0.042625
1.204000,0.000100,0.007890,0.022973,-0.065831,0.042654
1.206000,0.000058,0.004411,0.022275,-0.065275,0.042797
1.208000,0.000013,0.000944,0.021497,-0.064755,0.043055
1.210000,-0.000036,-0.002510,0.020640,-0.064270,0.043427
1.212000,-0.000089,-0.005949,0.019705,-0.063820,0.043911
1.214000,-0.000147,-0.009371,0.018693,-0.063405,0.044508
1.216000,-0.000211,-0.012776,0.017603,-0.063023,0.045216
1.218000,-0.000283,-0.016160,0.016436,-0.062676,0.046034
1.220000,-0.000362,-0.019524,0.015195,-0.062364,0.046962
1.222000,-0.000469,-0.022861,0.013868,-0.062064,0.047989
1.224000,-0.000547,-0.026180,0.012486,-0.061839,0.049142
1.226000,-0.000655,-0.029470,0.011021,-0.061627,0.050392
1.228000,-0.000773,-0.032732,0.009484,-0.061447,0.051747
1.230000,-0.000903,-0.035965,0.007875,-0.061301,0.053207
1.232000,-0.001044,-0.039167,0.006195,-0.061187,0.054768
1.234000,-0.001199,-0.042337,0.004446,-0.061106,0.056432
1.236000,-0.001366,-0.045473,0.002627,-0.061055,0.058195
1.238000,-0.001548,-0.048575,0.000741,-0.061038,0.060057
1.240000,-0.001743,-0.051640,-0.001212,-0.061052,0.062017
1.242000,-0.001953,-0.054668,-0.003231,-0.061097,0.064073
1.244000,-0.002178,-0.057656,-0.005314,-0.061173,0.066223
1.246000,-0.002418,-0.060604,-0.007462,-0.061279,0.068466
1.248000,-0.002673,-0.063510,-0.009670,-0.061416,0.070800
1.250000,-0.002945,-0.066374,-0.011941,-0.061582,0.073224
1.252000,-0.003232,-0.069193,-0.014270,-0.061779,0.075736
1.254000,-0.003535,-0.071967,-0.016658,-0.062004,0.078335
1.256000,-0.003855,-0.074694,-0.019104,-0.062259,0.081019
1.258000,-0.004190,-0.077374,-0.021605,-0.062542,0.083785
1.260000,-0.004542,-0.080005,-0.024161,-0.062853,0.086633
1.262000,-0.004910,-0.082587,-0.026770,-0.063192,0.089560
1.264000,-0.005295,-0.085117,-0.029430,-0.063559,0.092564
1.266000,-0.005695,-0.087596,-0.032140,-0.063952,0.095645
1.268000,-0.006111,-0.090022,-0.034900,-0.064372,0.098799
1.270000,-0.006543,-0.092394,-0.037706,-0.064819,0.102025
1.272000,-0.006990,-0.094712,-0.040558,-0.065291,0.105321
1.274000,-0.007452,-0.096974,-0.043455,-0.065789,0.108686
1.276000,-0.007928,-0.099180,-0.046393,-0.066312,0.112116
1.278000,-0.008419,-0.101330,-0.049374,-0.066859,0.115610
1.280000,-0.008924,-0.103421,-0.052393,-0.067430,0.119166
1.282000,-0.009442,-0.105454,-0.055450,-0.068025,0.122782
1.284000,-0.009973,-0.107429,-0.058544,-0.068643,0.126456
1.286000,-0.010516,-0.109343,-0.061672,-0.069283,0.130185
1.288000,-0.011071,-0.111198,-0.064833,-0.069945,0.133968
1.290000,-0.011638,-0.112992,-0.068025,-0.070630,0.137803
1.292000,-0.012214,-0.114725,-0.071247,-0.071335,0.141687
1.294000,-0.012801,-0.116396,-0.074497,-0.072059,0.145618
1.296000,-0.013397,-0.118006,-0.077774,-0.072804,0.149594
1.298000,-0.014001,-0.119553,-0.081074,-0.073570,0.153613
1.300000,-0.014613,-0.121038,-0.084398,-0.074353,0.157673
1.302000,-0.015232,-0.122460,-0.087743,-0.075154,0.161771
1.304000,-0.015857,-0.123820,-0.091107,-0.075974,0.165906
1.306000,-0.016488,-0.125116,-0.094489,-0.076811,0.170075
1.308000,-0.017122,-0.126349,-0.097888,-0.077663,0.174276
1.310000,-0.017761,-0.127519,-0.101301,-0.078531,0.178507
1.312000,-0.018403,-0.128625,-0.104727,-0.079416,0.182767
1.314000,-0.019046,-0.129669,-0.108165,-0.080314,0.187051
1.316000,-0.019691,-0.130649,-0.111612,-0.081226,0.191359
1.318000,-0.020335,-0.131566,-0.115067,-0.082152,0.195688
1.320000,-0.020980,-0.132420,-0.118529,-0.083090,0.200036
1.322000,-0.021622,-0.133212,-0.121995,-0.084040,0.204401
1.324000,-0.022263,-0.133941,-0.125464,-0.085002,0.208782
1.326000,-0.022900,-0.134608,-0.128935,-0.085975,0.213175
1.328000,-0.023533,-0.135213,-0.132407,-0.086956,0.217579
1.330000,-0.024161,-0.135757,-0.135877,-0.087948,0.221992
1.332000,-0.024783,-0.136239,-0.139345,-0.088948,0.226411
1.334000,-0.025398,-0.136661,-0.142809,-0.089956,0.230835
1.336000,-0.026006,-0.137023,-0.146266,-0.090972,0.235262
1.338000,-0.026606,-0.137325,-0.149718,-0.091993,0.239689
1.340000,-0.027196,-0.137568,-0.153160,-0.093021,0.244115
1.342000,-0.027776,-0.137752,-0.156593,-0.094054,0.248538
1.344000,-0.028346,-0.137878,-0.160015,-0.095090,0.252956
1.346000,-0.028904,-0.137947,-0.163425,-0.096130,0.257367
1.348000,-0.029450,-0.137960,-0.166822,-0.097174,0.261769
1.350000,-0.029983,-0.137916,-0.170204,-0.098220,0.266160
1.352000,-0.030502,-0.137817,-0.173570,-0.099268,0.270539
1.354000,-0.031007,-0.137663,-0.176919,-0.100316,0.274904
1.356000,-0.031497,-0.137455,-0.180251,-0.101364,0.279253
1.358000,-0.031971,-0.137195,-0.183563,-0.102412,0.283584
1.360000,-0.032429,-0.136882,-0.186855,-0.103459,0.287896
1.362000,-0.032870,-0.136518,-0.190126,-0.104503,0.292187
1.364000,-0.033294,-0.136103,-0.193375,-0.105545,0.296456
1.366000,-0.033700,-0.135639,-0.196602,-0.106583,0.300701
1.368000,-0.034087,-0.135126,-0.199806,-0.107617,0.304920
1.370000,-0.034456,-0.134564,-0.202984,-0.108647,0.309113
1.372000,-0.034805,-0.133956,-0.206137,-0.109670,0.313276
1.374000,-0.035135,-0.133302,-0.209264,-0.110688,0.317411
1.376000,-0.035445,-0.132602,-0.212364,-0.111699,0.321513
1.378000,-0.035734,-0.131858,-0.215438,-0.112702,0.325584
1.380000,-0.036003,-0.131071,-0.218483,-0.113698,0.329620
1.382000,-0.036250,-0.130242,-0.221499,-0.114685,0.333622
1.384000,-0.036477,-0.129371,-0.224486,-0.115662,0.337587
1.386000,-0.036681,-0.128460,-0.227443,-0.116629,0.341514
1.388000,-0.036865,-0.127509,-0.230371,-0.117585,0.345404
1.390000,-0.037026,-0.126520,-0.233267,-0.118530,0.349253
1.392000,-0.037165,-0.125493,-0.236133,-0.119463,0.353061
1.394000,-0.037282,-0.124429,-0.238967,-0.120383,0.356828
1.396000,-0.037377,-0.123330,-0.241769,-0.121291,0.360552
1.398000,-0.037450,-0.122197,-0.244539,-0.122184,0.364233
1.400000,-0.037500,-0.121029,-0.247276,-0.123064,0.367869
1.402000,-0.037528,-0.119829,-0.249982,-0.123929,0.371459
1.404000,-0.037533,-0.118597,-0.252654,-0.124778,0.375003
1.406000,-0.037517,-0.117335,-0.255293,-0.125611,0.378499
1.408000,-0.037478,-0.116042,-0.257898,-0.126428,0.381948
1.410000,-0.037417,-0.114721,-0.260471,-0.127228,0.385348
1.412000,-0.037334,-0.113371,-0.263009,-0.128010,0.388700
1.414000,-0.037229,-0.111995,-0.265514,-0.128775,0.392001
1.416000,-0.037103,-0.110592,-0.267985,-0.129522,0.395252
1.418000,-0.036955,-0.109165,-0.270423,-0.130249,0.398451
1.420000,-0.036785,-0.107712,-0.272826,-0.130957,0.401599
1.422000,-0.036595,-0.106237,-0.275197,-0.131645,0.404694
1.424000,-0.036384,-0.104739,-0.277532,-0.132314,0.407737
1.426000,-0.036152,-0.103219,-0.279835,-0.132962,0.410727
1.428000,-0.035899,-0.101678,-0.282103,-0.133589,0.413663
1.430000,-0.035627,-0.100117,-0.284338,-0.134195,0.416546
1.432000,-0.035334,-0.098538,-0.286540,-0.134779,0.419374
1.434000,-0.035023,-0.096940,-0.288708,-0.135342,0.422148
1.436000,-0.034692,-0.095324,-0.290842,-0.135882,0.424867
1.438000,-0.034342,-0.093692,-0.292944,-0.136399,0.427531
1.440000,-0.033974,-0.092043,-0.295013,-0.136894,0.430139
1.442000,-0.033588,-0.090380,-0.297048,-0.137367,0.432693
1.444000,-0.033184,-0.088702,-0.299051,-0.137816,0.435191
1.446000,-0.032763,-0.087011,-0.301021,-0.138241,0.437632
1.448000,-0.032325,-0.085307,-0.302960,-0.138642,0.440018
1.450000,-0.031870,-0.083590,-0.304866,-0.139019,0.442348
1.452000,-0.031399,-0.081863,-0.306740,-0.139371,0.444622
1.454000,-0.030913,-0.080124,-0.308583,-0.139700,0.446840
1.456000,-0.030411,-0.078375,-0.310394,-0.140005,0.449003
1.458000,-0.029894,-0.076617,-0.312174,-0.140283,0.451108
1.460000,-0.029363,-0.074851,-0.313924,-0.140538,0.453159
1.462000,-0.028818,-0.073076,-0.315642,-0.140768,0.455153
1.464000,-0.028260,-0.071294,-0.317331,-0.140972,0.457091
1.466000,-0.027688,-0.069505,-0.318989,-0.141151,0.458974
1.468000,-0.027104,-0.067709,-0.320617,-0.141305,0.460801
1.470000,-0.026508,-0.065909,-0.322216,-0.141434,0.462573
1.472000,-0.025899,-0.064103,-0.323787,-0.141537,0.464289
1.474000,-0.025280,-0.062292,-0.325328,-0.141615,0.465951
1.476000,-0.024650,-0.060478,-0.326840,-0.141668,0.467558
1.478000,-0.024009,-0.058661,-0.328324,-0.141695,0.469110
1.480000,-0.023359,-0.056840,-0.329779,-0.141697,0.470608
1.482000,-0.022699,-0.055017,-0.331208,-0.141672,0.472052
1.484000,-0.022030,-0.053193,-0.332609,-0.141624,0.473443
1.486000,-0.021353,-0.051367,-0.333982,-0.141550,0.474780
1.488000,-0.020661,-0.049540,-0.335332,-0.141437,0.476028
1.490000,-0.019974,-0.047714,-0.336650,-0.141324,0.477294
1.492000,-0.019267,-0.045888,-0.337947,-0.141162,0.478442
1.494000,-0.018567,-0.044061,-0.339213,-0.141000,0.479599
1.496000,-0.017854,-0.042237,-0.340455,-0.140800,0.480674
1.498000,-0.017134,-0.040413,-0.341673,-0.140575,0.481698
1.500000,-0.016410,-0.038592,-0.342866,-0.140326,0.482671
1.502000,-0.015672,-0.036774,-0.344037,-0.140041,0.483571
1.504000,-0.014946,-0.034956,-0.345177,-0.139754,0.484466
1.506000,-0.014207,-0.033143,-0.346297,-0.139431,0.485289
1.508000,-0.013465,-0.031333,-0.347393,-0.139084,0.486063
1.510000,-0.012719,-0.029527,-0.348465,-0.138715,0.486788
1.512000,-0.011970,-0.027726,-0.349515,-0.138320,0.487465
1.514000,-0.011212,-0.025930,-0.350546,-0.137892,0.488080
1.516000,-0.010466,-0.024137,-0.351546,-0.137461,0.488677
1.518000,-0.009710,-0.022350,-0.352528,-0.136997,0.489213
1.520000,-0.008954,-0.020569,-0.353489,-0.136510,0.489703
1.522000,-0.008196,-0.018795,-0.354427,-0.136001,0.490148
1.524000,-0.007438,-0.017026,-0.355345,-0.135469,0.490546
1.526000,-0.006679,-0.015264,-0.356241,-0.134915,0.490901
1.528000,-0.005920,-0.013509,-0.357116,-0.134339,0.491212
1.530000,-0.005162,-0.011761,-0.357972,-0.133741,0.491479
1.532000,-0.004404,-0.010020,-0.358807,-0.133123,0.491704
1.534000,-0.003647,-0.008288,-0.359623,-0.132482,0.491886
1.536000,-0.002892,-0.006563,-0.360419,-0.131821,0.492027
1.538000,-0.002138,-0.004847,-0.361196,-0.131139,0.492126
1.540000,-0.001386,-0.003139,-0.361953,-0.130438,0.492186
1.542000,-0.000636,-0.001440,-0.362693,-0.129716,0.492204
1.544000,0.000111,0.000250,-0.363414,-0.128974,0.492184
1.546000,0.000855,0.001931,-0.364117,-0.128213,0.492125
1.548000,0.001596,0.003602,-0.364802,-0.127433,0.492028
1.550000,0.002334,0.005264,-0.365469,-0.126634,0.491893
1.552000,0.003065,0.006917,-0.366123,-0.125810,0.491713
1.554000,0.003794,0.008559,-0.366756,-0.124974,0.491504
1.556000,0.004525,0.010188,-0.367369,-0.124128,0.491270
1.558000,0.005247,0.011809,-0.367969,-0.123257,0.490992
1.560000,0.005964,0.013418,-0.368553,-0.122369,0.490679
1.562000,0.006677,0.015017,-0.369121,-0.121464,0.490331
1.564000,0.007384,0.016605,-0.369674,-0.120542,0.489951
1.566000,0.008086,0.018182,-0.370211,-0.119605,0.489538
1.568000,0.008783,0.019747,-0.370733,-0.118651,0.489093
1.570000,0.009474,0.021300,-0.371240,-0.117682,0.488617
1.572000,0.010160,0.022842,-0.371733,-0.116697,0.488110
1.574000,0.010839,0.024371,-0.372211,-0.115698,0.487573
1.576000,0.011513,0.025889,-0.372676,-0.114683,0.487006
1.578000,0.012180,0.027395,-0.373127,-0.113655,0.486411
1.580000,0.012840,0.028888,-0.373564,-0.112613,0.485787
1.582000,0.013494,0.030368,-0.373987,-0.111557,0.485136
1.584000,0.014141,0.031836,-0.374398,-0.110488,0.484457
1.586000,0.014782,0.033291,-0.374796,-0.109406,0.483752
1.588000,0.015415,0.034734,-0.375182,-0.108311,0.483021
1.590000,0.016041,0.036163,-0.375555,-0.107205,0.482266
1.592000,0.016660,0.037579,-0.375916,-0.106086,0.481485
1.594000,0.017242,0.038993,-0.376266,-0.104949,0.480646
1.596000,0.017876,0.040372,-0.376604,-0.103813,0.479852
1.598000,0.018472,0.041749,-0.376931,-0.102661,0.479002
1.600000,0.019061,0.043112,-0.377247,-0.101497,0.478129
1.602000,0.019643,0.044461,-0.377552,-0.100324,0.477235
1.604000,0.020216,0.045797,-0.377846,-0.099141,0.476319
1.606000,0.020782,0.047118,-0.378131,-0.097947,0.475384
1.608000,0.021339,0.048426,-0.378405,-0.096745,0.474428
1.610000,0.021889,0.049721,-0.378669,-0.095533,0.473453
1.612000,0.022430,0.051001,-0.378924,-0.094313,0.472460
1.614000,0.022964,0.052267,-0.379169,-0.093084,0.471449
1.616000,0.023489,0.053519,-0.379406,-0.091847,0.470419
1.618000,0.024006,0.054757,-0.379633,-0.090604,0.469374
1.620000,0.024515,0.055981,-0.379853,-0.089351,0.468312
1.622000,0.025016,0.057190,-0.380063,-0.088091,0.467234
1.624000,0.025509,0.058385,-0.380266,-0.086825,0.466141
1.626000,0.025993,0.059566,-0.380460,-0.085552,0.465033
1.628000,0.026469,0.060732,-0.380648,-0.084273,0.463911
1.630000,0.026936,0.061884,-0.380827,-0.082988,0.462775
1.632000,0.027396,0.063022,-0.381000,-0.081697,0.461627
1.634000,0.027847,0.064145,-0.381165,-0.080401,0.460466
1.636000,0.028290,0.065253,-0.381323,-0.079099,0.459293
1.638000,0.028724,0.066347,-0.381475,-0.077793,0.458108
1.640000,0.029151,0.067427,-0.381621,-0.076482,0.456913
1.642000,0.029569,0.068491,-0.381761,-0.075166,0.455707
1.644000,0.029979,0.069542,-0.381895,-0.073846,0.454491
1.646000,0.030380,0.070577,-0.382022,-0.072523,0.453266
1.648000,0.030774,0.071598,-0.382145,-0.071196,0.452032
1.650000,0.031159,0.072605,-0.382263,-0.069865,0.450790
1.652000,0.031536,0.073596,-0.382376,-0.068531,0.449539
1.654000,0.031906,0.074573,-0.382483,-0.067195,0.448281
1.656000,0.032267,0.075536,-0.382587,-0.065856,0.447016
1.658000,0.032620,0.076484,-0.382686,-0.064514,0.445744
1.660000,0.032965,0.077417,-0.382780,-0.063171,0.444467
1.662000,0.033303,0.078336,-0.382871,-0.061826,0.443184
1.664000,0.033632,0.079240,-0.382958,-0.060479,0.441895
1.666000,0.033954,0.080130,-0.383041,-0.059130,0.440602
1.668000,0.034268,0.081005,-0.383121,-0.057780,0.439305
1.670000,0.034575,0.081865,-0.383199,-0.056429,0.438003
1.672000,0.034874,0.082711,-0.383273,-0.055078,0.436699
1.674000,0.035165,0.083543,-0.383345,-0.053725,0.435391
1.676000,0.035449,0.084360,-0.383414,-0.052372,0.434081
1.678000,0.035725,0.085163,-0.383480,-0.051019,0.432768
1.680000,0.035994,0.085951,-0.383544,-0.049666,0.431454
1.682000,0.036256,0.086725,-0.383607,-0.048313,0.430138
1.684000,0.036511,0.087485,-0.383668,-0.046960,0.428821
1.686000,0.036759,0.088230,-0.383727,-0.045608,0.427503
1.688000,0.036999,0.088961,-0.383785,-0.044257,0.426186
1.690000,0.037233,0.089678,-0.383842,-0.042907,0.424868
1.692000,0.037459,0.090381,-0.383897,-0.041557,0.423551
1.694000,0.037679,0.091070,-0.383952,-0.040209,0.422234
1.696000,0.037892,0.091745,-0.384006,-0.038862,0.420919
1.698000,0.038099,0.092406,-0.384060,-0.037516,0.419605
1.700000,0.038299,0.093052,-0.384113,-0.036173,0.418293
1.702000,0.038492,0.093685,-0.384166,-0.034832,0.416983
1.704000,0.038679,0.094304,-0.384219,-0.033492,0.415676
1.706000,0.038860,0.094910,-0.384272,-0.032155,0.414371
1.708000,0.039034,0.095501,-0.384326,-0.030819,0.413070
1.710000,0.039203,0.096079,-0.384380,-0.029487,0.411771
1.712000,0.039365,0.096644,-0.384435,-0.028156,0.410477
1.714000,0.039521,0.097194,-0.384490,-0.026829,0.409186
1.716000,0.039671,0.097732,-0.384547,-0.025504,0.407900
1.718000,0.039816,0.098256,-0.384604,-0.024183,0.406618
1.720000,0.039954,0.098766,-0.384663,-0.022864,0.405341
1.722000,0.040087,0.099264,-0.384723,-0.021549,0.404069
1.724000,0.040215,0.099748,-0.384785,-0.020236,0.402803
1.726000,0.040337,0.100219,-0.384848,-0.018928,0.401542
1.728000,0.040453,0.100676,-0.384913,-0.017623,0.400286
1.730000,0.040564,0.101121,-0.384980,-0.016321,0.399037
1.732000,0.040670,0.101553,-0.385049,-0.015024,0.397794
1.734000,0.040770,0.101972,-0.385121,-0.013729,0.396558
1.736000,0.040866,0.102379,-0.385194,-0.012439,0.395328
1.738000,0.040956,0.102772,-0.385270,-0.011153,0.394105
1.740000,0.041042,0.103153,-0.385349,-0.009871,0.392889
1.742000,0.041123,0.103521,-0.385429,-0.008594,0.391680
1.744000,0.041198,0.103877,-0.385513,-0.007320,0.390480
1.746000,0.041269,0.104221,-0.385600,-0.006052,0.389286
1.748000,0.041336,0.104552,-0.385690,-0.004787,0.388101
1.750000,0.041398,0.104870,-0.385782,-0.003527,0.386924
1.752000,0.041455,0.105177,-0.385878,-0.002271,0.385755
1.754000,0.041508,0.105471,-0.385977,-0.001021,0.384594
1.756000,0.041557,0.105754,-0.386079,0.000225,0.383442
1.758000,0.041601,0.106024,-0.386185,0.001467,0.382298
1.760000,0.041641,0.106283,-0.386294,0.002703,0.381164
1.762000,0.041677,0.106529,-0.386407,0.003935,0.380038
1.764000,0.041709,0.106764,-0.386524,0.005161,0.378921
1.766000,0.041737,0.106988,-0.386644,0.006382,0.377814
1.768000,0.041760,0.107199,-0.386769,0.007599,0.376716
1.770000,0.041780,0.107399,-0.386897,0.008811,0.375628
1.772000,0.041796,0.107588,-0.387029,0.010017,0.374549
1.774000,0.041809,0.107765,-0.387165,0.011218,0.373480
1.776000,0.041817,0.107932,-0.387305,0.012413,0.372420
1.778000,0.041822,0.108086,-0.387450,0.013604,0.371371
1.780000,0.041824,0.108230,-0.387598,0.014789,0.370331
1.782000,0.041822,0.108363,-0.387751,0.015968,0.369301
1.784000,0.041816,0.108485,-0.387908,0.017143,0.368282
1.786000,0.041807,0.108595,-0.388070,0.018312,0.367273
1.788000,0.041795,0.108695,-0.388235,0.019475,0.366274
1.790000,0.041779,0.108784,-0.388405,0.020633,0.365285
1.792000,0.041760,0.108863,-0.388580,0.021785,0.364307
1.794000,0.041738,0.108931,-0.388759,0.022932,0.363339
1.796000,0.041712,0.108988,-0.388943,0.024074,0.362381
1.798000,0.041684,0.109035,-0.389131,0.025210,0.361434
1.800000,0.041652,0.109071,-0.389324,0.026340,0.360498
1.802000,0.041618,0.109098,-0.389522,0.027464,0.359572
1.804000,0.041580,0.109113,-0.389724,0.028583,0.358657
1.806000,0.041539,0.109119,-0.389931,0.029697,0.357752
1.808000,0.041496,0.109115,-0.390142,0.030805,0.356858
1.810000,0.041449,0.109100,-0.390357,0.031907,0.355974
1.812000,0.041400,0.109076,-0.390578,0.033004,0.355102
1.814000,0.041348,0.109041,-0.390804,0.034094,0.354240
1.816000,0.041293,0.108997,-0.391033,0.035179,0.353388
1.818000,0.041235,0.108943,-0.391268,0.036259,0.352547
1.820000,0.041175,0.108879,-0.391507,0.037333,0.351717
1.822000,0.041112,0.108806,-0.391751,0.038402,0.350897
1.824000,0.041047,0.108723,-0.391999,0.039465,0.350088
1.826000,0.040978,0.108631,-0.392252,0.040522,0.349289
1.828000,0.040907,0.108529,-0.392510,0.041574,0.348501
1.830000,0.040834,0.108418,-0.392772,0.042619,0.347724
1.832000,0.040758,0.108297,-0.393038,0.043660,0.346957
1.834000,0.040679,0.108167,-0.393309,0.044695,0.346200
1.836000,0.040598,0.108028,-0.393585,0.045725,0.345453
1.838000,0.040515,0.107880,-0.393865,0.046749,0.344717
1.840000,0.040429,0.107723,-0.394150,0.047767,0.343991
1.842000,0.040341,0.107556,-0.394439,0.048780,0.343275
1.844000,0.040250,0.107381,-0.394732,0.049788,0.342569
1.846000,0.040157,0.107197,-0.395029,0.050790,0.341873
1.848000,0.040061,0.107004,-0.395331,0.051786,0.341187
1.850000,0.039963,0.106802,-0.395637,0.052778,0.340511
1.852000,0.039863,0.106591,-0.395947,0.053764,0.339845
1.854000,0.039760,0.106372,-0.396261,0.054744,0.339188
1.856000,0.039655,0.106144,-0.396579,0.055719,0.338541
1.858000,0.039548,0.105908,-0.396902,0.056690,0.337903
1.860000,0.039438,0.105663,-0.397227,0.057655,0.337275
1.862000,0.039326,0.105409,-0.397557,0.058614,0.336657
1.864000,0.039212,0.105148,-0.397890,0.059569,0.336047
1.866000,0.039095,0.104877,-0.398228,0.060519,0.335446
1.868000,0.038976,0.104599,-0.398569,0.061463,0.334854
1.870000,0.038855,0.104312,-0.398913,0.062403,0.334271
1.872000,0.038731,0.104017,-0.399262,0.063337,0.333696
1.874000,0.038606,0.103714,-0.399613,0.064266,0.333131
1.876000,0.038478,0.103403,-0.399967,0.065191,0.332574
1.878000,0.038348,0.103084,-0.400325,0.066111,0.332025
1.880000,0.038215,0.102757,-0.400686,0.067026,0.331484
1.882000,0.038080,0.102422,-0.401050,0.067937,0.330951
1.884000,0.037943,0.102079,-0.401417,0.068842,0.330426
1.886000,0.037804,0.101728,-0.401787,0.069743,0.329908
1.888000,0.037662,0.101369,-0.402159,0.070639,0.329399
1.890000,0.037519,0.101003,-0.402535,0.071532,0.328896
1.892000,0.037373,0.100629,-0.402913,0.072419,0.328401
1.894000,0.037224,0.100247,-0.403293,0.073302,0.327913
1.896000,0.037074,0.099858,-0.403676,0.074180,0.327432
1.898000,0.036921,0.099461,-0.404060,0.075054,0.326958
1.900000,0.036766,0.099057,-0.404448,0.075924,0.326491
1.902000,0.036608,0.098645,-0.404837,0.076790,0.326029
1.904000,0.036449,0.098226,-0.405228,0.077652,0.325574
1.906000,0.036287,0.097799,-0.405621,0.078510,0.325125
1.908000,0.036123,0.097366,-0.406015,0.079363,0.324682
1.910000,0.035956,0.096925,-0.406411,0.080214,0.324244
1.912000,0.035788,0.096476,-0.406809,0.081060,0.323812
1.914000,0.035617,0.096021,-0.407208,0.081901,0.323386
1.916000,0.035443,0.095559,-0.407608,0.082740,0.322964
1.918000,0.035268,0.095089,-0.408009,0.083574,0.322547
1.920000,0.035090,0.094613,-0.408411,0.084405,0.322135
1.922000,0.034910,0.094129,-0.408814,0.085233,0.321728
1.924000,0.034727,0.093639,-0.409217,0.086057,0.321324
1.926000,0.034543,0.093142,-0.409622,0.086878,0.320925
1.928000,0.034356,0.092638,-0.410026,0.087695,0.320530
1.930000,0.034166,0.092127,-0.410431,0.088509,0.320138
1.932000,0.033975,0.091610,-0.410836,0.089320,0.319750
1.934000,0.033781,0.091086,-0.411241,0.090128,0.319365
1.936000,0.033585,0.090555,-0.411646,0.090933,0.318983
1.938000,0.033386,0.090018,-0.412051,0.091735,0.318604
1.940000,0.033185,0.089475,-0.412455,0.092534,0.318227
1.942000,0.032982,0.088925,-0.412858,0.093330,0.317853
1.944000,0.032777,0.088369,-0.413261,0.094124,0.317480
1.946000,0.032569,0.087807,-0.413663,0.094915,0.317110
1.948000,0.032360,0.087238,-0.414065,0.095703,0.316741
1.950000,0.032147,0.086663,-0.414464,0.096489,0.316374
1.952000,0.031933,0.086082,-0.414863,0.097272,0.316007
1.954000,0.031716,0.085495,-0.415260,0.098054,0.315642
1.956000,0.031497,0.084903,-0.415656,0.098833,0.315277
1.958000,0.031276,0.084304,-0.416050,0.099610,0.314912
1.960000,0.031052,0.083699,-0.416441,0.100385,0.314549
1.962000,0.030827,0.083089,-0.416831,0.101158,0.314185
1.964000,0.030599,0.082473,-0.417219,0.101929,0.313820
1.966000,0.030368,0.081852,-0.417604,0.102699,0.313455
1.968000,0.030136,0.081225,-0.417987,0.103466,0.313089
1.970000,0.029901,0.080592,-0.418367,0.104232,0.312722
1.972000,0.029665,0.079954,-0.418744,0.104996,0.312354
1.974000,0.029426,0.079311,-0.419118,0.105760,0.311984
1.976000,0.029185,0.078663,-0.419489,0.106521,0.311612
1.978000,0.028941,0.078009,-0.419856,0.107282,0.311239
1.980000,0.028696,0.077350,-0.420220,0.108040,0.310863
1.982000,0.028449,0.076687,-0.420580,0.108798,0.310485
1.984000,0.028199,0.076018,-0.420937,0.109555,0.310103
1.986000,0.027948,0.075345,-0.421290,0.110312,0.309719
1.988000,0.027694,0.074667,-0.421638,0.111066,0.309331
1.990000,0.027439,0.073984,-0.421982,0.111821,0.308939
1.992000,0.027181,0.073297,-0.422322,0.112575,0.308544
1.994000,0.026922,0.072606,-0.422657,0.113328,0.308145
1.996000,0.026660,0.071910,-0.422987,0.114081,0.307741
1.998000,0.026397,0.071210,-0.423312,0.114832,0.307333
2.000000,0.026132,0.070505,-0.423632,0.115585,0.306920
2.002000,0.025865,0.069797,-0.423947,0.116337,0.306501
2.004000,0.025596,0.069085,-0.424256,0.117088,0.306078
2.006000,0.025326,0.068369,-0.424559,0.117839,0.305649
2.008000,0.025054,0.067649,-0.424857,0.118591,0.305213
2.010000,0.024780,0.066926,-0.425149,0.119342,0.304772
2.012000,0.024505,0.066199,-0.425435,0.120093,0.304325
2.014000,0.024228,0.065469,-0.425714,0.120845,0.303870
2.016000,0.023949,0.064735,-0.425987,0.121597,0.303409
2.018000,0.023669,0.063999,-0.426253,0.122350,0.302941
2.020000,0.023388,0.063259,-0.426513,0.123103,0.302465
2.022000,0.023105,0.062517,-0.426766,0.123856,0.301982
2.024000,0.022821,0.061772,-0.427011,0.124611,0.301490
2.026000,0.022536,0.061024,-0.427249,0.125365,0.300991
2.028000,0.022249,0.060274,-0.427480,0.126121,0.300484
2.030000,0.021962,0.059521,-0.427704,0.126877,0.299968
2.032000,0.021673,0.058767,-0.427919,0.127635,0.299443
2.034000,0.021383,0.058010,-0.428127,0.128393,0.298909
2.036000,0.021092,0.057251,-0.428327,0.129153,0.298365
2.038000,0.020801,0.056491,-0.428519,0.129913,0.297813
2.040000,0.020508,0.055729,-0.428702,0.130675,0.297250
2.042000,0.020215,0.054965,-0.428877,0.131438,0.296678
2.044000,0.019921,0.054200,-0.429043,0.132202,0.296096
2.046000,0.019626,0.053434,-0.429200,0.132968,0.295503
2.048000,0.019331,0.052667,-0.429349,0.133735,0.294900
2.050000,0.019036,0.051899,-0.429488,0.134504,0.294286
2.052000,0.018740,0.051131,-0.429619,0.135274,0.293662
2.054000,0.018443,0.050362,-0.429740,0.136046,0.293025
2.056000,0.018147,0.049592,-0.429852,0.136819,0.292378
2.058000,0.017850,0.048823,-0.429954,0.137594,0.291720
2.060000,0.017553,0.048054,-0.430046,0.138371,0.291049
2.062000,0.017257,0.047284,-0.430129,0.139149,0.290367
2.064000,0.016960,0.046516,-0.430201,0.139930,0.289673
2.066000,0.016642,0.045749,-0.430260,0.140716,0.288918
2.068000,0.016368,0.044980,-0.430316,0.141496,0.288248
2.070000,0.016072,0.044214,-0.430358,0.142283,0.287516
2.072000,0.015777,0.043448,-0.430390,0.143070,0.286772
2.074000,0.015482,0.042684,-0.430411,0.143861,0.286016
2.076000,0.015188,0.041922,-0.430421,0.144653,0.285246
2.078000,0.014894,0.041161,-0.430421,0.145447,0.284464
2.080000,0.014602,0.040403,-0.430410,0.146243,0.283668
2.082000,0.014310,0.039646,-0.430387,0.147041,0.282859
2.084000,0.014020,0.038892,-0.430355,0.147841,0.282037
2.086000,0.013730,0.038140,-0.430310,0.148644,0.281201
2.088000,0.013442,0.037392,-0.430255,0.149448,0.280351
2.090000,0.013155,0.036646,-0.430188,0.150255,0.279488
2.092000,0.012870,0.035904,-0.430110,0.151063,0.278611
2.094000,0.012586,0.035165,-0.430020,0.151874,0.277721
2.096000,0.012304,0.034429,-0.429919,0.152687,0.276817
2.098000,0.012024,0.033698,-0.429806,0.153501,0.275898
2.100000,0.011733,0.032970,-0.429681,0.154323,0.274938
2.102000,0.011469,0.032248,-0.429546,0.155138,0.274020
2.104000,0.011194,0.031530,-0.429399,0.155959,0.273060
2.106000,0.010922,0.030816,-0.429239,0.156782,0.272085
2.108000,0.010652,0.030108,-0.429068,0.157607,0.271097
2.110000,0.010384,0.029405,-0.428885,0.158433,0.270095
2.112000,0.010119,0.028708,-0.428690,0.159262,0.269079
2.114000,0.009856,0.028017,-0.428483,0.160093,0.268049
2.116000,0.009595,0.027332,-0.428264,0.160926,0.267001
2.118000,0.009339,0.026652,-0.428034,0.161759,0.265947
2.120000,0.009085,0.025980,-0.427791,0.162595,0.264874
2.122000,0.008834,0.025314,-0.427537,0.163433,0.263789
2.124000,0.008586,0.024656,-0.427271,0.164272,0.262689
2.126000,0.008334,0.024004,-0.426993,0.165117,0.261558
2.128000,0.008099,0.023361,-0.426702,0.165954,0.260450
2.130000,0.007861,0.022725,-0.426400,0.166797,0.259310
2.132000,0.007626,0.022098,-0.426087,0.167642,0.258157
2.134000,0.007395,0.021478,-0.425761,0.168487,0.256990
2.136000,0.007168,0.020868,-0.425423,0.169334,0.255811
2.138000,0.006944,0.020266,-0.425075,0.170182,0.254619
2.140000,0.006725,0.019674,-0.424714,0.171030,0.253414
2.142000,0.006509,0.019090,-0.424342,0.171880,0.252197
2.144000,0.006297,0.018517,-0.423959,0.172730,0.250967
2.146000,0.006085,0.017952,-0.423565,0.173586,0.249712
2.148000,0.005887,0.017400,-0.423158,0.174431,0.248472
2.150000,0.005688,0.016857,-0.422741,0.175283,0.247206
2.152000,0.005489,0.016324,-0.422314,0.176140,0.245918
2.154000,0.005303,0.015804,-0.421873,0.176986,0.244642
2.156000,0.005118,0.015294,-0.421423,0.177837,0.243343
2.158000,0.004937,0.014795,-0.420963,0.178689,0.242033
2.160000,0.004761,0.014309,-0.420492,0.179540,0.240714
2.162000,0.004589,0.013834,-0.420010,0.180391,0.239384
2.164000,0.004423,0.013372,-0.419518,0.181240,0.238045
2.166000,0.004261,0.012922,-0.419017,0.182089,0.236697
2.168000,0.004104,0.012485,-0.418505,0.182937,0.235339
2.170000,0.003953,0.012060,-0.417984,0.183783,0.233973
2.172000,0.003806,0.011649,-0.417453,0.184629,0.232599
2.174000,0.003665,0.011252,-0.416913,0.185472,0.231217
2.176000,0.003529,0.010868,-0.416365,0.186315,0.229827
2.178000,0.003398,0.010498,-0.415807,0.187155,0.228430
2.180000,0.003272,0.010143,-0.415241,0.187994,0.227027
2.182000,0.003151,0.009802,-0.414666,0.188829,0.225618
2.184000,0.003036,0.009475,-0.414083,0.189662,0.224203
2.186000,0.002927,0.009163,-0.413493,0.190493,0.222783
2.188000,0.002822,0.008867,-0.412895,0.191320,0.221359
2.190000,0.002724,0.008585,-0.412290,0.192145,0.219930
2.192000,0.002630,0.008320,-0.411678,0.192967,0.218497
2.194000,0.002541,0.008069,-0.411061,0.193789,0.217054
2.196000,0.002460,0.007835,-0.410434,0.194598,0.215623
2.198000,0.002383,0.007617,-0.409803,0.195408,0.214182
2.200000,0.002312,0.007415,-0.409166,0.196213,0.212740
2.202000,0.002246,0.007229,-0.408524,0.197015,0.211297
2.204000,0.002185,0.007060,-0.407877,0.197811,0.209854
2.206000,0.002131,0.006908,-0.407225,0.198603,0.208411
2.208000,0.002081,0.006772,-0.406569,0.199389,0.206970
2.210000,0.002037,0.006654,-0.405909,0.200170,0.205529
2.212000,0.001999,0.006552,-0.405246,0.200945,0.204091
2.214000,0.001966,0.006468,-0.404580,0.201715,0.202655
2.216000,0.001939,0.006401,-0.403911,0.202478,0.201223
2.218000,0.001917,0.006352,-0.403240,0.203235,0.199795
2.220000,0.001901,0.006321,-0.402566,0.203984,0.198372
2.222000,0.001889,0.006307,-0.401892,0.204728,0.196955
2.224000,0.001883,0.006310,-0.401218,0.205467,0.195538
2.226000,0.001883,0.006332,-0.400540,0.206192,0.194139
2.228000,0.001888,0.006372,-0.399864,0.206912,0.192742
2.230000,0.001898,0.006429,-0.399188,0.207623,0.191355
2.232000,0.001913,0.006505,-0.398513,0.208328,0.189975
2.234000,0.001934,0.006598,-0.397839,0.209022,0.188606
2.236000,0.001959,0.006709,-0.397167,0.209709,0.187247
2.238000,0.001990,0.006839,-0.396497,0.210386,0.185900
2.240000,0.002026,0.006986,-0.395830,0.211054,0.184565
2.242000,0.002066,0.007151,-0.395166,0.211712,0.183243
2.244000,0.002111,0.007335,-0.394506,0.212360,0.181935
2.246000,0.002162,0.007536,-0.393851,0.212998,0.180640
2.248000,0.002217,0.007755,-0.393199,0.213625,0.179362
2.250000,0.002276,0.007991,-0.392553,0.214241,0.178099
2.252000,0.002341,0.008245,-0.391913,0.214847,0.176854
2.254000,0.002410,0.008517,-0.391280,0.215441,0.175625
2.256000,0.002483,0.008806,-0.390653,0.216022,0.174416
2.258000,0.002559,0.009112,-0.390035,0.216596,0.173220
2.260000,0.002643,0.009436,-0.389421,0.217150,0.172055
2.262000,0.002729,0.009776,-0.388819,0.217696,0.170906
2.264000,0.002820,0.010134,-0.388224,0.218228,0.169778
2.266000,0.002915,0.010507,-0.387639,0.218748,0.168672
2.268000,0.003014,0.010897,-0.387064,0.219254,0.167590
2.270000,0.003116,0.011303,-0.386500,0.219746,0.166532
2.272000,0.003223,0.011725,-0.385947,0.220225,0.165499
2.274000,0.003334,0.012163,-0.385405,0.220689,0.164492
2.276000,0.003448,0.012616,-0.384875,0.221139,0.163511
2.278000,0.003566,0.013084,-0.384358,0.221574,0.162557
2.280000,0.003684,0.013566,-0.383855,0.221996,0.161625
2.282000,0.003812,0.014064,-0.383364,0.222400,0.160734
2.284000,0.003941,0.014575,-0.382887,0.222789,0.159866
2.286000,0.004073,0.015100,-0.382426,0.223162,0.159029
2.288000,0.004208,0.015638,-0.381979,0.223520,0.158223
2.290000,0.004342,0.016189,-0.381549,0.223864,0.157441
2.292000,0.004483,0.016753,-0.381134,0.224189,0.156698
2.294000,0.004628,0.017329,-0.380736,0.224497,0.155989
2.296000,0.004779,0.017916,-0.380354,0.224786,0.155322
2.298000,0.004929,0.018515,-0.379990,0.225060,0.154681
2.300000,0.005082,0.019124,-0.379645,0.225317,0.154076
2.302000,0.005238,0.019744,-0.379317,0.225556,0.153506
2.304000,0.005395,0.020374,-0.379009,0.225778,0.152971
2.306000,0.005557,0.021013,-0.378720,0.225981,0.152477
2.308000,0.005720,0.021660,-0.378450,0.226166,0.152018
2.310000,0.005885,0.022316,-0.378200,0.226332,0.151598
2.312000,0.006053,0.022980,-0.377971,0.226480,0.151217
2.314000,0.006223,0.023650,-0.377762,0.226609,0.150876
2.316000,0.006395,0.024327,-0.377574,0.226719,0.150574
2.318000,0.006569,0.025010,-0.377408,0.226810,0.150312
2.320000,0.006737,0.025699,-0.377263,0.226883,0.150079
2.322000,0.006923,0.026391,-0.377141,0.226934,0.149912
2.324000,0.007102,0.027088,-0.377041,0.226966,0.149775
2.326000,0.007283,0.027788,-0.376963,0.226978,0.149680
2.328000,0.007466,0.028491,-0.376908,0.226971,0.149627
2.330000,0.007650,0.029196,-0.376877,0.226944,0.149617
2.332000,0.007835,0.029902,-0.376868,0.226896,0.149651
2.334000,0.008012,0.030609,-0.376881,0.226829,0.149712
2.336000,0.008210,0.031315,-0.376921,0.226740,0.149849
2.338000,0.008399,0.032021,-0.376983,0.226631,0.150014
2.340000,0.008588,0.032725,-0.377069,0.226502,0.150223
2.342000,0.008779,0.033427,-0.377179,0.226352,0.150476
2.344000,0.008958,0.034127,-0.377310,0.226182,0.150757
2.346000,0.009162,0.034821,-0.377470,0.225990,0.151117
2.348000,0.009354,0.035512,-0.377652,0.225777,0.151505
2.350000,0.009546,0.036197,-0.377858,0.225544,0.151938
2.352000,0.009739,0.036877,-0.378089,0.225290,0.152415
2.354000,0.009932,0.037549,-0.378343,0.225015,0.152937
2.356000,0.010124,0.038214,-0.378621,0.224719,0.153504
2.358000,0.010316,0.038871,-0.378922,0.224402,0.154116
2.360000,0.010508,0.039518,-0.379248,0.224065,0.154772
2.362000,0.010699,0.040155,-0.379597,0.223706,0.155472
2.364000,0.010890,0.040782,-0.379970,0.223327,0.156217
2.366000,0.011079,0.041397,-0.380366,0.222927,0.157006
2.368000,0.011268,0.041999,-0.380785,0.222507,0.157837
2.370000,0.011455,0.042589,-0.381226,0.222065,0.158713
2.372000,0.011641,0.043164,-0.381690,0.221603,0.159632
2.374000,0.011806,0.043727,-0.382172,0.221121,0.160565
2.376000,0.011988,0.044273,-0.382680,0.220619,0.161567
2.378000,0.012187,0.044800,-0.383214,0.220096,0.162641
2.380000,0.012364,0.045312,-0.383764,0.219552,0.163727
2.382000,0.012539,0.045806,-0.384335,0.218990,0.164854
2.384000,0.012712,0.046281,-0.384926,0.218407,0.166021
2.386000,0.012881,0.046738,-0.385537,0.217805,0.167227
2.388000,0.013047,0.047174,-0.386167,0.217184,0.168472
2.390000,0.013189,0.047592,-0.386811,0.216544,0.169720
2.392000,0.013368,0.047983,-0.387483,0.215884,0.171074
2.394000,0.013502,0.048357,-0.388163,0.215207,0.172394
2.396000,0.013652,0.048706,-0.388864,0.214510,0.173786
2.398000,0.013820,0.049029,-0.389587,0.213795,0.175249
2.400000,0.013961,0.049329,-0.390321,0.213062,0.176710
2.402000,0.014096,0.049605,-0.391069,0.212312,0.178203
2.404000,0.014204,0.049858,-0.391826,0.211545,0.179689
2.406000,0.014352,0.050079,-0.392608,0.210760,0.181284
2.408000,0.014470,0.050275,-0.393398,0.209959,0.182870
2.410000,0.014583,0.050445,-0.394199,0.209142,0.184485
2.412000,0.014688,0.050586,-0.395012,0.208309,0.186127
2.414000,0.014787,0.050698,-0.395835,0.207461,0.187795
2.416000,0.014878,0.050782,-0.396668,0.206597,0.189489
2.418000,0.014962,0.050835,-0.397509,0.205719,0.191206
2.420000,0.015038,0.050859,-0.398359,0.204826,0.192946
2.422000,0.015082,0.050854,-0.399209,0.203921,0.194664
2.424000,0.015141,0.050816,-0.400072,0.203001,0.196445
2.426000,0.015215,0.050743,-0.400946,0.202067,0.198288
2.428000,0.015256,0.050641,-0.401818,0.201122,0.200105
2.430000,0.015287,0.050506,-0.402693,0.200165,0.201938
2.432000,0.015309,0.050339,-0.403571,0.199197,0.203784
2.434000,0.015320,0.050138,-0.404450,0.198218,0.205644
2.436000,0.015321,0.049904,-0.405329,0.197229,0.207514
2.438000,0.015311,0.049636,-0.406208,0.196230,0.209394
2.440000,0.015290,0.049334,-0.407085,0.195221,0.211283
2.442000,0.015257,0.048998,-0.407959,0.194204,0.213177
2.444000,0.015213,0.048627,-0.408830,0.193179,0.215077
2.446000,0.015157,0.048222,-0.409696,0.192146,0.216979
2.448000,0.015089,0.047782,-0.410555,0.191108,0.218883
2.450000,0.015008,0.047307,-0.411409,0.190062,0.220787
2.452000,0.014914,0.046797,-0.412254,0.189012,0.222689
2.454000,0.014808,0.046251,-0.413090,0.187956,0.224587
2.456000,0.014688,0.045671,-0.413916,0.186897,0.226480
2.458000,0.014555,0.045055,-0.414730,0.185833,0.228365
2.460000,0.014408,0.044404,-0.415533,0.184767,0.230242
2.462000,0.014247,0.043717,-0.416322,0.183699,0.232108
2.464000,0.014072,0.042996,-0.417097,0.182630,0.233961
2.466000,0.013866,0.042240,-0.417853,0.181562,0.235762
2.468000,0.013680,0.041448,-0.418599,0.180489,0.237622
2.470000,0.013462,0.040622,-0.419324,0.179419,0.239427
2.472000,0.013230,0.039761,-0.420030,0.178352,0.241211
2.474000,0.012983,0.038866,-0.420717,0.177286,0.242974
2.476000,0.012707,0.037937,-0.421380,0.176226,0.244682
2.478000,0.012446,0.036974,-0.422026,0.175165,0.246428
2.480000,0.012155,0.035977,-0.422647,0.174110,0.248114
2.482000,0.011849,0.034947,-0.423244,0.173061,0.249772
2.484000,0.011529,0.033884,-0.423815,0.172017,0.251399
2.486000,0.011183,0.032787,-0.424360,0.170984,0.252967
2.488000,0.010844,0.031660,-0.424881,0.169952,0.254553
2.490000,0.010480,0.030500,-0.425371,0.168931,0.256077
2.492000,0.010102,0.029309,-0.425833,0.167919,0.257562
2.494000,0.009709,0.028087,-0.426264,0.166917,0.259007
2.496000,0.009303,0.026835,-0.426665,0.165926,0.260411
2.498000,0.008882,0.025553,-0.427034,0.164946,0.261771
2.500000,0.008448,0.024241,-0.427370,0.163978,0.263086
2.502000,0.008000,0.022901,-0.427671,0.163022,0.264354
2.504000,0.007540,0.021533,-0.427938,0.162080,0.265573
2.506000,0.007066,0.020137,-0.428170,0.161153,0.266742
2.508000,0.006581,0.018715,-0.428364,0.160240,0.267859
2.510000,0.006083,0.017266,-0.428521,0.159343,0.268922
2.512000,0.005573,0.015792,-0.428640,0.158463,0.269930
2.514000,0.005052,0.014293,-0.428719,0.157599,0.270881
2.516000,0.004520,0.012770,-0.428759,0.156753,0.271773
2.518000,0.003978,0.011224,-0.428757,0.155926,0.272606
2.520000,0.003426,0.009656,-0.428714,0.155117,0.273376
2.522000,0.002865,0.008065,-0.428628,0.154329,0.274084
2.524000,0.002294,0.006454,-0.428499,0.153560,0.274727
2.526000,0.001716,0.004824,-0.428325,0.152813,0.275305
2.528000,0.001129,0.003174,-0.428107,0.152087,0.275815
2.530000,0.000536,0.001505,-0.427843,0.151383,0.276256
2.532000,-0.000064,-0.000180,-0.427533,0.150702,0.276627
2.534000,-0.000670,-0.001882,-0.427175,0.150043,0.276928
2.536000,-0.001281,-0.003599,-0.426770,0.149409,0.277155
2.538000,-0.001896,-0.005330,-0.426316,0.148798,0.277310
2.540000,-0.002515,-0.007075,-0.425813,0.148212,0.277389
2.542000,-0.003137,-0.008831,-0.425260,0.147651,0.277392
2.544000,-0.003761,-0.010600,-0.424657,0.147115,0.277319
2.546000,-0.004387,-0.012378,-0.424003,0.146606,0.277167
2.548000,-0.005013,-0.014165,-0.423298,0.146123,0.276937
2.550000,-0.005639,-0.015961,-0.422540,0.145665,0.276626
2.552000,-0.006265,-0.017763,-0.421731,0.145239,0.276229
2.554000,-0.006888,-0.019571,-0.420865,0.144831,0.275763
2.556000,-0.007509,-0.021383,-0.419948,0.144456,0.275209
2.558000,-0.008126,-0.023199,-0.418976,0.144107,0.274571
2.560000,-0.008740,-0.025017,-0.417949,0.143786,0.273850
2.562000,-0.009349,-0.026832,-0.416871,0.143503,0.273028
2.564000,-0.009950,-0.028654,-0.415730,0.143228,0.272156
2.566000,-0.010545,-0.030470,-0.414537,0.142991,0.271181
2.568000,-0.011133,-0.032284,-0.413286,0.142782,0.270122
2.570000,-0.011712,-0.034093,-0.411980,0.142600,0.268976
2.572000,-0.012281,-0.035897,-0.410616,0.142448,0.267744
2.574000,-0.012841,-0.037694,-0.409195,0.142323,0.266426
2.576000,-0.013389,-0.039482,-0.407715,0.142226,0.265022
2.578000,-0.013925,-0.041260,-0.406179,0.142157,0.263531
2.580000,-0.014448,-0.043028,-0.404584,0.142116,0.261954
2.582000,-0.014958,-0.044782,-0.402930,0.142101,0.260290
2.584000,-0.015454,-0.046523,-0.401218,0.142115,0.258540
2.586000,-0.015934,-0.048248,-0.399448,0.142155,0.256705
2.588000,-0.016398,-0.049956,-0.397618,0.142222,0.254783
2.590000,-0.016846,-0.051646,-0.395731,0.142315,0.252777
2.592000,-0.017276,-0.053315,-0.393784,0.142435,0.250686
2.594000,-0.017688,-0.054964,-0.391779,0.142580,0.248510
2.596000,-0.018081,-0.056588,-0.389715,0.142750,0.246250
2.598000,-0.018455,-0.058189,-0.387593,0.142944,0.243908
2.600000,-0.018809,-0.059763,-0.385412,0.143163,0.241483
2.602000,-0.019142,-0.061309,-0.383173,0.143405,0.238977
2.604000,-0.019454,-0.062826,-0.380876,0.143671,0.236390
2.606000,-0.019744,-0.064311,-0.378522,0.143959,0.233724
2.608000,-0.020012,-0.065765,-0.376110,0.144269,0.230980
2.610000,-0.020257,-0.067184,-0.373642,0.144600,0.228158
2.612000,-0.020479,-0.068567,-0.371117,0.144952,0.225260
2.614000,-0.020678,-0.069912,-0.368536,0.145323,0.222287
2.616000,-0.020853,-0.071219,-0.365900,0.145713,0.219241
2.618000,-0.021004,-0.072484,-0.363209,0.146122,0.216123
2.620000,-0.021131,-0.073708,-0.360464,0.146547,0.212936
2.622000,-0.021233,-0.074887,-0.357667,0.146990,0.209679
2.624000,-0.021311,-0.076021,-0.354816,0.147447,0.206355
2.626000,-0.021393,-0.077094,-0.351915,0.147933,0.202906
2.628000,-0.021393,-0.078145,-0.348962,0.148407,0.199516
2.630000,-0.021398,-0.079133,-0.345959,0.148906,0.196004
2.632000,-0.021377,-0.080068,-0.342908,0.149417,0.192432
2.634000,-0.021332,-0.080950,-0.339810,0.149940,0.188805
2.636000,-0.021264,-0.081777,-0.336666,0.150472,0.185122
2.638000,-0.021171,-0.082547,-0.333476,0.151014,0.181387
2.640000,-0.021054,-0.083260,-0.330243,0.151563,0.177602
2.642000,-0.020915,-0.083912,-0.326968,0.152119,0.173769
2.644000,-0.020752,-0.084504,-0.323652,0.152681,0.169892
2.646000,-0.020567,-0.085033,-0.320297,0.153247,0.165973
2.648000,-0.020360,-0.085499,-0.316904,0.153818,0.162014
2.650000,-0.020132,-0.085900,-0.313475,0.154390,0.158018
2.652000,-0.019882,-0.086234,-0.310012,0.154965,0.153988
2.654000,-0.019613,-0.086500,-0.306517,0.155539,0.149927
2.656000,-0.019325,-0.086698,-0.302991,0.156113,0.145838
2.658000,-0.019017,-0.086826,-0.299436,0.156685,0.141724
2.660000,-0.018745,-0.086867,-0.295861,0.157263,0.137550
2.662000,-0.018350,-0.086867,-0.292250,0.157818,0.133433
2.664000,-0.017992,-0.086778,-0.288623,0.158378,0.129262
2.666000,-0.017618,-0.086616,-0.284974,0.158930,0.125079
2.668000,-0.017230,-0.086378,-0.281308,0.159476,0.120887
2.670000,-0.016829,-0.086065,-0.277627,0.160012,0.116689
2.672000,-0.016416,-0.085675,-0.273932,0.160539,0.112488
2.674000,-0.015991,-0.085208,-0.270226,0.161054,0.108289
2.676000,-0.015555,-0.084664,-0.266512,0.161558,0.104094
2.678000,-0.015111,-0.084040,-0.262790,0.162047,0.099907
2.680000,-0.014719,-0.083325,-0.259076,0.162530,0.095719
2.682000,-0.014198,-0.082558,-0.255342,0.162984,0.091570
2.684000,-0.013733,-0.081697,-0.251619,0.163428,0.087428
2.686000,-0.013262,-0.080757,-0.247899,0.163855,0.083308
2.688000,-0.012847,-0.079725,-0.244197,0.164269,0.079210
2.690000,-0.012310,-0.078637,-0.240484,0.164651,0.075147
2.692000,-0.011831,-0.077457,-0.236793,0.165019,0.071115
2.694000,-0.011351,-0.076198,-0.233118,0.165365,0.067119
2.696000,-0.010871,-0.074858,-0.229460,0.165689,0.063162
2.698000,-0.010393,-0.073440,-0.225821,0.165988,0.059250
2.700000,-0.009918,-0.071942,-0.222206,0.166263,0.055384
2.702000,-0.009445,-0.070365,-0.218617,0.166513,0.051570
2.704000,-0.008977,-0.068711,-0.215056,0.166736,0.047809
2.706000,-0.008564,-0.066971,-0.211535,0.166936,0.044118
2.708000,-0.008057,-0.065169,-0.208029,0.167099,0.040465
2.710000,-0.007607,-0.063284,-0.204569,0.167238,0.036889
2.712000,-0.007208,-0.061317,-0.201156,0.167349,0.033394
2.714000,-0.006729,-0.059288,-0.197769,0.167424,0.029943
2.716000,-0.006304,-0.057180,-0.194434,0.167471,0.026580
2.718000,-0.005887,-0.054999,-0.191146,0.167485,0.023297
2.720000,-0.005481,-0.052746,-0.187906,0.167465,0.020094
2.722000,-0.005085,-0.050424,-0.184719,0.167412,0.016976
2.724000,-0.004700,-0.048033,-0.181586,0.167325,0.013946
2.726000,-0.004327,-0.045574,-0.178510,0.167202,0.011007
2.728000,-0.003965,-0.043050,-0.175492,0.167043,0.008161
2.730000,-0.003614,-0.040461,-0.172536,0.166847,0.005412
2.732000,-0.003277,-0.037809,-0.169643,0.166614,0.002764
2.734000,-0.002970,-0.035093,-0.166820,0.166345,0.000227
2.736000,-0.002636,-0.032322,-0.164056,0.166034,-0.002223
2.738000,-0.002333,-0.029491,-0.161368,0.165687,-0.004557
2.740000,-0.002042,-0.026603,-0.158750,0.165298,-0.006779
2.742000,-0.001763,-0.023662,-0.156207,0.164871,-0.008888
2.744000,-0.001495,-0.020667,-0.153740,0.164403,-0.010882
2.746000,-0.001245,-0.017622,-0.151352,0.163895,-0.012754
2.748000,-0.000993,-0.014530,-0.149040,0.163343,-0.014513
2.750000,-0.000757,-0.011390,-0.146812,0.162750,-0.016147
2.752000,-0.000531,-0.008206,-0.144666,0.162115,-0.017654
2.754000,-0.000314,-0.004980,-0.142604,0.161437,-0.019037
2.756000,-0.000105,-0.001714,-0.140629,0.160716,-0.020290
2.758000,0.000095,0.001590,-0.138741,0.159951,-0.021414
2.760000,0.000290,0.004929,-0.136942,0.159143,-0.022405
2.762000,0.000477,0.008302,-0.135231,0.158288,-0.023262
2.764000,0.000659,0.011705,-0.133613,0.157391,-0.023985
2.766000,0.000837,0.015137,-0.132087,0.156448,-0.024570
2.768000,0.001012,0.018595,-0.130655,0.155459,-0.025017
2.770000,0.001183,0.022077,-0.129316,0.154425,-0.025325
2.772000,0.001354,0.025581,-0.128074,0.153346,-0.025493
2.774000,0.001524,0.029103,-0.126927,0.152220,-0.025519
2.776000,0.001694,0.032641,-0.125877,0.151048,-0.025402
2.778000,0.001867,0.036193,-0.124925,0.149829,-0.025142
2.780000,0.002042,0.039756,-0.124071,0.148564,-0.024738
2.782000,0.002221,0.043328,-0.123315,0.147252,-0.024188
2.784000,0.002405,0.046906,-0.122659,0.145893,-0.023494
2.786000,0.002596,0.050488,-0.122101,0.144486,-0.022654
2.788000,0.002794,0.054071,-0.121644,0.143032,-0.021667
2.790000,0.003002,0.057651,-0.121287,0.141531,-0.020532
2.792000,0.003217,0.061228,-0.121029,0.139982,-0.019255
2.794000,0.003453,0.064794,-0.120875,0.138386,-0.017812
2.796000,0.003692,0.068354,-0.120817,0.136741,-0.016237
2.798000,0.003945,0.071901,-0.120860,0.135049,-0.014516
2.800000,0.004211,0.075433,-0.121001,0.133308,-0.012650
2.802000,0.004484,0.078950,-0.121237,0.131519,-0.010661
2.804000,0.004782,0.082445,-0.121577,0.129682,-0.008506
2.806000,0.005107,0.085912,-0.122019,0.127797,-0.006178
2.808000,0.005430,0.089361,-0.122549,0.125865,-0.003761
2.810000,0.005782,0.092778,-0.123181,0.123884,-0.001174
2.812000,0.006165,0.096160,-0.123915,0.121855,0.001586
2.814000,0.006557,0.099512,-0.124738,0.119778,0.004457
2.816000,0.006960,0.102833,-0.125650,0.117654,0.007435
2.818000,0.007395,0.106110,-0.126661,0.115481,0.010584
2.820000,0.007853,0.109346,-0.127764,0.113261,0.013870
2.822000,0.008334,0.112538,-0.128958,0.110994,0.017292
2.824000,0.008838,0.115683,-0.130242,0.108680,0.020847
2.826000,0.009366,0.118779,-0.131613,0.106317,0.024536
2.828000,0.009918,0.121823,-0.133071,0.103908,0.028355
2.830000,0.010494,0.124814,-0.134614,0.101452,0.032303
2.832000,0.011094,0.127747,-0.136240,0.098949,0.036378
2.834000,0.011719,0.130622,-0.137947,0.096400,0.040578
2.836000,0.012367,0.133436,-0.139734,0.093805,0.044900
2.838000,0.013042,0.136185,-0.141599,0.091163,0.049347
2.840000,0.013742,0.138861,-0.143541,0.088477,0.053914
2.842000,0.014456,0.141486,-0.145552,0.085747,0.058577
2.844000,0.015199,0.144032,-0.147636,0.082971,0.063365
2.846000,0.015964,0.146505,-0.149789,0.080150,0.068263
2.848000,0.016748,0.148895,-0.152006,0.077284,0.073261
2.850000,0.017559,0.151228,-0.154291,0.074378,0.078379
2.852000,0.018387,0.153473,-0.156636,0.071428,0.083590
2.854000,0.019234,0.155638,-0.159038,0.068435,0.088899
2.856000,0.020098,0.157721,-0.161497,0.065400,0.094301
2.858000,0.020982,0.159721,-0.164009,0.062324,0.099801
2.860000,0.021881,0.161636,-0.166571,0.059207,0.105387
2.862000,0.022794,0.163464,-0.169181,0.056049,0.111058
2.864000,0.023721,0.165205,-0.171835,0.052853,0.116811
2.866000,0.024659,0.166857,-0.174530,0.049618,0.122643
2.868000,0.025609,0.168418,-0.177264,0.046345,0.128549
2.870000,0.026567,0.169887,-0.180033,0.043035,0.134527
2.872000,0.027532,0.171264,-0.182834,0.039688,0.140573
2.874000,0.028503,0.172548,-0.185664,0.036306,0.146683
2.876000,0.029479,0.173737,-0.188520,0.032889,0.152852
2.878000,0.030456,0.174831,-0.191398,0.029439,0.159079
2.880000,0.031434,0.175829,-0.194296,0.025955,0.165358
2.882000,0.032410,0.176731,-0.197210,0.022440,0.171685
2.884000,0.033383,0.177536,-0.200136,0.018893,0.178058
2.886000,0.034351,0.178245,-0.203073,0.015318,0.184471
2.888000,0.035311,0.178856,-0.206016,0.011713,0.190921
2.890000,0.036263,0.179369,-0.208962,0.008080,0.197404
2.892000,0.037203,0.179786,-0.211908,0.004422,0.203916
2.894000,0.038131,0.180105,-0.214852,0.000737,0.210453
2.896000,0.039043,0.180327,-0.217789,-0.002971,0.217011
2.898000,0.039939,0.180453,-0.220717,-0.006702,0.223586
2.900000,0.040816,0.180481,-0.223632,-0.010455,0.230174
2.902000,0.041673,0.180415,-0.226533,-0.014228,0.236770
2.904000,0.042507,0.180252,-0.229415,-0.018021,0.243372
2.906000,0.043317,0.179996,-0.232276,-0.021830,0.249975
2.908000,0.044101,0.179645,-0.235113,-0.025656,0.256574
2.910000,0.044857,0.179201,-0.237924,-0.029497,0.263167
2.912000,0.045584,0.178666,-0.240705,-0.033351,0.269749
2.914000,0.046279,0.178039,-0.243455,-0.037217,0.276317
2.916000,0.046942,0.177322,-0.246170,-0.041094,0.282866
2.918000,0.047571,0.176517,-0.248848,-0.044980,0.289393
2.920000,0.048164,0.175624,-0.251487,-0.048874,0.295894
2.922000,0.048721,0.174645,-0.254085,-0.052772,0.302365
2.924000,0.049239,0.173581,-0.256639,-0.056676,0.308804
2.926000,0.049717,0.172433,-0.259147,-0.060582,0.315205
2.928000,0.050155,0.171204,-0.261608,-0.064489,0.321567
2.930000,0.050552,0.169894,-0.264020,-0.068396,0.327884
2.932000,0.050905,0.168506,-0.266379,-0.072301,0.334154
2.934000,0.051216,0.167040,-0.268687,-0.076201,0.340373
2.936000,0.051482,0.165499,-0.270939,-0.080097,0.346539
2.938000,0.051703,0.163884,-0.273135,-0.083986,0.352648
2.940000,0.051878,0.162197,-0.275273,-0.087866,0.358696
2.942000,0.052007,0.160440,-0.277353,-0.091735,0.364681
2.944000,0.052090,0.158614,-0.279373,-0.095592,0.370600
2.946000,0.052125,0.156721,-0.281331,-0.099437,0.376449
2.948000,0.052113,0.154764,-0.283227,-0.103266,0.382227
2.950000,0.052054,0.152743,-0.285061,-0.107077,0.387930
2.952000,0.051948,0.150662,-0.286829,-0.110870,0.393555
2.954000,0.051793,0.148521,-0.288534,-0.114643,0.399100
2.956000,0.051592,0.146322,-0.290173,-0.118393,0.404562
2.958000,0.051343,0.144068,-0.291746,-0.122120,0.409938
2.960000,0.051047,0.141761,-0.293252,-0.125822,0.415228
2.962000,0.050704,0.139401,-0.294691,-0.129498,0.420427
2.964000,0.050315,0.136992,-0.296062,-0.133145,0.425535
2.966000,0.049880,0.134534,-0.297366,-0.136762,0.430547
2.968000,0.049400,0.132030,-0.298602,-0.140346,0.435464
2.970000,0.048875,0.129481,-0.299769,-0.143900,0.440282
2.972000,0.048306,0.126890,-0.300869,-0.147417,0.445000
2.974000,0.047693,0.124258,-0.301900,-0.150900,0.449616
2.976000,0.047039,0.121587,-0.302863,-0.154345,0.454128
2.978000,0.046342,0.118878,-0.303758,-0.157751,0.458535
2.980000,0.045605,0.116134,-0.304584,-0.161117,0.462835
2.982000,0.044829,0.113356,-0.305342,-0.164441,0.467025
2.984000,0.044013,0.110546,-0.306033,-0.167723,0.471107
2.986000,0.043160,0.107706,-0.306656,-0.170960,0.475076
2.988000,0.042271,0.104836,-0.307211,-0.174152,0.478933
2.990000,0.041347,0.101940,-0.307700,-0.177297,0.482676
2.992000,0.040388,0.099017,-0.308122,-0.180394,0.486304
2.994000,0.039397,0.096071,-0.308478,-0.183443,0.489817
2.996000,0.038374,0.093102,-0.308767,-0.186442,0.493212
2.998000,0.037321,0.090113,-0.308992,-0.189390,0.496489
3.000000,0.036239,0.087104,-0.309150,-0.192286,0.499648
3.002000,0.035130,0.084077,-0.309245,-0.195129,0.502688
3.004000,0.033995,0.081034,-0.309276,-0.197917,0.505607
3.006000,0.032835,0.077976,-0.309242,-0.200652,0.508406
3.008000,0.031652,0.074904,-0.309146,-0.203331,0.511083
3.010000,0.030448,0.071820,-0.308987,-0.205953,0.513639
3.012000,0.029223,0.068725,-0.308765,-0.208519,0.516073
3.014000,0.027980,0.065621,-0.308482,-0.211027,0.518384
3.016000,0.026719,0.062509,-0.308138,-0.213476,0.520573
3.018000,0.025443,0.059390,-0.307733,-0.215868,0.522640
3.020000,0.024152,0.056266,-0.307268,-0.218199,0.524583
3.022000,0.022849,0.053137,-0.306744,-0.220472,0.526403
3.024000,0.021535,0.050006,-0.306160,-0.222684,0.528101
3.026000,0.020174,0.046886,-0.305518,-0.224829,0.529640
3.028000,0.018879,0.043739,-0.304818,-0.226927,0.531128
3.030000,0.017540,0.040607,-0.304061,-0.228957,0.532458
3.032000,0.016197,0.037476,-0.303246,-0.230927,0.533665
3.034000,0.014849,0.034348,-0.302375,-0.232836,0.534751
3.036000,0.013500,0.031225,-0.301448,-0.234683,0.535716
3.038000,0.012150,0.028108,-0.300465,-0.236470,0.536560
3.040000,0.010801,0.024997,-0.299427,-0.238195,0.537283
3.042000,0.009454,0.021894,-0.298335,-0.239859,0.537887
3.044000,0.008111,0.018799,-0.297189,-0.241462,0.538371
3.046000,0.006773,0.015715,-0.295989,-0.243006,0.538738
3.048000,0.005441,0.012642,-0.294736,-0.244489,0.538987
3.050000,0.004117,0.009581,-0.293430,-0.245912,0.539119
3.052000,0.002803,0.006534,-0.292072,-0.247276,0.539135
3.054000,0.001499,0.003501,-0.290662,-0.248580,0.539036
3.056000,0.000206,0.000483,-0.289200,-0.249827,0.538823
3.058000,-0.001073,-0.002518,-0.287688,-0.251015,0.538498
3.060000,-0.002338,-0.005501,-0.286126,-0.252145,0.538061
3.062000,-0.003587,-0.008466,-0.284513,-0.253219,0.537513
3.064000,-0.004820,-0.011411,-0.282851,-0.254236,0.536856
3.066000,-0.006035,-0.014335,-0.281139,-0.255199,0.536091
3.068000,-0.007231,-0.017237,-0.279379,-0.256107,0.535220
3.070000,-0.008407,-0.020117,-0.277570,-0.256960,0.534242
3.072000,-0.009563,-0.022972,-0.275714,-0.257761,0.533161
3.074000,-0.010696,-0.025803,-0.273810,-0.258509,0.531977
3.076000,-0.011801,-0.028608,-0.271865,-0.259194,0.530678
3.078000,-0.012893,-0.031385,-0.269861,-0.259854,0.529309
3.080000,-0.013954,-0.034135,-0.267817,-0.260452,0.527827
3.082000,-0.014990,-0.036856,-0.265728,-0.261002,0.526249
3.084000,-0.016000,-0.039547,-0.263593,-0.261504,0.524577
3.086000,-0.016983,-0.042207,-0.261414,-0.261961,0.522812
3.088000,-0.017938,-0.044835,-0.259190,-0.262372,0.520956
3.090000,-0.018862,-0.047428,-0.256930,-0.262722,0.518986
3.092000,-0.019762,-0.049992,-0.254613,-0.263063,0.516979
3.094000,-0.020629,-0.052518,-0.252260,-0.263346,0.514861
3.096000,-0.021468,-0.055004,-0.249873,-0.263570,0.512629
3.098000,-0.022274,-0.057463,-0.247428,-0.263793,0.510377
3.100000,-0.023049,-0.059880,-0.244951,-0.263958,0.508015
3.102000,-0.023793,-0.062257,-0.242433,-0.264087,0.505575
3.104000,-0.024506,-0.064596,-0.239875,-0.264180,0.503061
3.106000,-0.025186,-0.066894,-0.237279,-0.264240,0.500472
3.108000,-0.025834,-0.069150,-0.234644,-0.264266,0.497813
3.110000,-0.026449,-0.071365,-0.231971,-0.264260,0.495084
3.112000,-0.027031,-0.073537,-0.229261,-0.264226,0.492290
3.114000,-0.027581,-0.075664,-0.226515,-0.264161,0.489430
3.116000,-0.028098,-0.077747,-0.223734,-0.264069,0.486508
3.118000,-0.028582,-0.079785,-0.220918,-0.263951,0.483525
3.120000,-0.029032,-0.081776,-0.218068,-0.263808,0.480485
3.122000,-0.029450,-0.083721,-0.215185,-0.263640,0.477389
3.124000,-0.029836,-0.085617,-0.212269,-0.263451,0.474240
3.126000,-0.030189,-0.087466,-0.209323,-0.263240,0.471039
3.128000,-0.030509,-0.089264,-0.206346,-0.263009,0.467790
3.130000,-0.030797,-0.091014,-0.203339,-0.262760,0.464495
3.132000,-0.031054,-0.092712,-0.200305,-0.262493,0.461155
3.134000,-0.031279,-0.094360,-0.197242,-0.262211,0.457775
3.136000,-0.031473,-0.095955,-0.194154,-0.261913,0.454354
3.138000,-0.031636,-0.097499,-0.191040,-0.261602,0.450897
3.140000,-0.031770,-0.098989,-0.187901,-0.261279,0.447405
3.142000,-0.031873,-0.100426,-0.184739,-0.260945,0.443881
3.144000,-0.031947,-0.101810,-0.181555,-0.260601,0.440327
3.146000,-0.031993,-0.103139,-0.178350,-0.260248,0.436746
3.148000,-0.032010,-0.104413,-0.175125,-0.259888,0.433140
3.150000,-0.032000,-0.105632,-0.171881,-0.259521,0.429511
3.152000,-0.031963,-0.106796,-0.168620,-0.259149,0.425861
3.154000,-0.031900,-0.107904,-0.165343,-0.258774,0.422194
3.156000,-0.031812,-0.108956,-0.162051,-0.258394,0.418511
3.158000,-0.031699,-0.109952,-0.158745,-0.258014,0.414814
3.160000,-0.031562,-0.110892,-0.155427,-0.257631,0.411107
3.162000,-0.031401,-0.111774,-0.152096,-0.257250,0.407391
3.164000,-0.031218,-0.112600,-0.148757,-0.256869,0.403668
3.166000,-0.031014,-0.113370,-0.145409,-0.256491,0.399941
3.168000,-0.030789,-0.114082,-0.142053,-0.256115,0.396212
3.170000,-0.030544,-0.114737,-0.138692,-0.255743,0.392483
3.172000,-0.030279,-0.115336,-0.135326,-0.255377,0.388756
3.174000,-0.029997,-0.115878,-0.131956,-0.255016,0.385034
3.176000,-0.029697,-0.116363,-0.128585,-0.254662,0.381319
3.178000,-0.029380,-0.116791,-0.125213,-0.254315,0.377613
3.180000,-0.029048,-0.117163,-0.121842,-0.253977,0.373917
3.182000,-0.028701,-0.117479,-0.118473,-0.253647,0.370235
3.184000,-0.028340,-0.117739,-0.115107,-0.253328,0.366567
3.186000,-0.027966,-0.117943,-0.111746,-0.253019,0.362916
3.188000,-0.027580,-0.118092,-0.108391,-0.252721,0.359284
3.190000,-0.027182,-0.118187,-0.105043,-0.252435,0.355674
3.192000,-0.026774,-0.118226,-0.101704,-0.252162,0.352085
3.194000,-0.026356,-0.118212,-0.098375,-0.251902,0.348521
3.196000,-0.025930,-0.118144,-0.095058,-0.251656,0.344984
3.198000,-0.025495,-0.118023,-0.091753,-0.251424,0.341474
3.200000,-0.025054,-0.117850,-0.088461,-0.251207,0.337994
3.202000,-0.024606,-0.117625,-0.085185,-0.251006,0.334546
3.204000,-0.024152,-0.117348,-0.081925,-0.250821,0.331131
3.206000,-0.023694,-0.117021,-0.078682,-0.250652,0.327750
3.208000,-0.023231,-0.116644,-0.075458,-0.250500,0.324405
3.210000,-0.022765,-0.116217,-0.072255,-0.250365,0.321099
3.212000,-0.022297,-0.115742,-0.069071,-0.250248,0.317831
3.214000,-0.021827,-0.115219,-0.065910,-0.250149,0.314604
3.216000,-0.021355,-0.114649,-0.062772,-0.250069,0.311419
3.218000,-0.020883,-0.114033,-0.059659,-0.250006,0.308276
3.220000,-0.020411,-0.113372,-0.056570,-0.249964,0.305179
3.222000,-0.019940,-0.112666,-0.053507,-0.249941,0.302127
3.224000,-0.019470,-0.111917,-0.050472,-0.249938,0.299122
3.226000,-0.019001,-0.111125,-0.047465,-0.249954,0.296166
3.228000,-0.018535,-0.110291,-0.044487,-0.249990,0.293257
3.230000,-0.018072,-0.109416,-0.041539,-0.250047,0.290399
3.232000,-0.017612,-0.108501,-0.038622,-0.250124,0.287593
3.234000,-0.017155,-0.107547,-0.035737,-0.250221,0.284838
3.236000,-0.016703,-0.106556,-0.032883,-0.250341,0.282136
3.238000,-0.016256,-0.105527,-0.030064,-0.250480,0.279488
3.240000,-0.015813,-0.104463,-0.027277,-0.250641,0.276895
3.242000,-0.015376,-0.103363,-0.024526,-0.250824,0.274357
3.244000,-0.014944,-0.102230,-0.021809,-0.251027,0.271875
3.246000,-0.014518,-0.101064,-0.019129,-0.251252,0.269449
3.248000,-0.014099,-0.099866,-0.016485,-0.251498,0.267081
3.250000,-0.013686,-0.098637,-0.013878,-0.251766,0.264770
3.252000,-0.013279,-0.097379,-0.011309,-0.252055,0.262518
3.254000,-0.012880,-0.096092,-0.008777,-0.252366,0.260325
3.256000,-0.012487,-0.094777,-0.006284,-0.252698,0.258191
3.258000,-0.012102,-0.093436,-0.003830,-0.253051,0.256117
3.260000,-0.011724,-0.092069,-0.001415,-0.253426,0.254103
3.262000,-0.011354,-0.090678,0.000959,-0.253822,0.252148
3.264000,-0.010991,-0.089264,0.003294,-0.254239,0.250254
3.266000,-0.010636,-0.087827,0.005589,-0.254678,0.248422
3.268000,-0.010289,-0.086369,0.007843,-0.255138,0.246650
3.270000,-0.009949,-0.084891,0.010056,-0.255619,0.244940
3.272000,-0.009617,-0.083394,0.012228,-0.256119,0.243290
3.274000,-0.009293,-0.081879,0.014359,-0.256642,0.241701
3.276000,-0.008976,-0.080347,0.016449,-0.257185,0.240175
3.278000,-0.008667,-0.078799,0.018497,-0.257749,0.238709
3.280000,-0.008366,-0.077236,0.020504,-0.258332,0.237304
3.282000,-0.008073,-0.075659,0.022469,-0.258938,0.235962
3.284000,-0.007787,-0.074069,0.024392,-0.259561,0.234679
3.286000,-0.007508,-0.072467,0.026274,-0.260205,0.233458
3.288000,-0.007237,-0.070854,0.028114,-0.260870,0.232298
3.290000,-0.006973,-0.069231,0.029912,-0.261553,0.231198
3.292000,-0.006716,-0.067599,0.031669,-0.262256,0.230158
3.294000,-0.006466,-0.065960,0.033384,-0.262979,0.229179
3.296000,-0.006223,-0.064313,0.035058,-0.263720,0.228259
3.298000,-0.005987,-0.062660,0.036690,-0.264479,0.227399
3.300000,-0.005757,-0.061001,0.038282,-0.265257,0.226598
3.302000,-0.005534,-0.059338,0.039832,-0.266054,0.225855
3.304000,-0.005316,-0.057672,0.041342,-0.266869,0.225171
3.306000,-0.005105,-0.056004,0.042811,-0.267701,0.224545
3.308000,-0.004900,-0.054333,0.044240,-0.268552,0.223976
3.310000,-0.004700,-0.052662,0.045628,-0.269419,0.223464
3.312000,-0.004506,-0.050990,0.046977,-0.270304,0.223009
3.314000,-0.004317,-0.049320,0.048287,-0.271205,0.222609
3.316000,-0.004134,-0.047651,0.049556,-0.272123,0.222265
3.318000,-0.003955,-0.045984,0.050788,-0.273058,0.221976
3.320000,-0.003781,-0.044321,0.051980,-0.274008,0.221741
3.322000,-0.003612,-0.042661,0.053135,-0.274975,0.221560
3.324000,-0.003447,-0.041006,0.054251,-0.275957,0.221432
3.326000,-0.003286,-0.039357,0.055330,-0.276954,0.221356
3.328000,-0.003129,-0.037713,0.056372,-0.277967,0.221333
3.330000,-0.002976,-0.036077,0.057377,-0.278994,0.221360
3.332000,-0.002827,-0.034447,0.058346,-0.280036,0.221438
3.334000,-0.002681,-0.032826,0.059278,-0.281091,0.221565
3.336000,-0.002538,-0.031214,0.060175,-0.282160,0.221742
3.338000,-0.002399,-0.029611,0.061037,-0.283244,0.221967
3.340000,-0.002262,-0.028018,0.061865,-0.284340,0.222240
3.342000,-0.002128,-0.026435,0.062658,-0.285450,0.222560
3.344000,-0.001997,-0.024864,0.063418,-0.286572,0.222926
3.346000,-0.001868,-0.023304,0.064144,-0.287707,0.223337
3.348000,-0.001741,-0.021757,0.064838,-0.288853,0.223793
3.350000,-0.001617,-0.020223,0.065499,-0.290012,0.224293
3.352000,-0.001495,-0.018701,0.066129,-0.291182,0.224836
3.354000,-0.001374,-0.017194,0.066727,-0.292363,0.225421
3.356000,-0.001255,-0.015701,0.067294,-0.293556,0.226048
3.358000,-0.001138,-0.014222,0.067831,-0.294759,0.226716
3.360000,-0.001022,-0.012759,0.068339,-0.295972,0.227423
3.362000,-0.000907,-0.011311,0.068817,-0.297195,0.228170
3.364000,-0.000794,-0.009879,0.069266,-0.298428,0.228954
3.366000,-0.000682,-0.008464,0.069687,-0.299671,0.229777
3.368000,-0.000571,-0.007065,0.070081,-0.300922,0.230636
3.370000,-0.000461,-0.005684,0.070447,-0.302183,0.231531
3.372000,-0.000351,-0.004320,0.070786,-0.303451,0.232461
3.374000,-0.000243,-0.002974,0.071099,-0.304728,0.233425
3.376000,-0.000135,-0.001646,0.071387,-0.306014,0.234423
3.378000,-0.000028,-0.000337,0.071649,-0.307305,0.235453
3.380000,0.000079,0.000954,0.071887,-0.308605,0.236514
3.382000,0.000185,0.002225,0.072101,-0.309912,0.237607
3.384000,0.000291,0.003477,0.072291,-0.311225,0.238730
3.386000,0.000396,0.004710,0.072458,-0.312543,0.239881
3.388000,0.000501,0.005923,0.072604,-0.313871,0.241062
3.390000,0.000606,0.007116,0.072726,-0.315202,0.242270
3.392000,0.000711,0.008289,0.072827,-0.316538,0.243504
3.394000,0.000815,0.009441,0.072908,-0.317880,0.244765
3.396000,0.000919,0.010573,0.072968,-0.319227,0.246051
3.398000,0.001023,0.011684,0.073007,-0.320577,0.247360
3.400000,0.001126,0.012774,0.073028,-0.321933,0.248694
3.402000,0.001230,0.013843,0.073029,-0.323292,0.250050
3.404000,0.001333,0.014891,0.073013,-0.324654,0.251428
3.406000,0.001436,0.015918,0.072978,-0.326021,0.252828
3.408000,0.001539,0.016923,0.072926,-0.327390,0.254248
3.410000,0.001642,0.017907,0.072856,-0.328761,0.255687
3.412000,0.001744,0.018869,0.072770,-0.330135,0.257145
3.414000,0.001846,0.019810,0.072668,-0.331511,0.258621
3.416000,0.001948,0.020729,0.072551,-0.332888,0.260114
3.418000,0.002050,0.021626,0.072419,-0.334269,0.261624
3.420000,0.002151,0.022502,0.072272,-0.335649,0.263150
3.422000,0.002252,0.023355,0.072110,-0.337029,0.264690
3.424000,0.002353,0.024188,0.071935,-0.338412,0.266245
3.426000,0.002454,0.024998,0.071746,-0.339794,0.267814
3.428000,0.002553,0.025787,0.071546,-0.341177,0.269395
3.430000,0.002653,0.026553,0.071332,-0.342559,0.270989
3.432000,0.002752,0.027298,0.071105,-0.343940,0.272594
3.434000,0.002850,0.028022,0.070868,-0.345321,0.274210
3.436000,0.002948,0.028724,0.070620,-0.346702,0.275836
3.438000,0.003045,0.029404,0.070360,-0.348080,0.277471
3.440000,0.003141,0.030063,0.070090,-0.349456,0.279115
3.442000,0.003237,0.030700,0.069810,-0.350830,0.280767
3.444000,0.003332,0.031316,0.069521,-0.352204,0.282427
3.446000,0.003426,0.031910,0.069222,-0.353574,0.284093
3.448000,0.003519,0.032484,0.068914,-0.354941,0.285766
3.450000,0.003611,0.033036,0.068598,-0.356306,0.287445
3.452000,0.003702,0.033568,0.068273,-0.357666,0.289128
3.454000,0.003792,0.034078,0.067940,-0.359024,0.290816
3.456000,0.003881,0.034568,0.067600,-0.360379,0.292508
3.458000,0.003969,0.035037,0.067253,-0.361728,0.294202
3.460000,0.004056,0.035486,0.066899,-0.363075,0.295900
3.462000,0.004141,0.035915,0.066537,-0.364414,0.297599
3.464000,0.004225,0.036323,0.066171,-0.365753,0.299301
3.466000,0.004307,0.036711,0.065797,-0.367083,0.301003
3.468000,0.004389,0.037080,0.065418,-0.368409,0.302707
3.470000,0.004469,0.037428,0.065033,-0.369731,0.304410
3.472000,0.004546,0.037757,0.064643,-0.371045,0.306112
3.474000,0.004623,0.038067,0.064249,-0.372355,0.307815
3.476000,0.004698,0.038358,0.063849,-0.373658,0.309515
3.478000,0.004771,0.038629,0.063445,-0.374955,0.311214
3.480000,0.004843,0.038882,0.063037,-0.376245,0.312911
3.482000,0.004913,0.039116,0.062625,-0.377530,0.314605
3.484000,0.004981,0.039332,0.062209,-0.378805,0.316295
3.486000,0.005047,0.039530,0.061789,-0.380075,0.317982
3.488000,0.005111,0.039709,0.061367,-0.381337,0.319666
3.490000,0.005173,0.039871,0.060941,-0.382592,0.321344
3.492000,0.005233,0.040015,0.060511,-0.383838,0.323018
3.494000,0.005291,0.040141,0.060079,-0.385076,0.324687
3.496000,0.005347,0.040251,0.059645,-0.386306,0.326350
3.498000,0.005401,0.040343,0.059208,-0.387529,0.328009
3.500000,0.005452,0.040418,0.058768,-0.388742,0.329659
3.502000,0.005503,0.040478,0.058327,-0.389948,0.331306
3.504000,0.005550,0.040520,0.057883,-0.391143,0.332944
3.506000,0.005595,0.040547,0.057438,-0.392331,0.334575
3.508000,0.005638,0.040557,0.056991,-0.393509,0.336199
3.510000,0.005679,0.040552,0.056543,-0.394678,0.337816
3.512000,0.005717,0.040532,0.056093,-0.395836,0.339424
3.514000,0.005753,0.040496,0.055640,-0.396984,0.341024
3.516000,0.005787,0.040445,0.055188,-0.398124,0.342616
3.518000,0.005818,0.040379,0.054733,-0.399253,0.344199
3.520000,0.005847,0.040299,0.054279,-0.400374,0.345774
3.522000,0.005874,0.040205,0.053822,-0.401483,0.347339
3.524000,0.005898,0.040096,0.053365,-0.402581,0.348894
3.526000,0.005920,0.039974,0.052907,-0.403669,0.350440
3.528000,0.005939,0.039838,0.052448,-0.404746,0.351977
3.530000,0.005956,0.039688,0.051988,-0.405814,0.353504
3.532000,0.005970,0.039526,0.051528,-0.406870,0.355020
3.534000,0.005982,0.039350,0.051067,-0.407915,0.356527
3.536000,0.005991,0.039162,0.050605,-0.408948,0.358022
3.538000,0.005998,0.038961,0.050143,-0.409971,0.359508
3.540000,0.006003,0.038748,0.049680,-0.410983,0.360983
3.542000,0.006004,0.038522,0.049217,-0.411982,0.362446
3.544000,0.006004,0.038285,0.048753,-0.412971,0.363900
3.546000,0.006001,0.038037,0.048288,-0.413947,0.365341
